; vibe-cutting deterministic GRBL artifact
G21
G90
M5
; vector_engrave
; material=basswood_3mm thickness_mm=3.0
; passes=1 speed_mm_per_min=5000 power_percent=30 air_assist=low
; pass 1 of 1
F5000
M5
G0 X32.867 Y16.980
M4 S300
G1 X34.103 Y16.980
M5
M5
G0 X32.708 Y17.160
M4 S300
G1 X33.179 Y17.160
M5
M5
G0 X33.792 Y17.160
M4 S300
G1 X34.261 Y17.160
M5
M5
G0 X32.636 Y17.340
M4 S300
G1 X33.023 Y17.340
M5
M5
G0 X33.959 Y17.340
M4 S300
G1 X34.344 Y17.340
M5
M5
G0 X34.019 Y17.520
M4 S300
G1 X34.386 Y17.520
M5
M5
G0 X20.437 Y17.700
M4 S300
G1 X20.803 Y17.700
M5
M5
G0 X21.826 Y17.700
M4 S300
G1 X22.194 Y17.700
M5
M5
G0 X23.174 Y17.700
M4 S300
G1 X24.016 Y17.700
M5
M5
G0 X25.437 Y17.700
M4 S300
G1 X26.279 Y17.700
M5
M5
G0 X27.569 Y17.700
M4 S300
G1 X28.289 Y17.700
M5
M5
G0 X28.632 Y17.700
M4 S300
G1 X28.983 Y17.700
M5
M5
G0 X29.478 Y17.700
M4 S300
G1 X29.845 Y17.700
M5
M5
G0 X30.392 Y17.700
M4 S300
G1 X30.759 Y17.700
M5
M5
G0 X31.782 Y17.700
M4 S300
G1 X32.150 Y17.700
M5
M5
G0 X33.039 Y17.700
M4 S300
G1 X33.609 Y17.700
M5
M5
G0 X34.037 Y17.700
M4 S300
G1 X34.400 Y17.700
M5
M5
G0 X36.271 Y17.700
M4 S300
G1 X36.887 Y17.700
M5
M5
G0 X37.636 Y17.700
M4 S300
G1 X38.454 Y17.700
M5
M5
G0 X40.555 Y17.700
M4 S300
G1 X40.910 Y17.700
M5
M5
G0 X41.247 Y17.700
M4 S300
G1 X41.946 Y17.700
M5
M5
G0 X43.310 Y17.700
M4 S300
G1 X44.153 Y17.700
M5
M5
G0 X46.436 Y17.700
M4 S300
G1 X47.158 Y17.700
M5
M5
G0 X47.754 Y17.700
M4 S300
G1 X48.258 Y17.700
M5
M5
G0 X48.756 Y17.700
M4 S300
G1 X49.701 Y17.700
M5
M5
G0 X50.519 Y17.700
M4 S300
G1 X50.885 Y17.700
M5
M5
G0 X51.878 Y17.700
M4 S300
G1 X52.307 Y17.700
M5
M5
G0 X53.036 Y17.700
M4 S300
G1 X53.878 Y17.700
M5
M5
G0 X55.168 Y17.700
M4 S300
G1 X55.888 Y17.700
M5
M5
G0 X56.230 Y17.700
M4 S300
G1 X56.582 Y17.700
M5
M5
G0 X57.179 Y17.700
M4 S300
G1 X57.576 Y17.700
M5
M5
G0 X20.437 Y17.880
M4 S300
G1 X20.803 Y17.880
M5
M5
G0 X21.826 Y17.880
M4 S300
G1 X22.194 Y17.880
M5
M5
G0 X22.886 Y17.880
M4 S300
G1 X24.310 Y17.880
M5
M5
G0 X25.149 Y17.880
M4 S300
G1 X26.573 Y17.880
M5
M5
G0 X27.335 Y17.880
M4 S300
G1 X28.517 Y17.880
M5
M5
G0 X28.619 Y17.880
M4 S300
G1 X28.975 Y17.880
M5
M5
G0 X29.478 Y17.880
M4 S300
G1 X29.845 Y17.880
M5
M5
G0 X30.392 Y17.880
M4 S300
G1 X30.759 Y17.880
M5
M5
G0 X31.782 Y17.880
M4 S300
G1 X32.150 Y17.880
M5
M5
G0 X32.769 Y17.880
M4 S300
G1 X33.896 Y17.880
M5
M5
G0 X34.039 Y17.880
M4 S300
G1 X34.403 Y17.880
M5
M5
G0 X36.120 Y17.880
M4 S300
G1 X36.887 Y17.880
M5
M5
G0 X37.356 Y17.880
M4 S300
G1 X38.743 Y17.880
M5
M5
G0 X40.563 Y17.880
M4 S300
G1 X40.922 Y17.880
M5
M5
G0 X41.018 Y17.880
M4 S300
G1 X42.187 Y17.880
M5
M5
G0 X43.023 Y17.880
M4 S300
G1 X44.446 Y17.880
M5
M5
G0 X46.227 Y17.880
M4 S300
G1 X47.411 Y17.880
M5
M5
G0 X47.612 Y17.880
M4 S300
G1 X48.258 Y17.880
M5
M5
G0 X48.475 Y17.880
M4 S300
G1 X49.989 Y17.880
M5
M5
G0 X50.519 Y17.880
M4 S300
G1 X50.885 Y17.880
M5
M5
G0 X51.745 Y17.880
M4 S300
G1 X52.172 Y17.880
M5
M5
G0 X52.748 Y17.880
M4 S300
G1 X54.172 Y17.880
M5
M5
G0 X54.934 Y17.880
M4 S300
G1 X56.116 Y17.880
M5
M5
G0 X56.218 Y17.880
M4 S300
G1 X56.574 Y17.880
M5
M5
G0 X57.179 Y17.880
M4 S300
G1 X57.576 Y17.880
M5
M5
G0 X20.437 Y18.060
M4 S300
G1 X20.803 Y18.060
M5
M5
G0 X21.826 Y18.060
M4 S300
G1 X22.194 Y18.060
M5
M5
G0 X22.748 Y18.060
M4 S300
G1 X23.174 Y18.060
M5
M5
G0 X24.041 Y18.060
M4 S300
G1 X24.439 Y18.060
M5
M5
G0 X25.011 Y18.060
M4 S300
G1 X25.437 Y18.060
M5
M5
G0 X26.304 Y18.060
M4 S300
G1 X26.702 Y18.060
M5
M5
G0 X27.228 Y18.060
M4 S300
G1 X27.657 Y18.060
M5
M5
G0 X28.409 Y18.060
M4 S300
G1 X28.973 Y18.060
M5
M5
G0 X29.478 Y18.060
M4 S300
G1 X29.845 Y18.060
M5
M5
G0 X30.392 Y18.060
M4 S300
G1 X30.759 Y18.060
M5
M5
G0 X31.782 Y18.060
M4 S300
G1 X32.150 Y18.060
M5
M5
G0 X32.658 Y18.060
M4 S300
G1 X33.090 Y18.060
M5
M5
G0 X33.796 Y18.060
M4 S300
G1 X34.023 Y18.060
M5
M5
G0 X34.039 Y18.060
M4 S300
G1 X34.403 Y18.060
M5
M5
G0 X36.083 Y18.060
M4 S300
G1 X36.463 Y18.060
M5
M5
G0 X37.222 Y18.060
M4 S300
G1 X37.639 Y18.060
M5
M5
G0 X38.464 Y18.060
M4 S300
G1 X38.880 Y18.060
M5
M5
G0 X40.565 Y18.060
M4 S300
G1 X41.108 Y18.060
M5
M5
G0 X41.885 Y18.060
M4 S300
G1 X42.298 Y18.060
M5
M5
G0 X42.884 Y18.060
M4 S300
G1 X43.311 Y18.060
M5
M5
G0 X44.177 Y18.060
M4 S300
G1 X44.575 Y18.060
M5
M5
G0 X46.146 Y18.060
M4 S300
G1 X46.548 Y18.060
M5
M5
G0 X47.313 Y18.060
M4 S300
G1 X47.542 Y18.060
M5
M5
G0 X47.577 Y18.060
M4 S300
G1 X47.948 Y18.060
M5
M5
G0 X48.362 Y18.060
M4 S300
G1 X48.749 Y18.060
M5
M5
G0 X49.720 Y18.060
M4 S300
G1 X50.099 Y18.060
M5
M5
G0 X50.519 Y18.060
M4 S300
G1 X50.885 Y18.060
M5
M5
G0 X51.611 Y18.060
M4 S300
G1 X52.037 Y18.060
M5
M5
G0 X52.610 Y18.060
M4 S300
G1 X53.036 Y18.060
M5
M5
G0 X53.903 Y18.060
M4 S300
G1 X54.301 Y18.060
M5
M5
G0 X54.827 Y18.060
M4 S300
G1 X55.256 Y18.060
M5
M5
G0 X56.008 Y18.060
M4 S300
G1 X56.572 Y18.060
M5
M5
G0 X57.179 Y18.060
M4 S300
G1 X57.576 Y18.060
M5
M5
G0 X20.437 Y18.240
M4 S300
G1 X20.803 Y18.240
M5
M5
G0 X21.826 Y18.240
M4 S300
G1 X22.194 Y18.240
M5
M5
G0 X22.666 Y18.240
M4 S300
G1 X23.054 Y18.240
M5
M5
G0 X24.160 Y18.240
M4 S300
G1 X24.178 Y18.240
M5
M5
G0 X24.929 Y18.240
M4 S300
G1 X25.317 Y18.240
M5
M5
G0 X26.423 Y18.240
M4 S300
G1 X26.441 Y18.240
M5
M5
G0 X27.168 Y18.240
M4 S300
G1 X27.562 Y18.240
M5
M5
G0 X28.522 Y18.240
M4 S300
G1 X28.973 Y18.240
M5
M5
G0 X29.478 Y18.240
M4 S300
G1 X29.845 Y18.240
M5
M5
G0 X30.392 Y18.240
M4 S300
G1 X30.759 Y18.240
M5
M5
G0 X31.782 Y18.240
M4 S300
G1 X32.150 Y18.240
M5
M5
G0 X32.597 Y18.240
M4 S300
G1 X32.988 Y18.240
M5
M5
G0 X33.929 Y18.240
M4 S300
G1 X34.403 Y18.240
M5
M5
G0 X36.077 Y18.240
M4 S300
G1 X36.444 Y18.240
M5
M5
G0 X37.142 Y18.240
M4 S300
G1 X37.532 Y18.240
M5
M5
G0 X38.570 Y18.240
M4 S300
G1 X38.958 Y18.240
M5
M5
G0 X40.565 Y18.240
M4 S300
G1 X41.004 Y18.240
M5
M5
G0 X41.977 Y18.240
M4 S300
G1 X42.364 Y18.240
M5
M5
G0 X42.803 Y18.240
M4 S300
G1 X43.190 Y18.240
M5
M5
G0 X44.297 Y18.240
M4 S300
G1 X44.314 Y18.240
M5
M5
G0 X46.119 Y18.240
M4 S300
G1 X46.496 Y18.240
M5
M5
G0 X47.466 Y18.240
M4 S300
G1 X47.932 Y18.240
M5
M5
G0 X48.578 Y18.240
M4 S300
G1 X48.647 Y18.240
M5
M5
G0 X49.779 Y18.240
M4 S300
G1 X50.134 Y18.240
M5
M5
G0 X50.519 Y18.240
M4 S300
G1 X50.885 Y18.240
M5
M5
G0 X51.478 Y18.240
M4 S300
G1 X51.903 Y18.240
M5
M5
G0 X52.528 Y18.240
M4 S300
G1 X52.916 Y18.240
M5
M5
G0 X54.022 Y18.240
M4 S300
G1 X54.040 Y18.240
M5
M5
G0 X54.767 Y18.240
M4 S300
G1 X55.161 Y18.240
M5
M5
G0 X56.120 Y18.240
M4 S300
G1 X56.572 Y18.240
M5
M5
G0 X20.437 Y18.420
M4 S300
G1 X20.803 Y18.420
M5
M5
G0 X21.826 Y18.420
M4 S300
G1 X22.194 Y18.420
M5
M5
G0 X22.621 Y18.420
M4 S300
G1 X22.998 Y18.420
M5
M5
G0 X24.884 Y18.420
M4 S300
G1 X25.261 Y18.420
M5
M5
G0 X27.134 Y18.420
M4 S300
G1 X27.520 Y18.420
M5
M5
G0 X28.574 Y18.420
M4 S300
G1 X28.973 Y18.420
M5
M5
G0 X29.478 Y18.420
M4 S300
G1 X29.845 Y18.420
M5
M5
G0 X30.392 Y18.420
M4 S300
G1 X30.759 Y18.420
M5
M5
G0 X31.782 Y18.420
M4 S300
G1 X32.150 Y18.420
M5
M5
G0 X32.564 Y18.420
M4 S300
G1 X32.944 Y18.420
M5
M5
G0 X33.997 Y18.420
M4 S300
G1 X34.403 Y18.420
M5
M5
G0 X36.077 Y18.420
M4 S300
G1 X36.444 Y18.420
M5
M5
G0 X37.097 Y18.420
M4 S300
G1 X37.481 Y18.420
M5
M5
G0 X38.619 Y18.420
M4 S300
G1 X39.003 Y18.420
M5
M5
G0 X40.565 Y18.420
M4 S300
G1 X40.956 Y18.420
M5
M5
G0 X42.018 Y18.420
M4 S300
G1 X42.399 Y18.420
M5
M5
G0 X42.757 Y18.420
M4 S300
G1 X43.134 Y18.420
M5
M5
G0 X46.128 Y18.420
M4 S300
G1 X46.509 Y18.420
M5
M5
G0 X47.541 Y18.420
M4 S300
G1 X47.932 Y18.420
M5
M5
G0 X49.730 Y18.420
M4 S300
G1 X50.122 Y18.420
M5
M5
G0 X50.519 Y18.420
M4 S300
G1 X50.885 Y18.420
M5
M5
G0 X51.344 Y18.420
M4 S300
G1 X51.768 Y18.420
M5
M5
G0 X52.483 Y18.420
M4 S300
G1 X52.860 Y18.420
M5
M5
G0 X54.733 Y18.420
M4 S300
G1 X55.119 Y18.420
M5
M5
G0 X56.173 Y18.420
M4 S300
G1 X56.572 Y18.420
M5
M5
G0 X20.437 Y18.600
M4 S300
G1 X20.803 Y18.600
M5
M5
G0 X21.826 Y18.600
M4 S300
G1 X22.194 Y18.600
M5
M5
G0 X22.596 Y18.600
M4 S300
G1 X22.975 Y18.600
M5
M5
G0 X24.859 Y18.600
M4 S300
G1 X25.238 Y18.600
M5
M5
G0 X27.116 Y18.600
M4 S300
G1 X27.502 Y18.600
M5
M5
G0 X28.598 Y18.600
M4 S300
G1 X28.973 Y18.600
M5
M5
G0 X29.478 Y18.600
M4 S300
G1 X29.845 Y18.600
M5
M5
G0 X30.392 Y18.600
M4 S300
G1 X30.759 Y18.600
M5
M5
G0 X31.782 Y18.600
M4 S300
G1 X32.150 Y18.600
M5
M5
G0 X32.546 Y18.600
M4 S300
G1 X32.926 Y18.600
M5
M5
G0 X34.030 Y18.600
M4 S300
G1 X34.403 Y18.600
M5
M5
G0 X36.077 Y18.600
M4 S300
G1 X36.444 Y18.600
M5
M5
G0 X37.073 Y18.600
M4 S300
G1 X37.457 Y18.600
M5
M5
G0 X38.641 Y18.600
M4 S300
G1 X39.026 Y18.600
M5
M5
G0 X40.565 Y18.600
M4 S300
G1 X40.936 Y18.600
M5
M5
G0 X42.036 Y18.600
M4 S300
G1 X42.416 Y18.600
M5
M5
G0 X42.732 Y18.600
M4 S300
G1 X43.111 Y18.600
M5
M5
G0 X46.180 Y18.600
M4 S300
G1 X46.610 Y18.600
M5
M5
G0 X47.562 Y18.600
M4 S300
G1 X47.932 Y18.600
M5
M5
G0 X49.396 Y18.600
M4 S300
G1 X50.045 Y18.600
M5
M5
G0 X50.519 Y18.600
M4 S300
G1 X51.059 Y18.600
M5
M5
G0 X51.211 Y18.600
M4 S300
G1 X51.633 Y18.600
M5
M5
G0 X52.458 Y18.600
M4 S300
G1 X52.837 Y18.600
M5
M5
G0 X54.715 Y18.600
M4 S300
G1 X55.101 Y18.600
M5
M5
G0 X56.197 Y18.600
M4 S300
G1 X56.572 Y18.600
M5
M5
G0 X20.437 Y18.780
M4 S300
G1 X20.803 Y18.780
M5
M5
G0 X21.826 Y18.780
M4 S300
G1 X22.194 Y18.780
M5
M5
G0 X22.588 Y18.780
M4 S300
G1 X24.540 Y18.780
M5
M5
G0 X24.851 Y18.780
M4 S300
G1 X26.803 Y18.780
M5
M5
G0 X27.112 Y18.780
M4 S300
G1 X27.496 Y18.780
M5
M5
G0 X28.606 Y18.780
M4 S300
G1 X28.973 Y18.780
M5
M5
G0 X29.478 Y18.780
M4 S300
G1 X29.845 Y18.780
M5
M5
G0 X30.392 Y18.780
M4 S300
G1 X30.759 Y18.780
M5
M5
G0 X31.782 Y18.780
M4 S300
G1 X32.150 Y18.780
M5
M5
G0 X32.542 Y18.780
M4 S300
G1 X32.920 Y18.780
M5
M5
G0 X34.039 Y18.780
M4 S300
G1 X34.403 Y18.780
M5
M5
G0 X36.077 Y18.780
M4 S300
G1 X36.444 Y18.780
M5
M5
G0 X37.066 Y18.780
M4 S300
G1 X37.450 Y18.780
M5
M5
G0 X38.648 Y18.780
M4 S300
G1 X39.033 Y18.780
M5
M5
G0 X40.565 Y18.780
M4 S300
G1 X40.932 Y18.780
M5
M5
G0 X42.042 Y18.780
M4 S300
G1 X42.426 Y18.780
M5
M5
G0 X42.724 Y18.780
M4 S300
G1 X44.677 Y18.780
M5
M5
G0 X46.308 Y18.780
M4 S300
G1 X47.932 Y18.780
M5
M5
G0 X48.787 Y18.780
M4 S300
G1 X49.848 Y18.780
M5
M5
G0 X50.519 Y18.780
M4 S300
G1 X51.498 Y18.780
M5
M5
G0 X52.450 Y18.780
M4 S300
G1 X54.402 Y18.780
M5
M5
G0 X54.711 Y18.780
M4 S300
G1 X55.095 Y18.780
M5
M5
G0 X56.205 Y18.780
M4 S300
G1 X56.572 Y18.780
M5
M5
G0 X20.437 Y18.960
M4 S300
G1 X20.803 Y18.960
M5
M5
G0 X21.826 Y18.960
M4 S300
G1 X22.194 Y18.960
M5
M5
G0 X22.595 Y18.960
M4 S300
G1 X24.529 Y18.960
M5
M5
G0 X24.858 Y18.960
M4 S300
G1 X26.792 Y18.960
M5
M5
G0 X27.122 Y18.960
M4 S300
G1 X27.502 Y18.960
M5
M5
G0 X28.601 Y18.960
M4 S300
G1 X28.973 Y18.960
M5
M5
G0 X29.478 Y18.960
M4 S300
G1 X29.845 Y18.960
M5
M5
G0 X30.392 Y18.960
M4 S300
G1 X30.759 Y18.960
M5
M5
G0 X31.782 Y18.960
M4 S300
G1 X32.150 Y18.960
M5
M5
G0 X32.548 Y18.960
M4 S300
G1 X32.927 Y18.960
M5
M5
G0 X34.029 Y18.960
M4 S300
G1 X34.403 Y18.960
M5
M5
G0 X36.077 Y18.960
M4 S300
G1 X36.444 Y18.960
M5
M5
G0 X37.078 Y18.960
M4 S300
G1 X37.458 Y18.960
M5
M5
G0 X38.641 Y18.960
M4 S300
G1 X39.026 Y18.960
M5
M5
G0 X40.565 Y18.960
M4 S300
G1 X40.940 Y18.960
M5
M5
G0 X42.035 Y18.960
M4 S300
G1 X42.421 Y18.960
M5
M5
G0 X42.732 Y18.960
M4 S300
G1 X44.665 Y18.960
M5
M5
G0 X46.669 Y18.960
M4 S300
G1 X47.932 Y18.960
M5
M5
G0 X48.527 Y18.960
M4 S300
G1 X49.329 Y18.960
M5
M5
G0 X50.519 Y18.960
M4 S300
G1 X50.885 Y18.960
M5
M5
G0 X51.024 Y18.960
M4 S300
G1 X51.418 Y18.960
M5
M5
G0 X52.457 Y18.960
M4 S300
G1 X54.391 Y18.960
M5
M5
G0 X54.721 Y18.960
M4 S300
G1 X55.101 Y18.960
M5
M5
G0 X56.200 Y18.960
M4 S300
G1 X56.572 Y18.960
M5
M5
G0 X20.437 Y19.140
M4 S300
G1 X20.819 Y19.140
M5
M5
G0 X21.825 Y19.140
M4 S300
G1 X22.194 Y19.140
M5
M5
G0 X22.621 Y19.140
M4 S300
G1 X22.994 Y19.140
M5
M5
G0 X24.141 Y19.140
M4 S300
G1 X24.504 Y19.140
M5
M5
G0 X24.884 Y19.140
M4 S300
G1 X25.257 Y19.140
M5
M5
G0 X26.404 Y19.140
M4 S300
G1 X26.767 Y19.140
M5
M5
G0 X27.142 Y19.140
M4 S300
G1 X27.522 Y19.140
M5
M5
G0 X28.579 Y19.140
M4 S300
G1 X28.973 Y19.140
M5
M5
G0 X29.478 Y19.140
M4 S300
G1 X29.845 Y19.140
M5
M5
G0 X30.392 Y19.140
M4 S300
G1 X30.775 Y19.140
M5
M5
G0 X31.781 Y19.140
M4 S300
G1 X32.150 Y19.140
M5
M5
G0 X32.568 Y19.140
M4 S300
G1 X32.948 Y19.140
M5
M5
G0 X33.996 Y19.140
M4 S300
G1 X34.403 Y19.140
M5
M5
G0 X36.077 Y19.140
M4 S300
G1 X36.444 Y19.140
M5
M5
G0 X37.100 Y19.140
M4 S300
G1 X37.482 Y19.140
M5
M5
G0 X38.619 Y19.140
M4 S300
G1 X39.003 Y19.140
M5
M5
G0 X40.565 Y19.140
M4 S300
G1 X40.966 Y19.140
M5
M5
G0 X42.015 Y19.140
M4 S300
G1 X42.402 Y19.140
M5
M5
G0 X42.757 Y19.140
M4 S300
G1 X43.131 Y19.140
M5
M5
G0 X44.277 Y19.140
M4 S300
G1 X44.640 Y19.140
M5
M5
G0 X47.562 Y19.140
M4 S300
G1 X47.932 Y19.140
M5
M5
G0 X48.427 Y19.140
M4 S300
G1 X48.844 Y19.140
M5
M5
G0 X50.519 Y19.140
M4 S300
G1 X50.885 Y19.140
M5
M5
G0 X51.187 Y19.140
M4 S300
G1 X51.588 Y19.140
M5
M5
G0 X52.483 Y19.140
M4 S300
G1 X52.856 Y19.140
M5
M5
G0 X54.003 Y19.140
M4 S300
G1 X54.366 Y19.140
M5
M5
G0 X54.741 Y19.140
M4 S300
G1 X55.121 Y19.140
M5
M5
G0 X56.178 Y19.140
M4 S300
G1 X56.572 Y19.140
M5
M5
G0 X20.437 Y19.320
M4 S300
G1 X20.874 Y19.320
M5
M5
G0 X21.806 Y19.320
M4 S300
G1 X22.184 Y19.320
M5
M5
G0 X22.669 Y19.320
M4 S300
G1 X23.051 Y19.320
M5
M5
G0 X24.088 Y19.320
M4 S300
G1 X24.462 Y19.320
M5
M5
G0 X24.932 Y19.320
M4 S300
G1 X25.314 Y19.320
M5
M5
G0 X26.351 Y19.320
M4 S300
G1 X26.725 Y19.320
M5
M5
G0 X27.176 Y19.320
M4 S300
G1 X27.566 Y19.320
M5
M5
G0 X28.529 Y19.320
M4 S300
G1 X28.973 Y19.320
M5
M5
G0 X29.478 Y19.320
M4 S300
G1 X29.845 Y19.320
M5
M5
G0 X30.392 Y19.320
M4 S300
G1 X30.830 Y19.320
M5
M5
G0 X31.762 Y19.320
M4 S300
G1 X32.140 Y19.320
M5
M5
G0 X32.604 Y19.320
M4 S300
G1 X32.995 Y19.320
M5
M5
G0 X33.929 Y19.320
M4 S300
G1 X34.403 Y19.320
M5
M5
G0 X36.077 Y19.320
M4 S300
G1 X36.444 Y19.320
M5
M5
G0 X37.143 Y19.320
M4 S300
G1 X37.534 Y19.320
M5
M5
G0 X38.571 Y19.320
M4 S300
G1 X38.961 Y19.320
M5
M5
G0 X40.565 Y19.320
M4 S300
G1 X41.020 Y19.320
M5
M5
G0 X41.971 Y19.320
M4 S300
G1 X42.367 Y19.320
M5
M5
G0 X42.805 Y19.320
M4 S300
G1 X43.188 Y19.320
M5
M5
G0 X44.225 Y19.320
M4 S300
G1 X44.599 Y19.320
M5
M5
G0 X46.222 Y19.320
M4 S300
G1 X46.603 Y19.320
M5
M5
G0 X47.544 Y19.320
M4 S300
G1 X47.921 Y19.320
M5
M5
G0 X48.408 Y19.320
M4 S300
G1 X48.763 Y19.320
M5
M5
G0 X50.519 Y19.320
M4 S300
G1 X50.885 Y19.320
M5
M5
G0 X51.350 Y19.320
M4 S300
G1 X51.758 Y19.320
M5
M5
G0 X52.531 Y19.320
M4 S300
G1 X52.913 Y19.320
M5
M5
G0 X53.950 Y19.320
M4 S300
G1 X54.324 Y19.320
M5
M5
G0 X54.775 Y19.320
M4 S300
G1 X55.165 Y19.320
M5
M5
G0 X56.128 Y19.320
M4 S300
G1 X56.572 Y19.320
M5
M5
G0 X20.436 Y19.500
M4 S300
G1 X20.786 Y19.500
M5
M5
G0 X20.794 Y19.500
M4 S300
G1 X21.003 Y19.500
M5
M5
G0 X21.735 Y19.500
M4 S300
G1 X22.150 Y19.500
M5
M5
G0 X22.755 Y19.500
M4 S300
G1 X23.178 Y19.500
M5
M5
G0 X23.971 Y19.500
M4 S300
G1 X24.380 Y19.500
M5
M5
G0 X25.018 Y19.500
M4 S300
G1 X25.441 Y19.500
M5
M5
G0 X26.234 Y19.500
M4 S300
G1 X26.643 Y19.500
M5
M5
G0 X27.245 Y19.500
M4 S300
G1 X27.663 Y19.500
M5
M5
G0 X28.417 Y19.500
M4 S300
G1 X28.973 Y19.500
M5
M5
G0 X29.478 Y19.500
M4 S300
G1 X29.845 Y19.500
M5
M5
G0 X30.392 Y19.500
M4 S300
G1 X30.742 Y19.500
M5
M5
G0 X30.750 Y19.500
M4 S300
G1 X30.959 Y19.500
M5
M5
G0 X31.691 Y19.500
M4 S300
G1 X32.106 Y19.500
M5
M5
G0 X32.671 Y19.500
M4 S300
G1 X33.101 Y19.500
M5
M5
G0 X33.798 Y19.500
M4 S300
G1 X34.038 Y19.500
M5
M5
G0 X34.043 Y19.500
M4 S300
G1 X34.403 Y19.500
M5
M5
G0 X36.077 Y19.500
M4 S300
G1 X36.444 Y19.500
M5
M5
G0 X37.226 Y19.500
M4 S300
G1 X37.650 Y19.500
M5
M5
G0 X38.462 Y19.500
M4 S300
G1 X38.886 Y19.500
M5
M5
G0 X40.565 Y19.500
M4 S300
G1 X41.141 Y19.500
M5
M5
G0 X41.867 Y19.500
M4 S300
G1 X42.304 Y19.500
M5
M5
G0 X42.891 Y19.500
M4 S300
G1 X43.314 Y19.500
M5
M5
G0 X44.107 Y19.500
M4 S300
G1 X44.516 Y19.500
M5
M5
G0 X46.267 Y19.500
M4 S300
G1 X46.678 Y19.500
M5
M5
G0 X47.465 Y19.500
M4 S300
G1 X47.875 Y19.500
M5
M5
G0 X48.439 Y19.500
M4 S300
G1 X48.818 Y19.500
M5
M5
G0 X49.675 Y19.500
M4 S300
G1 X50.059 Y19.500
M5
M5
G0 X50.519 Y19.500
M4 S300
G1 X50.885 Y19.500
M5
M5
G0 X51.513 Y19.500
M4 S300
G1 X51.927 Y19.500
M5
M5
G0 X52.617 Y19.500
M4 S300
G1 X53.040 Y19.500
M5
M5
G0 X53.833 Y19.500
M4 S300
G1 X54.241 Y19.500
M5
M5
G0 X54.844 Y19.500
M4 S300
G1 X55.262 Y19.500
M5
M5
G0 X56.016 Y19.500
M4 S300
G1 X56.572 Y19.500
M5
M5
G0 X20.434 Y19.680
M4 S300
G1 X20.781 Y19.680
M5
M5
G0 X20.918 Y19.680
M4 S300
G1 X22.070 Y19.680
M5
M5
G0 X22.899 Y19.680
M4 S300
G1 X24.242 Y19.680
M5
M5
G0 X25.162 Y19.680
M4 S300
G1 X26.505 Y19.680
M5
M5
G0 X27.360 Y19.680
M4 S300
G1 X28.510 Y19.680
M5
M5
G0 X28.608 Y19.680
M4 S300
G1 X28.973 Y19.680
M5
M5
G0 X29.478 Y19.680
M4 S300
G1 X29.845 Y19.680
M5
M5
G0 X30.390 Y19.680
M4 S300
G1 X30.737 Y19.680
M5
M5
G0 X30.874 Y19.680
M4 S300
G1 X32.026 Y19.680
M5
M5
G0 X32.788 Y19.680
M4 S300
G1 X33.918 Y19.680
M5
M5
G0 X34.050 Y19.680
M4 S300
G1 X34.405 Y19.680
M5
M5
G0 X35.823 Y19.680
M4 S300
G1 X36.851 Y19.680
M5
M5
G0 X37.366 Y19.680
M4 S300
G1 X38.752 Y19.680
M5
M5
G0 X40.565 Y19.680
M4 S300
G1 X40.929 Y19.680
M5
M5
G0 X41.031 Y19.680
M4 S300
G1 X42.192 Y19.680
M5
M5
G0 X43.036 Y19.680
M4 S300
G1 X44.379 Y19.680
M5
M5
G0 X46.387 Y19.680
M4 S300
G1 X47.765 Y19.680
M5
M5
G0 X48.544 Y19.680
M4 S300
G1 X49.948 Y19.680
M5
M5
G0 X50.519 Y19.680
M4 S300
G1 X50.885 Y19.680
M5
M5
G0 X51.676 Y19.680
M4 S300
G1 X52.097 Y19.680
M5
M5
G0 X52.761 Y19.680
M4 S300
G1 X54.104 Y19.680
M5
M5
G0 X54.959 Y19.680
M4 S300
G1 X56.109 Y19.680
M5
M5
G0 X56.207 Y19.680
M4 S300
G1 X56.572 Y19.680
M5
M5
G0 X20.426 Y19.860
M4 S300
G1 X20.772 Y19.860
M5
M5
G0 X21.170 Y19.860
M4 S300
G1 X21.835 Y19.860
M5
M5
G0 X23.203 Y19.860
M4 S300
G1 X23.923 Y19.860
M5
M5
G0 X25.466 Y19.860
M4 S300
G1 X26.186 Y19.860
M5
M5
G0 X27.626 Y19.860
M4 S300
G1 X28.257 Y19.860
M5
M5
G0 X28.607 Y19.860
M4 S300
G1 X28.973 Y19.860
M5
M5
G0 X29.478 Y19.860
M4 S300
G1 X29.845 Y19.860
M5
M5
G0 X30.382 Y19.860
M4 S300
G1 X30.728 Y19.860
M5
M5
G0 X31.126 Y19.860
M4 S300
G1 X31.791 Y19.860
M5
M5
G0 X33.057 Y19.860
M4 S300
G1 X33.653 Y19.860
M5
M5
G0 X34.064 Y19.860
M4 S300
G1 X34.414 Y19.860
M5
M5
G0 X35.823 Y19.860
M4 S300
G1 X36.851 Y19.860
M5
M5
G0 X37.691 Y19.860
M4 S300
G1 X38.445 Y19.860
M5
M5
G0 X40.565 Y19.860
M4 S300
G1 X40.931 Y19.860
M5
M5
G0 X41.283 Y19.860
M4 S300
G1 X41.940 Y19.860
M5
M5
G0 X43.339 Y19.860
M4 S300
G1 X44.060 Y19.860
M5
M5
G0 X46.688 Y19.860
M4 S300
G1 X47.481 Y19.860
M5
M5
G0 X48.853 Y19.860
M4 S300
G1 X49.636 Y19.860
M5
M5
G0 X50.519 Y19.860
M4 S300
G1 X50.885 Y19.860
M5
M5
G0 X51.839 Y19.860
M4 S300
G1 X52.267 Y19.860
M5
M5
G0 X53.065 Y19.860
M4 S300
G1 X53.785 Y19.860
M5
M5
G0 X55.225 Y19.860
M4 S300
G1 X55.855 Y19.860
M5
M5
G0 X56.206 Y19.860
M4 S300
G1 X56.572 Y19.860
M5
M5
G0 X28.607 Y20.040
M4 S300
G1 X28.973 Y20.040
M5
M5
G0 X36.128 Y20.040
M4 S300
G1 X36.444 Y20.040
M5
M5
G0 X40.565 Y20.040
M4 S300
G1 X40.931 Y20.040
M5
M5
G0 X50.519 Y20.040
M4 S300
G1 X50.885 Y20.040
M5
M5
G0 X56.206 Y20.040
M4 S300
G1 X56.572 Y20.040
M5
M5
G0 X28.607 Y20.220
M4 S300
G1 X28.973 Y20.220
M5
M5
G0 X36.167 Y20.220
M4 S300
G1 X36.444 Y20.220
M5
M5
G0 X40.565 Y20.220
M4 S300
G1 X40.931 Y20.220
M5
M5
G0 X50.519 Y20.220
M4 S300
G1 X50.885 Y20.220
M5
M5
G0 X56.206 Y20.220
M4 S300
G1 X56.572 Y20.220
M5
M5
G0 X28.607 Y20.400
M4 S300
G1 X28.973 Y20.400
M5
M5
G0 X29.478 Y20.400
M4 S300
G1 X29.845 Y20.400
M5
M5
G0 X40.565 Y20.400
M4 S300
G1 X40.931 Y20.400
M5
M5
G0 X50.519 Y20.400
M4 S300
G1 X50.885 Y20.400
M5
M5
G0 X56.206 Y20.400
M4 S300
G1 X56.572 Y20.400
M5
M5
G0 X28.607 Y20.580
M4 S300
G1 X28.973 Y20.580
M5
M5
G0 X29.478 Y20.580
M4 S300
G1 X29.845 Y20.580
M5
M5
G0 X40.565 Y20.580
M4 S300
G1 X40.931 Y20.580
M5
M5
G0 X50.519 Y20.580
M4 S300
G1 X50.885 Y20.580
M5
M5
G0 X56.206 Y20.580
M4 S300
G1 X56.572 Y20.580
M5
M5
G0 X19.966 Y20.940
M4 S300
G1 X20.612 Y20.940
M5
M5
G0 X53.587 Y20.940
M4 S300
G1 X53.953 Y20.940
M5
M5
G0 X20.280 Y21.120
M4 S300
G1 X20.783 Y21.120
M5
M5
G0 X53.587 Y21.120
M4 S300
G1 X53.953 Y21.120
M5
M5
G0 X20.514 Y21.300
M4 S300
G1 X20.893 Y21.300
M5
M5
G0 X53.587 Y21.300
M4 S300
G1 X53.953 Y21.300
M5
M5
G0 X20.626 Y21.480
M4 S300
G1 X20.979 Y21.480
M5
M5
G0 X53.587 Y21.480
M4 S300
G1 X53.953 Y21.480
M5
M5
G0 X11.434 Y21.660
M4 S300
G1 X11.982 Y21.660
M5
M5
G0 X15.911 Y21.660
M4 S300
G1 X16.397 Y21.660
M5
M5
G0 X17.240 Y21.660
M4 S300
G1 X17.475 Y21.660
M5
M5
G0 X20.704 Y21.660
M4 S300
G1 X21.054 Y21.660
M5
M5
G0 X22.743 Y21.660
M4 S300
G1 X23.291 Y21.660
M5
M5
G0 X27.290 Y21.660
M4 S300
G1 X27.847 Y21.660
M5
M5
G0 X35.864 Y21.660
M4 S300
G1 X36.412 Y21.660
M5
M5
G0 X39.086 Y21.660
M4 S300
G1 X39.728 Y21.660
M5
M5
G0 X43.555 Y21.660
M4 S300
G1 X44.103 Y21.660
M5
M5
G0 X48.585 Y21.660
M4 S300
G1 X49.227 Y21.660
M5
M5
G0 X51.760 Y21.660
M4 S300
G1 X52.253 Y21.660
M5
M5
G0 X53.587 Y21.660
M4 S300
G1 X53.953 Y21.660
M5
M5
G0 X54.393 Y21.660
M4 S300
G1 X54.864 Y21.660
M5
M5
G0 X61.151 Y21.660
M4 S300
G1 X61.534 Y21.660
M5
M5
G0 X64.814 Y21.660
M4 S300
G1 X65.362 Y21.660
M5
M5
G0 X66.915 Y21.660
M4 S300
G1 X67.409 Y21.660
M5
M5
G0 X69.070 Y21.660
M4 S300
G1 X69.454 Y21.660
M5
M5
G0 X8.412 Y21.840
M4 S300
G1 X8.800 Y21.840
M5
M5
G0 X11.062 Y21.840
M4 S300
G1 X12.366 Y21.840
M5
M5
G0 X13.107 Y21.840
M4 S300
G1 X13.473 Y21.840
M5
M5
G0 X15.620 Y21.840
M4 S300
G1 X16.735 Y21.840
M5
M5
G0 X16.992 Y21.840
M4 S300
G1 X17.621 Y21.840
M5
M5
G0 X17.856 Y21.840
M4 S300
G1 X18.222 Y21.840
M5
M5
G0 X19.245 Y21.840
M4 S300
G1 X19.613 Y21.840
M5
M5
G0 X20.650 Y21.840
M4 S300
G1 X21.123 Y21.840
M5
M5
G0 X22.371 Y21.840
M4 S300
G1 X23.675 Y21.840
M5
M5
G0 X24.416 Y21.840
M4 S300
G1 X24.782 Y21.840
M5
M5
G0 X25.806 Y21.840
M4 S300
G1 X26.174 Y21.840
M5
M5
G0 X26.908 Y21.840
M4 S300
G1 X28.244 Y21.840
M5
M5
G0 X30.347 Y21.840
M4 S300
G1 X30.860 Y21.840
M5
M5
G0 X31.706 Y21.840
M4 S300
G1 X32.220 Y21.840
M5
M5
G0 X33.011 Y21.840
M4 S300
G1 X33.377 Y21.840
M5
M5
G0 X34.401 Y21.840
M4 S300
G1 X34.769 Y21.840
M5
M5
G0 X35.492 Y21.840
M4 S300
G1 X36.796 Y21.840
M5
M5
G0 X38.689 Y21.840
M4 S300
G1 X40.124 Y21.840
M5
M5
G0 X40.702 Y21.840
M4 S300
G1 X41.068 Y21.840
M5
M5
G0 X42.092 Y21.840
M4 S300
G1 X42.460 Y21.840
M5
M5
G0 X43.183 Y21.840
M4 S300
G1 X44.487 Y21.840
M5
M5
G0 X45.503 Y21.840
M4 S300
G1 X46.016 Y21.840
M5
M5
G0 X46.861 Y21.840
M4 S300
G1 X47.376 Y21.840
M5
M5
G0 X48.188 Y21.840
M4 S300
G1 X49.623 Y21.840
M5
M5
G0 X51.459 Y21.840
M4 S300
G1 X52.565 Y21.840
M5
M5
G0 X52.728 Y21.840
M4 S300
G1 X53.074 Y21.840
M5
M5
G0 X53.587 Y21.840
M4 S300
G1 X53.952 Y21.840
M5
M5
G0 X54.071 Y21.840
M4 S300
G1 X55.179 Y21.840
M5
M5
G0 X57.263 Y21.840
M4 S300
G1 X57.776 Y21.840
M5
M5
G0 X58.621 Y21.840
M4 S300
G1 X59.136 Y21.840
M5
M5
G0 X59.916 Y21.840
M4 S300
G1 X60.283 Y21.840
M5
M5
G0 X60.922 Y21.840
M4 S300
G1 X61.669 Y21.840
M5
M5
G0 X61.961 Y21.840
M4 S300
G1 X62.327 Y21.840
M5
M5
G0 X63.351 Y21.840
M4 S300
G1 X63.719 Y21.840
M5
M5
G0 X64.442 Y21.840
M4 S300
G1 X65.746 Y21.840
M5
M5
G0 X66.615 Y21.840
M4 S300
G1 X67.720 Y21.840
M5
M5
G0 X67.883 Y21.840
M4 S300
G1 X68.229 Y21.840
M5
M5
G0 X68.841 Y21.840
M4 S300
G1 X69.588 Y21.840
M5
M5
G0 X8.412 Y22.020
M4 S300
G1 X8.800 Y22.020
M5
M5
G0 X10.909 Y22.020
M4 S300
G1 X11.344 Y22.020
M5
M5
G0 X12.086 Y22.020
M4 S300
G1 X12.521 Y22.020
M5
M5
G0 X13.107 Y22.020
M4 S300
G1 X13.473 Y22.020
M5
M5
G0 X15.522 Y22.020
M4 S300
G1 X15.940 Y22.020
M5
M5
G0 X16.622 Y22.020
M4 S300
G1 X16.881 Y22.020
M5
M5
G0 X16.944 Y22.020
M4 S300
G1 X17.322 Y22.020
M5
M5
G0 X17.856 Y22.020
M4 S300
G1 X18.222 Y22.020
M5
M5
G0 X19.245 Y22.020
M4 S300
G1 X19.613 Y22.020
M5
M5
G0 X20.579 Y22.020
M4 S300
G1 X21.192 Y22.020
M5
M5
G0 X22.218 Y22.020
M4 S300
G1 X22.653 Y22.020
M5
M5
G0 X23.395 Y22.020
M4 S300
G1 X23.830 Y22.020
M5
M5
G0 X24.416 Y22.020
M4 S300
G1 X24.782 Y22.020
M5
M5
G0 X25.806 Y22.020
M4 S300
G1 X26.174 Y22.020
M5
M5
G0 X26.750 Y22.020
M4 S300
G1 X27.200 Y22.020
M5
M5
G0 X27.972 Y22.020
M4 S300
G1 X28.399 Y22.020
M5
M5
G0 X30.297 Y22.020
M4 S300
G1 X30.590 Y22.020
M5
M5
G0 X30.610 Y22.020
M4 S300
G1 X30.906 Y22.020
M5
M5
G0 X31.661 Y22.020
M4 S300
G1 X31.954 Y22.020
M5
M5
G0 X31.975 Y22.020
M4 S300
G1 X32.272 Y22.020
M5
M5
G0 X33.011 Y22.020
M4 S300
G1 X33.377 Y22.020
M5
M5
G0 X34.401 Y22.020
M4 S300
G1 X34.769 Y22.020
M5
M5
G0 X35.339 Y22.020
M4 S300
G1 X35.774 Y22.020
M5
M5
G0 X36.516 Y22.020
M4 S300
G1 X36.951 Y22.020
M5
M5
G0 X38.555 Y22.020
M4 S300
G1 X38.970 Y22.020
M5
M5
G0 X39.857 Y22.020
M4 S300
G1 X40.258 Y22.020
M5
M5
G0 X40.702 Y22.020
M4 S300
G1 X41.068 Y22.020
M5
M5
G0 X42.092 Y22.020
M4 S300
G1 X42.460 Y22.020
M5
M5
G0 X43.030 Y22.020
M4 S300
G1 X43.465 Y22.020
M5
M5
G0 X44.207 Y22.020
M4 S300
G1 X44.642 Y22.020
M5
M5
G0 X45.452 Y22.020
M4 S300
G1 X45.746 Y22.020
M5
M5
G0 X45.765 Y22.020
M4 S300
G1 X46.062 Y22.020
M5
M5
G0 X46.817 Y22.020
M4 S300
G1 X47.109 Y22.020
M5
M5
G0 X47.130 Y22.020
M4 S300
G1 X47.427 Y22.020
M5
M5
G0 X48.054 Y22.020
M4 S300
G1 X48.469 Y22.020
M5
M5
G0 X49.356 Y22.020
M4 S300
G1 X49.757 Y22.020
M5
M5
G0 X51.365 Y22.020
M4 S300
G1 X51.795 Y22.020
M5
M5
G0 X52.472 Y22.020
M4 S300
G1 X52.698 Y22.020
M5
M5
G0 X52.722 Y22.020
M4 S300
G1 X53.071 Y22.020
M5
M5
G0 X53.587 Y22.020
M4 S300
G1 X54.171 Y22.020
M5
M5
G0 X54.870 Y22.020
M4 S300
G1 X55.304 Y22.020
M5
M5
G0 X57.212 Y22.020
M4 S300
G1 X57.506 Y22.020
M5
M5
G0 X57.525 Y22.020
M4 S300
G1 X57.822 Y22.020
M5
M5
G0 X58.577 Y22.020
M4 S300
G1 X58.869 Y22.020
M5
M5
G0 X58.890 Y22.020
M4 S300
G1 X59.187 Y22.020
M5
M5
G0 X59.916 Y22.020
M4 S300
G1 X60.283 Y22.020
M5
M5
G0 X60.867 Y22.020
M4 S300
G1 X61.261 Y22.020
M5
M5
G0 X61.961 Y22.020
M4 S300
G1 X62.327 Y22.020
M5
M5
G0 X63.351 Y22.020
M4 S300
G1 X63.719 Y22.020
M5
M5
G0 X64.289 Y22.020
M4 S300
G1 X64.724 Y22.020
M5
M5
G0 X65.466 Y22.020
M4 S300
G1 X65.901 Y22.020
M5
M5
G0 X66.521 Y22.020
M4 S300
G1 X66.951 Y22.020
M5
M5
G0 X67.627 Y22.020
M4 S300
G1 X67.853 Y22.020
M5
M5
G0 X67.877 Y22.020
M4 S300
G1 X68.227 Y22.020
M5
M5
G0 X68.787 Y22.020
M4 S300
G1 X69.181 Y22.020
M5
M5
G0 X8.412 Y22.200
M4 S300
G1 X8.800 Y22.200
M5
M5
G0 X10.821 Y22.200
M4 S300
G1 X11.214 Y22.200
M5
M5
G0 X12.218 Y22.200
M4 S300
G1 X12.610 Y22.200
M5
M5
G0 X13.107 Y22.200
M4 S300
G1 X13.473 Y22.200
M5
M5
G0 X15.485 Y22.200
M4 S300
G1 X15.863 Y22.200
M5
M5
G0 X16.804 Y22.200
M4 S300
G1 X17.296 Y22.200
M5
M5
G0 X17.856 Y22.200
M4 S300
G1 X18.222 Y22.200
M5
M5
G0 X19.245 Y22.200
M4 S300
G1 X19.613 Y22.200
M5
M5
G0 X20.507 Y22.200
M4 S300
G1 X20.853 Y22.200
M5
M5
G0 X20.939 Y22.200
M4 S300
G1 X21.261 Y22.200
M5
M5
G0 X22.130 Y22.200
M4 S300
G1 X22.523 Y22.200
M5
M5
G0 X23.527 Y22.200
M4 S300
G1 X23.919 Y22.200
M5
M5
G0 X24.416 Y22.200
M4 S300
G1 X24.782 Y22.200
M5
M5
G0 X25.806 Y22.200
M4 S300
G1 X26.174 Y22.200
M5
M5
G0 X26.661 Y22.200
M4 S300
G1 X27.054 Y22.200
M5
M5
G0 X28.124 Y22.200
M4 S300
G1 X28.298 Y22.200
M5
M5
G0 X30.247 Y22.200
M4 S300
G1 X30.553 Y22.200
M5
M5
G0 X30.654 Y22.200
M4 S300
G1 X30.952 Y22.200
M5
M5
G0 X31.617 Y22.200
M4 S300
G1 X31.910 Y22.200
M5
M5
G0 X32.015 Y22.200
M4 S300
G1 X32.323 Y22.200
M5
M5
G0 X33.011 Y22.200
M4 S300
G1 X33.377 Y22.200
M5
M5
G0 X34.401 Y22.200
M4 S300
G1 X34.769 Y22.200
M5
M5
G0 X35.251 Y22.200
M4 S300
G1 X35.644 Y22.200
M5
M5
G0 X36.648 Y22.200
M4 S300
G1 X37.040 Y22.200
M5
M5
G0 X38.549 Y22.200
M4 S300
G1 X38.835 Y22.200
M5
M5
G0 X39.952 Y22.200
M4 S300
G1 X40.307 Y22.200
M5
M5
G0 X40.702 Y22.200
M4 S300
G1 X41.068 Y22.200
M5
M5
G0 X42.092 Y22.200
M4 S300
G1 X42.460 Y22.200
M5
M5
G0 X42.942 Y22.200
M4 S300
G1 X43.335 Y22.200
M5
M5
G0 X44.339 Y22.200
M4 S300
G1 X44.731 Y22.200
M5
M5
G0 X45.402 Y22.200
M4 S300
G1 X45.708 Y22.200
M5
M5
G0 X45.809 Y22.200
M4 S300
G1 X46.108 Y22.200
M5
M5
G0 X46.772 Y22.200
M4 S300
G1 X47.066 Y22.200
M5
M5
G0 X47.170 Y22.200
M4 S300
G1 X47.479 Y22.200
M5
M5
G0 X48.047 Y22.200
M4 S300
G1 X48.334 Y22.200
M5
M5
G0 X49.451 Y22.200
M4 S300
G1 X49.806 Y22.200
M5
M5
G0 X51.326 Y22.200
M4 S300
G1 X51.707 Y22.200
M5
M5
G0 X52.621 Y22.200
M4 S300
G1 X53.071 Y22.200
M5
M5
G0 X53.587 Y22.200
M4 S300
G1 X54.042 Y22.200
M5
M5
G0 X54.985 Y22.200
M4 S300
G1 X55.374 Y22.200
M5
M5
G0 X57.162 Y22.200
M4 S300
G1 X57.468 Y22.200
M5
M5
G0 X57.569 Y22.200
M4 S300
G1 X57.868 Y22.200
M5
M5
G0 X58.532 Y22.200
M4 S300
G1 X58.826 Y22.200
M5
M5
G0 X58.930 Y22.200
M4 S300
G1 X59.239 Y22.200
M5
M5
G0 X59.916 Y22.200
M4 S300
G1 X60.283 Y22.200
M5
M5
G0 X60.859 Y22.200
M4 S300
G1 X61.226 Y22.200
M5
M5
G0 X61.961 Y22.200
M4 S300
G1 X62.327 Y22.200
M5
M5
G0 X63.351 Y22.200
M4 S300
G1 X63.719 Y22.200
M5
M5
G0 X64.201 Y22.200
M4 S300
G1 X64.594 Y22.200
M5
M5
G0 X65.598 Y22.200
M4 S300
G1 X65.990 Y22.200
M5
M5
G0 X66.481 Y22.200
M4 S300
G1 X66.863 Y22.200
M5
M5
G0 X67.776 Y22.200
M4 S300
G1 X68.227 Y22.200
M5
M5
G0 X68.779 Y22.200
M4 S300
G1 X69.145 Y22.200
M5
M5
G0 X8.412 Y22.380
M4 S300
G1 X8.800 Y22.380
M5
M5
G0 X10.769 Y22.380
M4 S300
G1 X11.154 Y22.380
M5
M5
G0 X12.276 Y22.380
M4 S300
G1 X12.660 Y22.380
M5
M5
G0 X13.107 Y22.380
M4 S300
G1 X13.473 Y22.380
M5
M5
G0 X15.485 Y22.380
M4 S300
G1 X15.865 Y22.380
M5
M5
G0 X16.893 Y22.380
M4 S300
G1 X17.296 Y22.380
M5
M5
G0 X17.856 Y22.380
M4 S300
G1 X18.222 Y22.380
M5
M5
G0 X19.245 Y22.380
M4 S300
G1 X19.613 Y22.380
M5
M5
G0 X20.435 Y22.380
M4 S300
G1 X20.791 Y22.380
M5
M5
G0 X21.003 Y22.380
M4 S300
G1 X21.331 Y22.380
M5
M5
G0 X22.078 Y22.380
M4 S300
G1 X22.463 Y22.380
M5
M5
G0 X23.585 Y22.380
M4 S300
G1 X23.969 Y22.380
M5
M5
G0 X24.416 Y22.380
M4 S300
G1 X24.782 Y22.380
M5
M5
G0 X25.806 Y22.380
M4 S300
G1 X26.174 Y22.380
M5
M5
G0 X26.608 Y22.380
M4 S300
G1 X26.987 Y22.380
M5
M5
G0 X30.196 Y22.380
M4 S300
G1 X30.512 Y22.380
M5
M5
G0 X30.701 Y22.380
M4 S300
G1 X30.999 Y22.380
M5
M5
G0 X31.572 Y22.380
M4 S300
G1 X31.867 Y22.380
M5
M5
G0 X32.059 Y22.380
M4 S300
G1 X32.375 Y22.380
M5
M5
G0 X33.011 Y22.380
M4 S300
G1 X33.377 Y22.380
M5
M5
G0 X34.401 Y22.380
M4 S300
G1 X34.769 Y22.380
M5
M5
G0 X35.199 Y22.380
M4 S300
G1 X35.584 Y22.380
M5
M5
G0 X36.706 Y22.380
M4 S300
G1 X37.090 Y22.380
M5
M5
G0 X39.929 Y22.380
M4 S300
G1 X40.304 Y22.380
M5
M5
G0 X40.702 Y22.380
M4 S300
G1 X41.068 Y22.380
M5
M5
G0 X42.092 Y22.380
M4 S300
G1 X42.460 Y22.380
M5
M5
G0 X42.890 Y22.380
M4 S300
G1 X43.275 Y22.380
M5
M5
G0 X44.397 Y22.380
M4 S300
G1 X44.781 Y22.380
M5
M5
G0 X45.352 Y22.380
M4 S300
G1 X45.667 Y22.380
M5
M5
G0 X45.856 Y22.380
M4 S300
G1 X46.154 Y22.380
M5
M5
G0 X46.728 Y22.380
M4 S300
G1 X47.022 Y22.380
M5
M5
G0 X47.214 Y22.380
M4 S300
G1 X47.530 Y22.380
M5
M5
G0 X49.427 Y22.380
M4 S300
G1 X49.803 Y22.380
M5
M5
G0 X51.314 Y22.380
M4 S300
G1 X51.684 Y22.380
M5
M5
G0 X52.683 Y22.380
M4 S300
G1 X53.071 Y22.380
M5
M5
G0 X53.587 Y22.380
M4 S300
G1 X53.986 Y22.380
M5
M5
G0 X55.033 Y22.380
M4 S300
G1 X55.413 Y22.380
M5
M5
G0 X57.112 Y22.380
M4 S300
G1 X57.427 Y22.380
M5
M5
G0 X57.616 Y22.380
M4 S300
G1 X57.914 Y22.380
M5
M5
G0 X58.488 Y22.380
M4 S300
G1 X58.782 Y22.380
M5
M5
G0 X58.974 Y22.380
M4 S300
G1 X59.290 Y22.380
M5
M5
G0 X59.916 Y22.380
M4 S300
G1 X60.283 Y22.380
M5
M5
G0 X60.859 Y22.380
M4 S300
G1 X61.225 Y22.380
M5
M5
G0 X61.961 Y22.380
M4 S300
G1 X62.327 Y22.380
M5
M5
G0 X63.351 Y22.380
M4 S300
G1 X63.719 Y22.380
M5
M5
G0 X64.149 Y22.380
M4 S300
G1 X64.534 Y22.380
M5
M5
G0 X65.655 Y22.380
M4 S300
G1 X66.040 Y22.380
M5
M5
G0 X66.470 Y22.380
M4 S300
G1 X66.840 Y22.380
M5
M5
G0 X67.839 Y22.380
M4 S300
G1 X68.227 Y22.380
M5
M5
G0 X68.779 Y22.380
M4 S300
G1 X69.145 Y22.380
M5
M5
G0 X8.412 Y22.560
M4 S300
G1 X8.800 Y22.560
M5
M5
G0 X10.742 Y22.560
M4 S300
G1 X11.125 Y22.560
M5
M5
G0 X12.303 Y22.560
M4 S300
G1 X12.686 Y22.560
M5
M5
G0 X13.107 Y22.560
M4 S300
G1 X13.473 Y22.560
M5
M5
G0 X15.526 Y22.560
M4 S300
G1 X15.938 Y22.560
M5
M5
G0 X16.925 Y22.560
M4 S300
G1 X17.296 Y22.560
M5
M5
G0 X17.856 Y22.560
M4 S300
G1 X18.222 Y22.560
M5
M5
G0 X19.245 Y22.560
M4 S300
G1 X19.613 Y22.560
M5
M5
G0 X20.363 Y22.560
M4 S300
G1 X20.729 Y22.560
M5
M5
G0 X21.066 Y22.560
M4 S300
G1 X21.400 Y22.560
M5
M5
G0 X22.051 Y22.560
M4 S300
G1 X22.434 Y22.560
M5
M5
G0 X23.612 Y22.560
M4 S300
G1 X23.995 Y22.560
M5
M5
G0 X24.416 Y22.560
M4 S300
G1 X24.782 Y22.560
M5
M5
G0 X25.806 Y22.560
M4 S300
G1 X26.174 Y22.560
M5
M5
G0 X26.580 Y22.560
M4 S300
G1 X26.958 Y22.560
M5
M5
G0 X30.146 Y22.560
M4 S300
G1 X30.467 Y22.560
M5
M5
G0 X30.748 Y22.560
M4 S300
G1 X31.044 Y22.560
M5
M5
G0 X31.528 Y22.560
M4 S300
G1 X31.821 Y22.560
M5
M5
G0 X32.106 Y22.560
M4 S300
G1 X32.426 Y22.560
M5
M5
G0 X33.011 Y22.560
M4 S300
G1 X33.377 Y22.560
M5
M5
G0 X34.401 Y22.560
M4 S300
G1 X34.769 Y22.560
M5
M5
G0 X35.172 Y22.560
M4 S300
G1 X35.555 Y22.560
M5
M5
G0 X36.733 Y22.560
M4 S300
G1 X37.116 Y22.560
M5
M5
G0 X39.697 Y22.560
M4 S300
G1 X40.245 Y22.560
M5
M5
G0 X40.702 Y22.560
M4 S300
G1 X41.068 Y22.560
M5
M5
G0 X42.092 Y22.560
M4 S300
G1 X42.460 Y22.560
M5
M5
G0 X42.863 Y22.560
M4 S300
G1 X43.246 Y22.560
M5
M5
G0 X44.424 Y22.560
M4 S300
G1 X44.807 Y22.560
M5
M5
G0 X45.301 Y22.560
M4 S300
G1 X45.622 Y22.560
M5
M5
G0 X45.904 Y22.560
M4 S300
G1 X46.200 Y22.560
M5
M5
G0 X46.683 Y22.560
M4 S300
G1 X46.976 Y22.560
M5
M5
G0 X47.261 Y22.560
M4 S300
G1 X47.582 Y22.560
M5
M5
G0 X49.196 Y22.560
M4 S300
G1 X49.744 Y22.560
M5
M5
G0 X51.313 Y22.560
M4 S300
G1 X51.682 Y22.560
M5
M5
G0 X52.704 Y22.560
M4 S300
G1 X53.071 Y22.560
M5
M5
G0 X53.587 Y22.560
M4 S300
G1 X53.961 Y22.560
M5
M5
G0 X55.055 Y22.560
M4 S300
G1 X55.436 Y22.560
M5
M5
G0 X57.061 Y22.560
M4 S300
G1 X57.382 Y22.560
M5
M5
G0 X57.664 Y22.560
M4 S300
G1 X57.960 Y22.560
M5
M5
G0 X58.443 Y22.560
M4 S300
G1 X58.736 Y22.560
M5
M5
G0 X59.021 Y22.560
M4 S300
G1 X59.342 Y22.560
M5
M5
G0 X59.916 Y22.560
M4 S300
G1 X60.283 Y22.560
M5
M5
G0 X60.859 Y22.560
M4 S300
G1 X61.225 Y22.560
M5
M5
G0 X61.961 Y22.560
M4 S300
G1 X62.327 Y22.560
M5
M5
G0 X63.351 Y22.560
M4 S300
G1 X63.719 Y22.560
M5
M5
G0 X64.122 Y22.560
M4 S300
G1 X64.505 Y22.560
M5
M5
G0 X65.683 Y22.560
M4 S300
G1 X66.066 Y22.560
M5
M5
G0 X66.469 Y22.560
M4 S300
G1 X66.837 Y22.560
M5
M5
G0 X67.859 Y22.560
M4 S300
G1 X68.227 Y22.560
M5
M5
G0 X68.779 Y22.560
M4 S300
G1 X69.145 Y22.560
M5
M5
G0 X8.412 Y22.740
M4 S300
G1 X8.800 Y22.740
M5
M5
G0 X10.732 Y22.740
M4 S300
G1 X11.116 Y22.740
M5
M5
G0 X12.312 Y22.740
M4 S300
G1 X12.696 Y22.740
M5
M5
G0 X13.107 Y22.740
M4 S300
G1 X13.473 Y22.740
M5
M5
G0 X15.633 Y22.740
M4 S300
G1 X16.333 Y22.740
M5
M5
G0 X16.925 Y22.740
M4 S300
G1 X17.296 Y22.740
M5
M5
G0 X17.856 Y22.740
M4 S300
G1 X18.222 Y22.740
M5
M5
G0 X19.245 Y22.740
M4 S300
G1 X19.613 Y22.740
M5
M5
G0 X20.292 Y22.740
M4 S300
G1 X20.663 Y22.740
M5
M5
G0 X21.128 Y22.740
M4 S300
G1 X21.469 Y22.740
M5
M5
G0 X22.040 Y22.740
M4 S300
G1 X22.425 Y22.740
M5
M5
G0 X23.621 Y22.740
M4 S300
G1 X24.005 Y22.740
M5
M5
G0 X24.416 Y22.740
M4 S300
G1 X24.782 Y22.740
M5
M5
G0 X25.806 Y22.740
M4 S300
G1 X26.174 Y22.740
M5
M5
G0 X26.569 Y22.740
M4 S300
G1 X28.522 Y22.740
M5
M5
G0 X30.095 Y22.740
M4 S300
G1 X30.422 Y22.740
M5
M5
G0 X30.796 Y22.740
M4 S300
G1 X31.090 Y22.740
M5
M5
G0 X31.483 Y22.740
M4 S300
G1 X31.775 Y22.740
M5
M5
G0 X32.152 Y22.740
M4 S300
G1 X32.478 Y22.740
M5
M5
G0 X33.011 Y22.740
M4 S300
G1 X33.377 Y22.740
M5
M5
G0 X34.401 Y22.740
M4 S300
G1 X34.769 Y22.740
M5
M5
G0 X35.161 Y22.740
M4 S300
G1 X35.546 Y22.740
M5
M5
G0 X36.742 Y22.740
M4 S300
G1 X37.126 Y22.740
M5
M5
G0 X39.069 Y22.740
M4 S300
G1 X40.085 Y22.740
M5
M5
G0 X40.702 Y22.740
M4 S300
G1 X41.068 Y22.740
M5
M5
G0 X42.092 Y22.740
M4 S300
G1 X42.460 Y22.740
M5
M5
G0 X42.852 Y22.740
M4 S300
G1 X43.237 Y22.740
M5
M5
G0 X44.433 Y22.740
M4 S300
G1 X44.817 Y22.740
M5
M5
G0 X45.251 Y22.740
M4 S300
G1 X45.578 Y22.740
M5
M5
G0 X45.951 Y22.740
M4 S300
G1 X46.246 Y22.740
M5
M5
G0 X46.639 Y22.740
M4 S300
G1 X46.930 Y22.740
M5
M5
G0 X47.307 Y22.740
M4 S300
G1 X47.633 Y22.740
M5
M5
G0 X48.568 Y22.740
M4 S300
G1 X49.584 Y22.740
M5
M5
G0 X51.313 Y22.740
M4 S300
G1 X51.682 Y22.740
M5
M5
G0 X52.705 Y22.740
M4 S300
G1 X53.071 Y22.740
M5
M5
G0 X53.587 Y22.740
M4 S300
G1 X53.953 Y22.740
M5
M5
G0 X55.063 Y22.740
M4 S300
G1 X55.446 Y22.740
M5
M5
G0 X57.011 Y22.740
M4 S300
G1 X57.338 Y22.740
M5
M5
G0 X57.711 Y22.740
M4 S300
G1 X58.006 Y22.740
M5
M5
G0 X58.399 Y22.740
M4 S300
G1 X58.690 Y22.740
M5
M5
G0 X59.067 Y22.740
M4 S300
G1 X59.393 Y22.740
M5
M5
G0 X59.916 Y22.740
M4 S300
G1 X60.283 Y22.740
M5
M5
G0 X60.859 Y22.740
M4 S300
G1 X61.225 Y22.740
M5
M5
G0 X61.961 Y22.740
M4 S300
G1 X62.327 Y22.740
M5
M5
G0 X63.351 Y22.740
M4 S300
G1 X63.719 Y22.740
M5
M5
G0 X64.111 Y22.740
M4 S300
G1 X64.496 Y22.740
M5
M5
G0 X65.692 Y22.740
M4 S300
G1 X66.076 Y22.740
M5
M5
G0 X66.469 Y22.740
M4 S300
G1 X66.837 Y22.740
M5
M5
G0 X67.860 Y22.740
M4 S300
G1 X68.227 Y22.740
M5
M5
G0 X68.779 Y22.740
M4 S300
G1 X69.145 Y22.740
M5
M5
G0 X8.412 Y22.920
M4 S300
G1 X10.399 Y22.920
M5
M5
G0 X10.740 Y22.920
M4 S300
G1 X11.119 Y22.920
M5
M5
G0 X12.309 Y22.920
M4 S300
G1 X12.693 Y22.920
M5
M5
G0 X13.107 Y22.920
M4 S300
G1 X13.476 Y22.920
M5
M5
G0 X15.902 Y22.920
M4 S300
G1 X17.296 Y22.920
M5
M5
G0 X17.856 Y22.920
M4 S300
G1 X18.222 Y22.920
M5
M5
G0 X19.245 Y22.920
M4 S300
G1 X19.613 Y22.920
M5
M5
G0 X20.220 Y22.920
M4 S300
G1 X20.594 Y22.920
M5
M5
G0 X21.190 Y22.920
M4 S300
G1 X21.538 Y22.920
M5
M5
G0 X22.049 Y22.920
M4 S300
G1 X22.428 Y22.920
M5
M5
G0 X23.618 Y22.920
M4 S300
G1 X24.002 Y22.920
M5
M5
G0 X24.416 Y22.920
M4 S300
G1 X24.782 Y22.920
M5
M5
G0 X25.806 Y22.920
M4 S300
G1 X26.174 Y22.920
M5
M5
G0 X26.572 Y22.920
M4 S300
G1 X28.511 Y22.920
M5
M5
G0 X30.045 Y22.920
M4 S300
G1 X30.377 Y22.920
M5
M5
G0 X30.843 Y22.920
M4 S300
G1 X31.136 Y22.920
M5
M5
G0 X31.439 Y22.920
M4 S300
G1 X31.729 Y22.920
M5
M5
G0 X32.198 Y22.920
M4 S300
G1 X32.530 Y22.920
M5
M5
G0 X33.011 Y22.920
M4 S300
G1 X33.377 Y22.920
M5
M5
G0 X34.401 Y22.920
M4 S300
G1 X34.769 Y22.920
M5
M5
G0 X35.170 Y22.920
M4 S300
G1 X35.549 Y22.920
M5
M5
G0 X36.739 Y22.920
M4 S300
G1 X37.123 Y22.920
M5
M5
G0 X38.741 Y22.920
M4 S300
G1 X39.656 Y22.920
M5
M5
G0 X40.702 Y22.920
M4 S300
G1 X41.068 Y22.920
M5
M5
G0 X42.092 Y22.920
M4 S300
G1 X42.460 Y22.920
M5
M5
G0 X42.861 Y22.920
M4 S300
G1 X43.240 Y22.920
M5
M5
G0 X44.430 Y22.920
M4 S300
G1 X44.814 Y22.920
M5
M5
G0 X45.200 Y22.920
M4 S300
G1 X45.533 Y22.920
M5
M5
G0 X45.998 Y22.920
M4 S300
G1 X46.291 Y22.920
M5
M5
G0 X46.594 Y22.920
M4 S300
G1 X46.885 Y22.920
M5
M5
G0 X47.354 Y22.920
M4 S300
G1 X47.685 Y22.920
M5
M5
G0 X48.240 Y22.920
M4 S300
G1 X49.155 Y22.920
M5
M5
G0 X51.313 Y22.920
M4 S300
G1 X51.682 Y22.920
M5
M5
G0 X52.705 Y22.920
M4 S300
G1 X53.071 Y22.920
M5
M5
G0 X53.587 Y22.920
M4 S300
G1 X53.958 Y22.920
M5
M5
G0 X55.060 Y22.920
M4 S300
G1 X55.444 Y22.920
M5
M5
G0 X56.960 Y22.920
M4 S300
G1 X57.293 Y22.920
M5
M5
G0 X57.758 Y22.920
M4 S300
G1 X58.051 Y22.920
M5
M5
G0 X58.354 Y22.920
M4 S300
G1 X58.645 Y22.920
M5
M5
G0 X59.114 Y22.920
M4 S300
G1 X59.445 Y22.920
M5
M5
G0 X59.916 Y22.920
M4 S300
G1 X60.283 Y22.920
M5
M5
G0 X60.859 Y22.920
M4 S300
G1 X61.225 Y22.920
M5
M5
G0 X61.961 Y22.920
M4 S300
G1 X62.327 Y22.920
M5
M5
G0 X63.351 Y22.920
M4 S300
G1 X63.719 Y22.920
M5
M5
G0 X64.120 Y22.920
M4 S300
G1 X64.499 Y22.920
M5
M5
G0 X65.689 Y22.920
M4 S300
G1 X66.073 Y22.920
M5
M5
G0 X66.469 Y22.920
M4 S300
G1 X66.837 Y22.920
M5
M5
G0 X67.860 Y22.920
M4 S300
G1 X68.227 Y22.920
M5
M5
G0 X68.779 Y22.920
M4 S300
G1 X69.145 Y22.920
M5
M5
G0 X8.412 Y23.100
M4 S300
G1 X10.399 Y23.100
M5
M5
G0 X10.756 Y23.100
M4 S300
G1 X11.139 Y23.100
M5
M5
G0 X12.291 Y23.100
M4 S300
G1 X12.675 Y23.100
M5
M5
G0 X13.107 Y23.100
M4 S300
G1 X13.495 Y23.100
M5
M5
G0 X16.925 Y23.100
M4 S300
G1 X17.296 Y23.100
M5
M5
G0 X17.856 Y23.100
M4 S300
G1 X18.232 Y23.100
M5
M5
G0 X19.245 Y23.100
M4 S300
G1 X19.613 Y23.100
M5
M5
G0 X20.148 Y23.100
M4 S300
G1 X20.526 Y23.100
M5
M5
G0 X21.252 Y23.100
M4 S300
G1 X21.607 Y23.100
M5
M5
G0 X22.065 Y23.100
M4 S300
G1 X22.448 Y23.100
M5
M5
G0 X23.600 Y23.100
M4 S300
G1 X23.984 Y23.100
M5
M5
G0 X24.416 Y23.100
M4 S300
G1 X24.793 Y23.100
M5
M5
G0 X25.805 Y23.100
M4 S300
G1 X26.174 Y23.100
M5
M5
G0 X26.592 Y23.100
M4 S300
G1 X26.968 Y23.100
M5
M5
G0 X28.128 Y23.100
M4 S300
G1 X28.492 Y23.100
M5
M5
G0 X29.994 Y23.100
M4 S300
G1 X30.333 Y23.100
M5
M5
G0 X30.890 Y23.100
M4 S300
G1 X31.181 Y23.100
M5
M5
G0 X31.394 Y23.100
M4 S300
G1 X31.683 Y23.100
M5
M5
G0 X32.245 Y23.100
M4 S300
G1 X32.581 Y23.100
M5
M5
G0 X33.011 Y23.100
M4 S300
G1 X33.386 Y23.100
M5
M5
G0 X34.400 Y23.100
M4 S300
G1 X34.769 Y23.100
M5
M5
G0 X35.186 Y23.100
M4 S300
G1 X35.569 Y23.100
M5
M5
G0 X36.721 Y23.100
M4 S300
G1 X37.105 Y23.100
M5
M5
G0 X38.615 Y23.100
M4 S300
G1 X39.075 Y23.100
M5
M5
G0 X40.702 Y23.100
M4 S300
G1 X41.077 Y23.100
M5
M5
G0 X42.091 Y23.100
M4 S300
G1 X42.460 Y23.100
M5
M5
G0 X42.877 Y23.100
M4 S300
G1 X43.260 Y23.100
M5
M5
G0 X44.412 Y23.100
M4 S300
G1 X44.796 Y23.100
M5
M5
G0 X45.150 Y23.100
M4 S300
G1 X45.488 Y23.100
M5
M5
G0 X46.046 Y23.100
M4 S300
G1 X46.337 Y23.100
M5
M5
G0 X46.550 Y23.100
M4 S300
G1 X46.839 Y23.100
M5
M5
G0 X47.400 Y23.100
M4 S300
G1 X47.737 Y23.100
M5
M5
G0 X48.114 Y23.100
M4 S300
G1 X48.574 Y23.100
M5
M5
G0 X51.313 Y23.100
M4 S300
G1 X51.682 Y23.100
M5
M5
G0 X52.705 Y23.100
M4 S300
G1 X53.071 Y23.100
M5
M5
G0 X53.587 Y23.100
M4 S300
G1 X53.980 Y23.100
M5
M5
G0 X55.043 Y23.100
M4 S300
G1 X55.430 Y23.100
M5
M5
G0 X56.910 Y23.100
M4 S300
G1 X57.248 Y23.100
M5
M5
G0 X57.806 Y23.100
M4 S300
G1 X58.097 Y23.100
M5
M5
G0 X58.310 Y23.100
M4 S300
G1 X58.599 Y23.100
M5
M5
G0 X59.160 Y23.100
M4 S300
G1 X59.497 Y23.100
M5
M5
G0 X59.916 Y23.100
M4 S300
G1 X60.283 Y23.100
M5
M5
G0 X60.859 Y23.100
M4 S300
G1 X61.225 Y23.100
M5
M5
G0 X61.961 Y23.100
M4 S300
G1 X62.336 Y23.100
M5
M5
G0 X63.350 Y23.100
M4 S300
G1 X63.719 Y23.100
M5
M5
G0 X64.136 Y23.100
M4 S300
G1 X64.519 Y23.100
M5
M5
G0 X65.671 Y23.100
M4 S300
G1 X66.055 Y23.100
M5
M5
G0 X66.469 Y23.100
M4 S300
G1 X66.837 Y23.100
M5
M5
G0 X67.860 Y23.100
M4 S300
G1 X68.227 Y23.100
M5
M5
G0 X68.779 Y23.100
M4 S300
G1 X69.145 Y23.100
M5
M5
G0 X8.412 Y23.280
M4 S300
G1 X8.800 Y23.280
M5
M5
G0 X10.798 Y23.280
M4 S300
G1 X11.184 Y23.280
M5
M5
G0 X12.250 Y23.280
M4 S300
G1 X12.637 Y23.280
M5
M5
G0 X13.107 Y23.280
M4 S300
G1 X13.544 Y23.280
M5
M5
G0 X16.915 Y23.280
M4 S300
G1 X17.290 Y23.280
M5
M5
G0 X17.856 Y23.280
M4 S300
G1 X18.276 Y23.280
M5
M5
G0 X19.232 Y23.280
M4 S300
G1 X19.607 Y23.280
M5
M5
G0 X20.077 Y23.280
M4 S300
G1 X20.457 Y23.280
M5
M5
G0 X21.314 Y23.280
M4 S300
G1 X21.677 Y23.280
M5
M5
G0 X22.107 Y23.280
M4 S300
G1 X22.493 Y23.280
M5
M5
G0 X23.559 Y23.280
M4 S300
G1 X23.946 Y23.280
M5
M5
G0 X24.416 Y23.280
M4 S300
G1 X24.837 Y23.280
M5
M5
G0 X25.792 Y23.280
M4 S300
G1 X26.168 Y23.280
M5
M5
G0 X26.636 Y23.280
M4 S300
G1 X27.014 Y23.280
M5
M5
G0 X28.083 Y23.280
M4 S300
G1 X28.452 Y23.280
M5
M5
G0 X29.944 Y23.280
M4 S300
G1 X30.288 Y23.280
M5
M5
G0 X30.938 Y23.280
M4 S300
G1 X31.225 Y23.280
M5
M5
G0 X31.352 Y23.280
M4 S300
G1 X31.638 Y23.280
M5
M5
G0 X32.291 Y23.280
M4 S300
G1 X32.633 Y23.280
M5
M5
G0 X33.011 Y23.280
M4 S300
G1 X33.430 Y23.280
M5
M5
G0 X34.389 Y23.280
M4 S300
G1 X34.763 Y23.280
M5
M5
G0 X35.228 Y23.280
M4 S300
G1 X35.614 Y23.280
M5
M5
G0 X36.680 Y23.280
M4 S300
G1 X37.067 Y23.280
M5
M5
G0 X38.583 Y23.280
M4 S300
G1 X38.942 Y23.280
M5
M5
G0 X40.702 Y23.280
M4 S300
G1 X41.121 Y23.280
M5
M5
G0 X42.079 Y23.280
M4 S300
G1 X42.454 Y23.280
M5
M5
G0 X42.919 Y23.280
M4 S300
G1 X43.305 Y23.280
M5
M5
G0 X44.371 Y23.280
M4 S300
G1 X44.758 Y23.280
M5
M5
G0 X45.099 Y23.280
M4 S300
G1 X45.443 Y23.280
M5
M5
G0 X46.093 Y23.280
M4 S300
G1 X46.381 Y23.280
M5
M5
G0 X46.507 Y23.280
M4 S300
G1 X46.793 Y23.280
M5
M5
G0 X47.447 Y23.280
M4 S300
G1 X47.788 Y23.280
M5
M5
G0 X48.082 Y23.280
M4 S300
G1 X48.441 Y23.280
M5
M5
G0 X51.313 Y23.280
M4 S300
G1 X51.682 Y23.280
M5
M5
G0 X52.705 Y23.280
M4 S300
G1 X53.071 Y23.280
M5
M5
G0 X53.587 Y23.280
M4 S300
G1 X54.027 Y23.280
M5
M5
G0 X55.005 Y23.280
M4 S300
G1 X55.398 Y23.280
M5
M5
G0 X56.859 Y23.280
M4 S300
G1 X57.203 Y23.280
M5
M5
G0 X57.853 Y23.280
M4 S300
G1 X58.141 Y23.280
M5
M5
G0 X58.267 Y23.280
M4 S300
G1 X58.553 Y23.280
M5
M5
G0 X59.207 Y23.280
M4 S300
G1 X59.548 Y23.280
M5
M5
G0 X59.916 Y23.280
M4 S300
G1 X60.283 Y23.280
M5
M5
G0 X60.859 Y23.280
M4 S300
G1 X61.225 Y23.280
M5
M5
G0 X61.961 Y23.280
M4 S300
G1 X62.380 Y23.280
M5
M5
G0 X63.338 Y23.280
M4 S300
G1 X63.713 Y23.280
M5
M5
G0 X64.178 Y23.280
M4 S300
G1 X64.564 Y23.280
M5
M5
G0 X65.630 Y23.280
M4 S300
G1 X66.017 Y23.280
M5
M5
G0 X66.469 Y23.280
M4 S300
G1 X66.837 Y23.280
M5
M5
G0 X67.860 Y23.280
M4 S300
G1 X68.227 Y23.280
M5
M5
G0 X68.779 Y23.280
M4 S300
G1 X69.145 Y23.280
M5
M5
G0 X8.412 Y23.460
M4 S300
G1 X8.800 Y23.460
M5
M5
G0 X10.872 Y23.460
M4 S300
G1 X11.279 Y23.460
M5
M5
G0 X12.160 Y23.460
M4 S300
G1 X12.573 Y23.460
M5
M5
G0 X13.107 Y23.460
M4 S300
G1 X13.457 Y23.460
M5
M5
G0 X13.477 Y23.460
M4 S300
G1 X13.653 Y23.460
M5
M5
G0 X15.615 Y23.460
M4 S300
G1 X16.014 Y23.460
M5
M5
G0 X16.856 Y23.460
M4 S300
G1 X17.254 Y23.460
M5
M5
G0 X17.856 Y23.460
M4 S300
G1 X18.383 Y23.460
M5
M5
G0 X19.179 Y23.460
M4 S300
G1 X19.580 Y23.460
M5
M5
G0 X20.005 Y23.460
M4 S300
G1 X20.388 Y23.460
M5
M5
G0 X21.376 Y23.460
M4 S300
G1 X21.746 Y23.460
M5
M5
G0 X22.181 Y23.460
M4 S300
G1 X22.588 Y23.460
M5
M5
G0 X23.469 Y23.460
M4 S300
G1 X23.881 Y23.460
M5
M5
G0 X24.416 Y23.460
M4 S300
G1 X24.944 Y23.460
M5
M5
G0 X25.739 Y23.460
M4 S300
G1 X26.141 Y23.460
M5
M5
G0 X26.711 Y23.460
M4 S300
G1 X27.119 Y23.460
M5
M5
G0 X27.986 Y23.460
M4 S300
G1 X28.378 Y23.460
M5
M5
G0 X29.894 Y23.460
M4 S300
G1 X30.243 Y23.460
M5
M5
G0 X30.985 Y23.460
M4 S300
G1 X31.266 Y23.460
M5
M5
G0 X31.313 Y23.460
M4 S300
G1 X31.592 Y23.460
M5
M5
G0 X32.338 Y23.460
M4 S300
G1 X32.684 Y23.460
M5
M5
G0 X33.011 Y23.460
M4 S300
G1 X33.540 Y23.460
M5
M5
G0 X34.336 Y23.460
M4 S300
G1 X34.736 Y23.460
M5
M5
G0 X35.302 Y23.460
M4 S300
G1 X35.709 Y23.460
M5
M5
G0 X36.590 Y23.460
M4 S300
G1 X37.002 Y23.460
M5
M5
G0 X38.602 Y23.460
M4 S300
G1 X38.967 Y23.460
M5
M5
G0 X39.885 Y23.460
M4 S300
G1 X40.249 Y23.460
M5
M5
G0 X40.702 Y23.460
M4 S300
G1 X41.231 Y23.460
M5
M5
G0 X42.027 Y23.460
M4 S300
G1 X42.427 Y23.460
M5
M5
G0 X42.993 Y23.460
M4 S300
G1 X43.400 Y23.460
M5
M5
G0 X44.281 Y23.460
M4 S300
G1 X44.693 Y23.460
M5
M5
G0 X45.049 Y23.460
M4 S300
G1 X45.398 Y23.460
M5
M5
G0 X46.140 Y23.460
M4 S300
G1 X46.421 Y23.460
M5
M5
G0 X46.469 Y23.460
M4 S300
G1 X46.747 Y23.460
M5
M5
G0 X47.493 Y23.460
M4 S300
G1 X47.840 Y23.460
M5
M5
G0 X48.101 Y23.460
M4 S300
G1 X48.466 Y23.460
M5
M5
G0 X49.384 Y23.460
M4 S300
G1 X49.748 Y23.460
M5
M5
G0 X51.313 Y23.460
M4 S300
G1 X51.682 Y23.460
M5
M5
G0 X52.705 Y23.460
M4 S300
G1 X53.071 Y23.460
M5
M5
G0 X53.586 Y23.460
M4 S300
G1 X54.124 Y23.460
M5
M5
G0 X54.919 Y23.460
M4 S300
G1 X55.345 Y23.460
M5
M5
G0 X56.809 Y23.460
M4 S300
G1 X57.158 Y23.460
M5
M5
G0 X57.900 Y23.460
M4 S300
G1 X58.181 Y23.460
M5
M5
G0 X58.229 Y23.460
M4 S300
G1 X58.507 Y23.460
M5
M5
G0 X59.253 Y23.460
M4 S300
G1 X59.600 Y23.460
M5
M5
G0 X59.916 Y23.460
M4 S300
G1 X60.283 Y23.460
M5
M5
G0 X60.859 Y23.460
M4 S300
G1 X61.225 Y23.460
M5
M5
G0 X61.961 Y23.460
M4 S300
G1 X62.490 Y23.460
M5
M5
G0 X63.286 Y23.460
M4 S300
G1 X63.686 Y23.460
M5
M5
G0 X64.252 Y23.460
M4 S300
G1 X64.659 Y23.460
M5
M5
G0 X65.540 Y23.460
M4 S300
G1 X65.952 Y23.460
M5
M5
G0 X66.469 Y23.460
M4 S300
G1 X66.837 Y23.460
M5
M5
G0 X67.860 Y23.460
M4 S300
G1 X68.227 Y23.460
M5
M5
G0 X68.779 Y23.460
M4 S300
G1 X69.145 Y23.460
M5
M5
G0 X8.412 Y23.640
M4 S300
G1 X8.800 Y23.640
M5
M5
G0 X10.996 Y23.640
M4 S300
G1 X11.639 Y23.640
M5
M5
G0 X11.808 Y23.640
M4 S300
G1 X12.457 Y23.640
M5
M5
G0 X13.103 Y23.640
M4 S300
G1 X13.451 Y23.640
M5
M5
G0 X13.548 Y23.640
M4 S300
G1 X14.137 Y23.640
M5
M5
G0 X15.714 Y23.640
M4 S300
G1 X17.161 Y23.640
M5
M5
G0 X17.854 Y23.640
M4 S300
G1 X18.202 Y23.640
M5
M5
G0 X18.305 Y23.640
M4 S300
G1 X19.512 Y23.640
M5
M5
G0 X19.933 Y23.640
M4 S300
G1 X20.320 Y23.640
M5
M5
G0 X21.438 Y23.640
M4 S300
G1 X21.815 Y23.640
M5
M5
G0 X22.305 Y23.640
M4 S300
G1 X22.948 Y23.640
M5
M5
G0 X23.117 Y23.640
M4 S300
G1 X23.766 Y23.640
M5
M5
G0 X24.415 Y23.640
M4 S300
G1 X24.762 Y23.640
M5
M5
G0 X24.865 Y23.640
M4 S300
G1 X26.073 Y23.640
M5
M5
G0 X26.839 Y23.640
M4 S300
G1 X27.469 Y23.640
M5
M5
G0 X27.628 Y23.640
M4 S300
G1 X28.255 Y23.640
M5
M5
G0 X29.843 Y23.640
M4 S300
G1 X30.198 Y23.640
M5
M5
G0 X31.032 Y23.640
M4 S300
G1 X31.546 Y23.640
M5
M5
G0 X32.384 Y23.640
M4 S300
G1 X32.736 Y23.640
M5
M5
G0 X33.011 Y23.640
M4 S300
G1 X33.370 Y23.640
M5
M5
G0 X33.461 Y23.640
M4 S300
G1 X34.668 Y23.640
M5
M5
G0 X35.426 Y23.640
M4 S300
G1 X36.069 Y23.640
M5
M5
G0 X36.238 Y23.640
M4 S300
G1 X36.886 Y23.640
M5
M5
G0 X38.686 Y23.640
M4 S300
G1 X40.158 Y23.640
M5
M5
G0 X40.702 Y23.640
M4 S300
G1 X41.061 Y23.640
M5
M5
G0 X41.152 Y23.640
M4 S300
G1 X42.359 Y23.640
M5
M5
G0 X43.117 Y23.640
M4 S300
G1 X43.760 Y23.640
M5
M5
G0 X43.929 Y23.640
M4 S300
G1 X44.577 Y23.640
M5
M5
G0 X44.999 Y23.640
M4 S300
G1 X45.354 Y23.640
M5
M5
G0 X46.188 Y23.640
M4 S300
G1 X46.702 Y23.640
M5
M5
G0 X47.540 Y23.640
M4 S300
G1 X47.891 Y23.640
M5
M5
G0 X48.185 Y23.640
M4 S300
G1 X49.657 Y23.640
M5
M5
G0 X51.313 Y23.640
M4 S300
G1 X51.682 Y23.640
M5
M5
G0 X52.705 Y23.640
M4 S300
G1 X53.071 Y23.640
M5
M5
G0 X53.585 Y23.640
M4 S300
G1 X53.945 Y23.640
M5
M5
G0 X54.027 Y23.640
M4 S300
G1 X55.247 Y23.640
M5
M5
G0 X56.759 Y23.640
M4 S300
G1 X57.114 Y23.640
M5
M5
G0 X57.948 Y23.640
M4 S300
G1 X58.462 Y23.640
M5
M5
G0 X59.300 Y23.640
M4 S300
G1 X59.651 Y23.640
M5
M5
G0 X59.916 Y23.640
M4 S300
G1 X60.283 Y23.640
M5
M5
G0 X60.605 Y23.640
M4 S300
G1 X61.632 Y23.640
M5
M5
G0 X61.961 Y23.640
M4 S300
G1 X62.320 Y23.640
M5
M5
G0 X62.411 Y23.640
M4 S300
G1 X63.618 Y23.640
M5
M5
G0 X64.376 Y23.640
M4 S300
G1 X65.019 Y23.640
M5
M5
G0 X65.188 Y23.640
M4 S300
G1 X65.836 Y23.640
M5
M5
G0 X66.469 Y23.640
M4 S300
G1 X66.837 Y23.640
M5
M5
G0 X67.860 Y23.640
M4 S300
G1 X68.227 Y23.640
M5
M5
G0 X68.524 Y23.640
M4 S300
G1 X69.552 Y23.640
M5
M5
G0 X8.412 Y23.820
M4 S300
G1 X8.800 Y23.820
M5
M5
G0 X11.231 Y23.820
M4 S300
G1 X12.214 Y23.820
M5
M5
G0 X13.097 Y23.820
M4 S300
G1 X13.443 Y23.820
M5
M5
G0 X13.678 Y23.820
M4 S300
G1 X14.137 Y23.820
M5
M5
G0 X15.949 Y23.820
M4 S300
G1 X16.944 Y23.820
M5
M5
G0 X17.848 Y23.820
M4 S300
G1 X18.193 Y23.820
M5
M5
G0 X18.504 Y23.820
M4 S300
G1 X19.338 Y23.820
M5
M5
G0 X19.862 Y23.820
M4 S300
G1 X20.251 Y23.820
M5
M5
G0 X21.500 Y23.820
M4 S300
G1 X21.884 Y23.820
M5
M5
G0 X22.540 Y23.820
M4 S300
G1 X23.523 Y23.820
M5
M5
G0 X24.409 Y23.820
M4 S300
G1 X24.754 Y23.820
M5
M5
G0 X25.064 Y23.820
M4 S300
G1 X25.898 Y23.820
M5
M5
G0 X27.082 Y23.820
M4 S300
G1 X28.025 Y23.820
M5
M5
G0 X29.793 Y23.820
M4 S300
G1 X30.153 Y23.820
M5
M5
G0 X31.080 Y23.820
M4 S300
G1 X31.500 Y23.820
M5
M5
G0 X32.431 Y23.820
M4 S300
G1 X32.787 Y23.820
M5
M5
G0 X33.011 Y23.820
M4 S300
G1 X33.377 Y23.820
M5
M5
G0 X33.662 Y23.820
M4 S300
G1 X34.492 Y23.820
M5
M5
G0 X35.661 Y23.820
M4 S300
G1 X36.644 Y23.820
M5
M5
G0 X38.919 Y23.820
M4 S300
G1 X39.923 Y23.820
M5
M5
G0 X40.702 Y23.820
M4 S300
G1 X41.067 Y23.820
M5
M5
G0 X41.353 Y23.820
M4 S300
G1 X42.183 Y23.820
M5
M5
G0 X43.352 Y23.820
M4 S300
G1 X44.335 Y23.820
M5
M5
G0 X44.948 Y23.820
M4 S300
G1 X45.309 Y23.820
M5
M5
G0 X46.235 Y23.820
M4 S300
G1 X46.656 Y23.820
M5
M5
G0 X47.586 Y23.820
M4 S300
G1 X47.943 Y23.820
M5
M5
G0 X48.418 Y23.820
M4 S300
G1 X49.422 Y23.820
M5
M5
G0 X51.313 Y23.820
M4 S300
G1 X51.682 Y23.820
M5
M5
G0 X52.705 Y23.820
M4 S300
G1 X53.071 Y23.820
M5
M5
G0 X53.579 Y23.820
M4 S300
G1 X53.934 Y23.820
M5
M5
G0 X54.219 Y23.820
M4 S300
G1 X55.042 Y23.820
M5
M5
G0 X56.708 Y23.820
M4 S300
G1 X57.069 Y23.820
M5
M5
G0 X57.995 Y23.820
M4 S300
G1 X58.416 Y23.820
M5
M5
G0 X59.346 Y23.820
M4 S300
G1 X59.703 Y23.820
M5
M5
G0 X59.916 Y23.820
M4 S300
G1 X60.283 Y23.820
M5
M5
G0 X60.605 Y23.820
M4 S300
G1 X61.632 Y23.820
M5
M5
G0 X61.961 Y23.820
M4 S300
G1 X62.326 Y23.820
M5
M5
G0 X62.612 Y23.820
M4 S300
G1 X63.442 Y23.820
M5
M5
G0 X64.611 Y23.820
M4 S300
G1 X65.594 Y23.820
M5
M5
G0 X66.469 Y23.820
M4 S300
G1 X66.837 Y23.820
M5
M5
G0 X67.860 Y23.820
M4 S300
G1 X68.227 Y23.820
M5
M5
G0 X68.524 Y23.820
M4 S300
G1 X69.552 Y23.820
M5
M5
G0 X8.412 Y24.000
M4 S300
G1 X8.800 Y24.000
M5
M5
G0 X33.011 Y24.000
M4 S300
G1 X33.377 Y24.000
M5
M5
G0 X40.702 Y24.000
M4 S300
G1 X41.068 Y24.000
M5
M5
G0 X60.901 Y24.000
M4 S300
G1 X61.225 Y24.000
M5
M5
G0 X61.961 Y24.000
M4 S300
G1 X62.327 Y24.000
M5
M5
G0 X68.820 Y24.000
M4 S300
G1 X69.145 Y24.000
M5
M5
G0 X8.412 Y24.180
M4 S300
G1 X8.800 Y24.180
M5
M5
G0 X33.011 Y24.180
M4 S300
G1 X33.377 Y24.180
M5
M5
G0 X40.702 Y24.180
M4 S300
G1 X41.068 Y24.180
M5
M5
G0 X60.940 Y24.180
M4 S300
G1 X61.225 Y24.180
M5
M5
G0 X61.961 Y24.180
M4 S300
G1 X62.327 Y24.180
M5
M5
G0 X68.860 Y24.180
M4 S300
G1 X69.145 Y24.180
M5
M5
G0 X8.412 Y24.360
M4 S300
G1 X10.448 Y24.360
M5
M5
G0 X33.011 Y24.360
M4 S300
G1 X33.377 Y24.360
M5
M5
G0 X40.702 Y24.360
M4 S300
G1 X41.068 Y24.360
M5
M5
G0 X59.916 Y24.360
M4 S300
G1 X60.283 Y24.360
M5
M5
G0 X60.980 Y24.360
M4 S300
G1 X61.225 Y24.360
M5
M5
G0 X61.961 Y24.360
M4 S300
G1 X62.327 Y24.360
M5
M5
G0 X68.899 Y24.360
M4 S300
G1 X69.145 Y24.360
M5
M5
G0 X33.011 Y24.540
M4 S300
G1 X33.377 Y24.540
M5
M5
G0 X40.702 Y24.540
M4 S300
G1 X41.068 Y24.540
M5
M5
G0 X59.916 Y24.540
M4 S300
G1 X60.283 Y24.540
M5
M5
G0 X61.961 Y24.540
M4 S300
G1 X62.327 Y24.540
M5
M5
G0 X55.624 Y26.520
M4 S300
G1 X56.899 Y26.520
M5
M5
G0 X55.343 Y26.700
M4 S300
G1 X57.190 Y26.700
M5
M5
G0 X55.204 Y26.880
M4 S300
G1 X56.113 Y26.880
M5
M5
G0 X56.447 Y26.880
M4 S300
G1 X57.341 Y26.880
M5
M5
G0 X55.133 Y27.060
M4 S300
G1 X55.861 Y27.060
M5
M5
G0 X56.710 Y27.060
M4 S300
G1 X57.427 Y27.060
M5
M5
G0 X56.789 Y27.240
M4 S300
G1 X57.479 Y27.240
M5
M5
G0 X17.815 Y27.420
M4 S300
G1 X17.839 Y27.420
M5
M5
G0 X22.423 Y27.420
M4 S300
G1 X22.447 Y27.420
M5
M5
G0 X25.185 Y27.420
M4 S300
G1 X25.204 Y27.420
M5
M5
G0 X35.529 Y27.420
M4 S300
G1 X35.545 Y27.420
M5
M5
G0 X44.466 Y27.420
M4 S300
G1 X44.484 Y27.420
M5
M5
G0 X48.279 Y27.420
M4 S300
G1 X48.296 Y27.420
M5
M5
G0 X56.820 Y27.420
M4 S300
G1 X57.502 Y27.420
M5
M5
G0 X59.205 Y27.420
M4 S300
G1 X59.223 Y27.420
M5
M5
G0 X12.913 Y27.600
M4 S300
G1 X13.552 Y27.600
M5
M5
G0 X14.362 Y27.600
M4 S300
G1 X14.960 Y27.600
M5
M5
G0 X15.769 Y27.600
M4 S300
G1 X16.409 Y27.600
M5
M5
G0 X17.260 Y27.600
M4 S300
G1 X18.387 Y27.600
M5
M5
G0 X18.706 Y27.600
M4 S300
G1 X19.362 Y27.600
M5
M5
G0 X20.178 Y27.600
M4 S300
G1 X21.232 Y27.600
M5
M5
G0 X21.869 Y27.600
M4 S300
G1 X22.996 Y27.600
M5
M5
G0 X23.314 Y27.600
M4 S300
G1 X23.970 Y27.600
M5
M5
G0 X24.631 Y27.600
M4 S300
G1 X25.777 Y27.600
M5
M5
G0 X26.199 Y27.600
M4 S300
G1 X27.049 Y27.600
M5
M5
G0 X27.302 Y27.600
M4 S300
G1 X27.988 Y27.600
M5
M5
G0 X29.657 Y27.600
M4 S300
G1 X30.375 Y27.600
M5
M5
G0 X32.205 Y27.600
M4 S300
G1 X32.916 Y27.600
M5
M5
G0 X33.360 Y27.600
M4 S300
G1 X34.046 Y27.600
M5
M5
G0 X34.989 Y27.600
M4 S300
G1 X36.146 Y27.600
M5
M5
G0 X36.410 Y27.600
M4 S300
G1 X37.085 Y27.600
M5
M5
G0 X39.041 Y27.600
M4 S300
G1 X39.761 Y27.600
M5
M5
G0 X42.038 Y27.600
M4 S300
G1 X42.724 Y27.600
M5
M5
G0 X43.766 Y27.600
M4 S300
G1 X45.184 Y27.600
M5
M5
G0 X46.111 Y27.600
M4 S300
G1 X46.797 Y27.600
M5
M5
G0 X47.740 Y27.600
M4 S300
G1 X48.897 Y27.600
M5
M5
G0 X49.160 Y27.600
M4 S300
G1 X49.836 Y27.600
M5
M5
G0 X51.449 Y27.600
M4 S300
G1 X52.167 Y27.600
M5
M5
G0 X53.996 Y27.600
M4 S300
G1 X54.707 Y27.600
M5
M5
G0 X55.497 Y27.600
M4 S300
G1 X56.503 Y27.600
M5
M5
G0 X56.826 Y27.600
M4 S300
G1 X57.507 Y27.600
M5
M5
G0 X58.505 Y27.600
M4 S300
G1 X59.923 Y27.600
M5
M5
G0 X60.850 Y27.600
M4 S300
G1 X61.536 Y27.600
M5
M5
G0 X62.561 Y27.600
M4 S300
G1 X63.245 Y27.600
M5
M5
G0 X64.033 Y27.600
M4 S300
G1 X65.087 Y27.600
M5
M5
G0 X12.913 Y27.780
M4 S300
G1 X13.552 Y27.780
M5
M5
G0 X14.304 Y27.780
M4 S300
G1 X15.018 Y27.780
M5
M5
G0 X15.769 Y27.780
M4 S300
G1 X16.409 Y27.780
M5
M5
G0 X17.107 Y27.780
M4 S300
G1 X18.553 Y27.780
M5
M5
G0 X18.694 Y27.780
M4 S300
G1 X19.355 Y27.780
M5
M5
G0 X20.071 Y27.780
M4 S300
G1 X21.232 Y27.780
M5
M5
G0 X21.716 Y27.780
M4 S300
G1 X23.162 Y27.780
M5
M5
G0 X23.303 Y27.780
M4 S300
G1 X23.963 Y27.780
M5
M5
G0 X24.484 Y27.780
M4 S300
G1 X25.959 Y27.780
M5
M5
G0 X26.111 Y27.780
M4 S300
G1 X27.049 Y27.780
M5
M5
G0 X27.302 Y27.780
M4 S300
G1 X27.988 Y27.780
M5
M5
G0 X29.723 Y27.780
M4 S300
G1 X30.438 Y27.780
M5
M5
G0 X32.142 Y27.780
M4 S300
G1 X32.850 Y27.780
M5
M5
G0 X33.360 Y27.780
M4 S300
G1 X34.046 Y27.780
M5
M5
G0 X34.824 Y27.780
M4 S300
G1 X36.315 Y27.780
M5
M5
G0 X36.395 Y27.780
M4 S300
G1 X37.077 Y27.780
M5
M5
G0 X39.041 Y27.780
M4 S300
G1 X39.761 Y27.780
M5
M5
G0 X42.038 Y27.780
M4 S300
G1 X42.724 Y27.780
M5
M5
G0 X43.555 Y27.780
M4 S300
G1 X45.403 Y27.780
M5
M5
G0 X46.111 Y27.780
M4 S300
G1 X46.797 Y27.780
M5
M5
G0 X47.574 Y27.780
M4 S300
G1 X49.066 Y27.780
M5
M5
G0 X49.146 Y27.780
M4 S300
G1 X49.828 Y27.780
M5
M5
G0 X51.514 Y27.780
M4 S300
G1 X52.229 Y27.780
M5
M5
G0 X53.934 Y27.780
M4 S300
G1 X54.642 Y27.780
M5
M5
G0 X55.295 Y27.780
M4 S300
G1 X56.712 Y27.780
M5
M5
G0 X56.828 Y27.780
M4 S300
G1 X57.507 Y27.780
M5
M5
G0 X58.294 Y27.780
M4 S300
G1 X60.142 Y27.780
M5
M5
G0 X60.850 Y27.780
M4 S300
G1 X61.536 Y27.780
M5
M5
G0 X62.561 Y27.780
M4 S300
G1 X63.245 Y27.780
M5
M5
G0 X63.926 Y27.780
M4 S300
G1 X65.087 Y27.780
M5
M5
G0 X12.913 Y27.960
M4 S300
G1 X13.552 Y27.960
M5
M5
G0 X14.246 Y27.960
M4 S300
G1 X15.076 Y27.960
M5
M5
G0 X15.769 Y27.960
M4 S300
G1 X16.409 Y27.960
M5
M5
G0 X17.024 Y27.960
M4 S300
G1 X17.953 Y27.960
M5
M5
G0 X18.274 Y27.960
M4 S300
G1 X18.658 Y27.960
M5
M5
G0 X18.687 Y27.960
M4 S300
G1 X19.351 Y27.960
M5
M5
G0 X20.032 Y27.960
M4 S300
G1 X20.805 Y27.960
M5
M5
G0 X21.632 Y27.960
M4 S300
G1 X22.561 Y27.960
M5
M5
G0 X22.883 Y27.960
M4 S300
G1 X23.267 Y27.960
M5
M5
G0 X23.296 Y27.960
M4 S300
G1 X23.960 Y27.960
M5
M5
G0 X24.414 Y27.960
M4 S300
G1 X25.219 Y27.960
M5
M5
G0 X25.667 Y27.960
M4 S300
G1 X26.723 Y27.960
M5
M5
G0 X27.302 Y27.960
M4 S300
G1 X27.988 Y27.960
M5
M5
G0 X29.789 Y27.960
M4 S300
G1 X30.500 Y27.960
M5
M5
G0 X32.080 Y27.960
M4 S300
G1 X32.785 Y27.960
M5
M5
G0 X33.360 Y27.960
M4 S300
G1 X34.046 Y27.960
M5
M5
G0 X34.724 Y27.960
M4 S300
G1 X35.567 Y27.960
M5
M5
G0 X36.087 Y27.960
M4 S300
G1 X37.073 Y27.960
M5
M5
G0 X39.041 Y27.960
M4 S300
G1 X39.761 Y27.960
M5
M5
G0 X42.038 Y27.960
M4 S300
G1 X42.724 Y27.960
M5
M5
G0 X43.428 Y27.960
M4 S300
G1 X44.223 Y27.960
M5
M5
G0 X44.808 Y27.960
M4 S300
G1 X45.531 Y27.960
M5
M5
G0 X46.111 Y27.960
M4 S300
G1 X46.797 Y27.960
M5
M5
G0 X47.474 Y27.960
M4 S300
G1 X48.317 Y27.960
M5
M5
G0 X48.837 Y27.960
M4 S300
G1 X49.824 Y27.960
M5
M5
G0 X51.580 Y27.960
M4 S300
G1 X52.292 Y27.960
M5
M5
G0 X53.871 Y27.960
M4 S300
G1 X54.576 Y27.960
M5
M5
G0 X55.177 Y27.960
M4 S300
G1 X56.179 Y27.960
M5
M5
G0 X56.373 Y27.960
M4 S300
G1 X57.507 Y27.960
M5
M5
G0 X58.167 Y27.960
M4 S300
G1 X58.962 Y27.960
M5
M5
G0 X59.547 Y27.960
M4 S300
G1 X60.270 Y27.960
M5
M5
G0 X60.850 Y27.960
M4 S300
G1 X61.536 Y27.960
M5
M5
G0 X62.561 Y27.960
M4 S300
G1 X63.245 Y27.960
M5
M5
G0 X63.886 Y27.960
M4 S300
G1 X64.660 Y27.960
M5
M5
G0 X12.913 Y28.140
M4 S300
G1 X13.552 Y28.140
M5
M5
G0 X14.187 Y28.140
M4 S300
G1 X15.134 Y28.140
M5
M5
G0 X15.769 Y28.140
M4 S300
G1 X16.409 Y28.140
M5
M5
G0 X16.980 Y28.140
M4 S300
G1 X17.741 Y28.140
M5
M5
G0 X18.508 Y28.140
M4 S300
G1 X19.351 Y28.140
M5
M5
G0 X20.024 Y28.140
M4 S300
G1 X20.714 Y28.140
M5
M5
G0 X21.588 Y28.140
M4 S300
G1 X22.350 Y28.140
M5
M5
G0 X23.116 Y28.140
M4 S300
G1 X23.959 Y28.140
M5
M5
G0 X24.387 Y28.140
M4 S300
G1 X25.112 Y28.140
M5
M5
G0 X25.867 Y28.140
M4 S300
G1 X26.685 Y28.140
M5
M5
G0 X27.302 Y28.140
M4 S300
G1 X27.988 Y28.140
M5
M5
G0 X29.854 Y28.140
M4 S300
G1 X30.563 Y28.140
M5
M5
G0 X32.017 Y28.140
M4 S300
G1 X32.719 Y28.140
M5
M5
G0 X33.360 Y28.140
M4 S300
G1 X34.046 Y28.140
M5
M5
G0 X34.655 Y28.140
M4 S300
G1 X35.412 Y28.140
M5
M5
G0 X36.255 Y28.140
M4 S300
G1 X37.072 Y28.140
M5
M5
G0 X39.041 Y28.140
M4 S300
G1 X39.761 Y28.140
M5
M5
G0 X42.038 Y28.140
M4 S300
G1 X42.724 Y28.140
M5
M5
G0 X43.344 Y28.140
M4 S300
G1 X44.064 Y28.140
M5
M5
G0 X44.949 Y28.140
M4 S300
G1 X45.585 Y28.140
M5
M5
G0 X46.111 Y28.140
M4 S300
G1 X46.797 Y28.140
M5
M5
G0 X47.406 Y28.140
M4 S300
G1 X48.163 Y28.140
M5
M5
G0 X49.005 Y28.140
M4 S300
G1 X49.823 Y28.140
M5
M5
G0 X51.646 Y28.140
M4 S300
G1 X52.354 Y28.140
M5
M5
G0 X53.809 Y28.140
M4 S300
G1 X54.511 Y28.140
M5
M5
G0 X55.102 Y28.140
M4 S300
G1 X55.880 Y28.140
M5
M5
G0 X56.659 Y28.140
M4 S300
G1 X57.507 Y28.140
M5
M5
G0 X58.083 Y28.140
M4 S300
G1 X58.803 Y28.140
M5
M5
G0 X59.688 Y28.140
M4 S300
G1 X60.324 Y28.140
M5
M5
G0 X60.850 Y28.140
M4 S300
G1 X61.536 Y28.140
M5
M5
G0 X62.561 Y28.140
M4 S300
G1 X63.245 Y28.140
M5
M5
G0 X63.879 Y28.140
M4 S300
G1 X64.569 Y28.140
M5
M5
G0 X12.913 Y28.320
M4 S300
G1 X13.552 Y28.320
M5
M5
G0 X14.129 Y28.320
M4 S300
G1 X15.192 Y28.320
M5
M5
G0 X15.769 Y28.320
M4 S300
G1 X16.409 Y28.320
M5
M5
G0 X16.960 Y28.320
M4 S300
G1 X17.674 Y28.320
M5
M5
G0 X18.603 Y28.320
M4 S300
G1 X19.351 Y28.320
M5
M5
G0 X20.024 Y28.320
M4 S300
G1 X20.703 Y28.320
M5
M5
G0 X21.568 Y28.320
M4 S300
G1 X22.283 Y28.320
M5
M5
G0 X23.212 Y28.320
M4 S300
G1 X23.959 Y28.320
M5
M5
G0 X24.389 Y28.320
M4 S300
G1 X25.101 Y28.320
M5
M5
G0 X25.957 Y28.320
M4 S300
G1 X26.681 Y28.320
M5
M5
G0 X27.302 Y28.320
M4 S300
G1 X27.988 Y28.320
M5
M5
G0 X29.920 Y28.320
M4 S300
G1 X30.625 Y28.320
M5
M5
G0 X31.955 Y28.320
M4 S300
G1 X32.654 Y28.320
M5
M5
G0 X33.360 Y28.320
M4 S300
G1 X34.046 Y28.320
M5
M5
G0 X34.613 Y28.320
M4 S300
G1 X35.341 Y28.320
M5
M5
G0 X36.333 Y28.320
M4 S300
G1 X37.072 Y28.320
M5
M5
G0 X39.041 Y28.320
M4 S300
G1 X39.761 Y28.320
M5
M5
G0 X42.038 Y28.320
M4 S300
G1 X42.724 Y28.320
M5
M5
G0 X43.292 Y28.320
M4 S300
G1 X43.998 Y28.320
M5
M5
G0 X46.111 Y28.320
M4 S300
G1 X46.797 Y28.320
M5
M5
G0 X47.364 Y28.320
M4 S300
G1 X48.091 Y28.320
M5
M5
G0 X49.084 Y28.320
M4 S300
G1 X49.823 Y28.320
M5
M5
G0 X51.711 Y28.320
M4 S300
G1 X52.417 Y28.320
M5
M5
G0 X53.746 Y28.320
M4 S300
G1 X54.446 Y28.320
M5
M5
G0 X55.053 Y28.320
M4 S300
G1 X55.791 Y28.320
M5
M5
G0 X56.755 Y28.320
M4 S300
G1 X57.507 Y28.320
M5
M5
G0 X58.031 Y28.320
M4 S300
G1 X58.737 Y28.320
M5
M5
G0 X60.850 Y28.320
M4 S300
G1 X61.536 Y28.320
M5
M5
G0 X62.561 Y28.320
M4 S300
G1 X63.245 Y28.320
M5
M5
G0 X63.879 Y28.320
M4 S300
G1 X64.557 Y28.320
M5
M5
G0 X12.913 Y28.500
M4 S300
G1 X13.552 Y28.500
M5
M5
G0 X14.071 Y28.500
M4 S300
G1 X14.622 Y28.500
M5
M5
G0 X14.709 Y28.500
M4 S300
G1 X15.251 Y28.500
M5
M5
G0 X15.769 Y28.500
M4 S300
G1 X16.409 Y28.500
M5
M5
G0 X16.956 Y28.500
M4 S300
G1 X17.649 Y28.500
M5
M5
G0 X18.650 Y28.500
M4 S300
G1 X19.351 Y28.500
M5
M5
G0 X20.024 Y28.500
M4 S300
G1 X20.703 Y28.500
M5
M5
G0 X21.565 Y28.500
M4 S300
G1 X22.257 Y28.500
M5
M5
G0 X23.259 Y28.500
M4 S300
G1 X23.959 Y28.500
M5
M5
G0 X24.424 Y28.500
M4 S300
G1 X25.150 Y28.500
M5
M5
G0 X25.993 Y28.500
M4 S300
G1 X26.681 Y28.500
M5
M5
G0 X27.302 Y28.500
M4 S300
G1 X27.988 Y28.500
M5
M5
G0 X29.986 Y28.500
M4 S300
G1 X32.589 Y28.500
M5
M5
G0 X33.360 Y28.500
M4 S300
G1 X34.046 Y28.500
M5
M5
G0 X34.588 Y28.500
M4 S300
G1 X35.307 Y28.500
M5
M5
G0 X36.374 Y28.500
M4 S300
G1 X37.072 Y28.500
M5
M5
G0 X39.041 Y28.500
M4 S300
G1 X39.761 Y28.500
M5
M5
G0 X42.038 Y28.500
M4 S300
G1 X42.724 Y28.500
M5
M5
G0 X43.261 Y28.500
M4 S300
G1 X43.969 Y28.500
M5
M5
G0 X46.111 Y28.500
M4 S300
G1 X46.797 Y28.500
M5
M5
G0 X47.338 Y28.500
M4 S300
G1 X48.057 Y28.500
M5
M5
G0 X49.125 Y28.500
M4 S300
G1 X49.823 Y28.500
M5
M5
G0 X51.777 Y28.500
M4 S300
G1 X54.380 Y28.500
M5
M5
G0 X55.025 Y28.500
M4 S300
G1 X55.748 Y28.500
M5
M5
G0 X56.804 Y28.500
M4 S300
G1 X57.507 Y28.500
M5
M5
G0 X58.000 Y28.500
M4 S300
G1 X58.708 Y28.500
M5
M5
G0 X60.850 Y28.500
M4 S300
G1 X61.536 Y28.500
M5
M5
G0 X62.561 Y28.500
M4 S300
G1 X63.245 Y28.500
M5
M5
G0 X63.879 Y28.500
M4 S300
G1 X64.557 Y28.500
M5
M5
G0 X12.913 Y28.680
M4 S300
G1 X13.552 Y28.680
M5
M5
G0 X14.013 Y28.680
M4 S300
G1 X14.576 Y28.680
M5
M5
G0 X14.759 Y28.680
M4 S300
G1 X15.309 Y28.680
M5
M5
G0 X15.769 Y28.680
M4 S300
G1 X16.409 Y28.680
M5
M5
G0 X16.956 Y28.680
M4 S300
G1 X17.642 Y28.680
M5
M5
G0 X18.664 Y28.680
M4 S300
G1 X19.351 Y28.680
M5
M5
G0 X20.024 Y28.680
M4 S300
G1 X20.703 Y28.680
M5
M5
G0 X21.565 Y28.680
M4 S300
G1 X22.251 Y28.680
M5
M5
G0 X23.273 Y28.680
M4 S300
G1 X23.959 Y28.680
M5
M5
G0 X24.507 Y28.680
M4 S300
G1 X25.540 Y28.680
M5
M5
G0 X25.995 Y28.680
M4 S300
G1 X26.681 Y28.680
M5
M5
G0 X27.302 Y28.680
M4 S300
G1 X27.988 Y28.680
M5
M5
G0 X30.051 Y28.680
M4 S300
G1 X32.523 Y28.680
M5
M5
G0 X33.360 Y28.680
M4 S300
G1 X34.046 Y28.680
M5
M5
G0 X34.576 Y28.680
M4 S300
G1 X35.293 Y28.680
M5
M5
G0 X36.393 Y28.680
M4 S300
G1 X37.072 Y28.680
M5
M5
G0 X39.041 Y28.680
M4 S300
G1 X39.761 Y28.680
M5
M5
G0 X42.038 Y28.680
M4 S300
G1 X42.724 Y28.680
M5
M5
G0 X43.246 Y28.680
M4 S300
G1 X45.656 Y28.680
M5
M5
G0 X46.111 Y28.680
M4 S300
G1 X46.797 Y28.680
M5
M5
G0 X47.326 Y28.680
M4 S300
G1 X48.043 Y28.680
M5
M5
G0 X49.144 Y28.680
M4 S300
G1 X49.823 Y28.680
M5
M5
G0 X51.843 Y28.680
M4 S300
G1 X54.315 Y28.680
M5
M5
G0 X55.011 Y28.680
M4 S300
G1 X55.729 Y28.680
M5
M5
G0 X56.826 Y28.680
M4 S300
G1 X57.507 Y28.680
M5
M5
G0 X57.985 Y28.680
M4 S300
G1 X60.395 Y28.680
M5
M5
G0 X60.850 Y28.680
M4 S300
G1 X61.536 Y28.680
M5
M5
G0 X62.561 Y28.680
M4 S300
G1 X63.245 Y28.680
M5
M5
G0 X63.879 Y28.680
M4 S300
G1 X64.557 Y28.680
M5
M5
G0 X12.913 Y28.860
M4 S300
G1 X13.552 Y28.860
M5
M5
G0 X13.955 Y28.860
M4 S300
G1 X14.528 Y28.860
M5
M5
G0 X14.809 Y28.860
M4 S300
G1 X15.367 Y28.860
M5
M5
G0 X15.769 Y28.860
M4 S300
G1 X16.409 Y28.860
M5
M5
G0 X16.956 Y28.860
M4 S300
G1 X17.642 Y28.860
M5
M5
G0 X18.665 Y28.860
M4 S300
G1 X19.351 Y28.860
M5
M5
G0 X20.024 Y28.860
M4 S300
G1 X20.703 Y28.860
M5
M5
G0 X21.565 Y28.860
M4 S300
G1 X22.251 Y28.860
M5
M5
G0 X23.273 Y28.860
M4 S300
G1 X23.959 Y28.860
M5
M5
G0 X24.679 Y28.860
M4 S300
G1 X26.681 Y28.860
M5
M5
G0 X27.302 Y28.860
M4 S300
G1 X27.988 Y28.860
M5
M5
G0 X30.117 Y28.860
M4 S300
G1 X32.458 Y28.860
M5
M5
G0 X33.360 Y28.860
M4 S300
G1 X34.046 Y28.860
M5
M5
G0 X34.575 Y28.860
M4 S300
G1 X35.289 Y28.860
M5
M5
G0 X36.395 Y28.860
M4 S300
G1 X37.072 Y28.860
M5
M5
G0 X39.041 Y28.860
M4 S300
G1 X41.522 Y28.860
M5
M5
G0 X42.038 Y28.860
M4 S300
G1 X42.724 Y28.860
M5
M5
G0 X43.243 Y28.860
M4 S300
G1 X45.650 Y28.860
M5
M5
G0 X46.111 Y28.860
M4 S300
G1 X46.797 Y28.860
M5
M5
G0 X47.325 Y28.860
M4 S300
G1 X48.040 Y28.860
M5
M5
G0 X49.145 Y28.860
M4 S300
G1 X49.823 Y28.860
M5
M5
G0 X51.908 Y28.860
M4 S300
G1 X54.249 Y28.860
M5
M5
G0 X55.009 Y28.860
M4 S300
G1 X55.725 Y28.860
M5
M5
G0 X56.830 Y28.860
M4 S300
G1 X57.507 Y28.860
M5
M5
G0 X57.983 Y28.860
M4 S300
G1 X60.389 Y28.860
M5
M5
G0 X60.850 Y28.860
M4 S300
G1 X61.536 Y28.860
M5
M5
G0 X62.561 Y28.860
M4 S300
G1 X63.245 Y28.860
M5
M5
G0 X63.879 Y28.860
M4 S300
G1 X64.557 Y28.860
M5
M5
G0 X12.913 Y29.040
M4 S300
G1 X13.552 Y29.040
M5
M5
G0 X13.897 Y29.040
M4 S300
G1 X14.475 Y29.040
M5
M5
G0 X14.864 Y29.040
M4 S300
G1 X15.425 Y29.040
M5
M5
G0 X15.769 Y29.040
M4 S300
G1 X16.409 Y29.040
M5
M5
G0 X16.956 Y29.040
M4 S300
G1 X17.642 Y29.040
M5
M5
G0 X18.665 Y29.040
M4 S300
G1 X19.351 Y29.040
M5
M5
G0 X20.024 Y29.040
M4 S300
G1 X20.703 Y29.040
M5
M5
G0 X21.565 Y29.040
M4 S300
G1 X22.251 Y29.040
M5
M5
G0 X23.273 Y29.040
M4 S300
G1 X23.959 Y29.040
M5
M5
G0 X25.155 Y29.040
M4 S300
G1 X26.681 Y29.040
M5
M5
G0 X27.302 Y29.040
M4 S300
G1 X27.988 Y29.040
M5
M5
G0 X30.183 Y29.040
M4 S300
G1 X30.847 Y29.040
M5
M5
G0 X31.733 Y29.040
M4 S300
G1 X32.392 Y29.040
M5
M5
G0 X33.360 Y29.040
M4 S300
G1 X34.046 Y29.040
M5
M5
G0 X34.585 Y29.040
M4 S300
G1 X35.300 Y29.040
M5
M5
G0 X36.383 Y29.040
M4 S300
G1 X37.072 Y29.040
M5
M5
G0 X39.041 Y29.040
M4 S300
G1 X41.522 Y29.040
M5
M5
G0 X42.038 Y29.040
M4 S300
G1 X42.724 Y29.040
M5
M5
G0 X43.255 Y29.040
M4 S300
G1 X45.634 Y29.040
M5
M5
G0 X46.111 Y29.040
M4 S300
G1 X46.797 Y29.040
M5
M5
G0 X47.336 Y29.040
M4 S300
G1 X48.051 Y29.040
M5
M5
G0 X49.134 Y29.040
M4 S300
G1 X49.823 Y29.040
M5
M5
G0 X51.974 Y29.040
M4 S300
G1 X52.639 Y29.040
M5
M5
G0 X53.524 Y29.040
M4 S300
G1 X54.184 Y29.040
M5
M5
G0 X55.018 Y29.040
M4 S300
G1 X55.734 Y29.040
M5
M5
G0 X56.820 Y29.040
M4 S300
G1 X57.507 Y29.040
M5
M5
G0 X57.994 Y29.040
M4 S300
G1 X60.373 Y29.040
M5
M5
G0 X60.850 Y29.040
M4 S300
G1 X61.545 Y29.040
M5
M5
G0 X62.556 Y29.040
M4 S300
G1 X63.245 Y29.040
M5
M5
G0 X63.879 Y29.040
M4 S300
G1 X64.557 Y29.040
M5
M5
G0 X12.913 Y29.220
M4 S300
G1 X13.552 Y29.220
M5
M5
G0 X13.838 Y29.220
M4 S300
G1 X14.417 Y29.220
M5
M5
G0 X14.921 Y29.220
M4 S300
G1 X15.483 Y29.220
M5
M5
G0 X15.769 Y29.220
M4 S300
G1 X16.409 Y29.220
M5
M5
G0 X16.956 Y29.220
M4 S300
G1 X17.642 Y29.220
M5
M5
G0 X18.665 Y29.220
M4 S300
G1 X19.351 Y29.220
M5
M5
G0 X20.024 Y29.220
M4 S300
G1 X20.703 Y29.220
M5
M5
G0 X21.565 Y29.220
M4 S300
G1 X22.251 Y29.220
M5
M5
G0 X23.273 Y29.220
M4 S300
G1 X23.959 Y29.220
M5
M5
G0 X25.994 Y29.220
M4 S300
G1 X26.680 Y29.220
M5
M5
G0 X27.302 Y29.220
M4 S300
G1 X27.988 Y29.220
M5
M5
G0 X30.248 Y29.220
M4 S300
G1 X30.909 Y29.220
M5
M5
G0 X31.671 Y29.220
M4 S300
G1 X32.327 Y29.220
M5
M5
G0 X33.360 Y29.220
M4 S300
G1 X34.046 Y29.220
M5
M5
G0 X34.608 Y29.220
M4 S300
G1 X35.329 Y29.220
M5
M5
G0 X36.351 Y29.220
M4 S300
G1 X37.072 Y29.220
M5
M5
G0 X39.041 Y29.220
M4 S300
G1 X41.522 Y29.220
M5
M5
G0 X42.038 Y29.220
M4 S300
G1 X42.724 Y29.220
M5
M5
G0 X43.283 Y29.220
M4 S300
G1 X43.977 Y29.220
M5
M5
G0 X44.977 Y29.220
M4 S300
G1 X45.603 Y29.220
M5
M5
G0 X46.111 Y29.220
M4 S300
G1 X46.797 Y29.220
M5
M5
G0 X47.359 Y29.220
M4 S300
G1 X48.080 Y29.220
M5
M5
G0 X49.102 Y29.220
M4 S300
G1 X49.823 Y29.220
M5
M5
G0 X52.040 Y29.220
M4 S300
G1 X52.701 Y29.220
M5
M5
G0 X53.462 Y29.220
M4 S300
G1 X54.118 Y29.220
M5
M5
G0 X55.040 Y29.220
M4 S300
G1 X55.764 Y29.220
M5
M5
G0 X56.787 Y29.220
M4 S300
G1 X57.507 Y29.220
M5
M5
G0 X58.022 Y29.220
M4 S300
G1 X58.716 Y29.220
M5
M5
G0 X59.716 Y29.220
M4 S300
G1 X60.342 Y29.220
M5
M5
G0 X60.850 Y29.220
M4 S300
G1 X61.584 Y29.220
M5
M5
G0 X62.536 Y29.220
M4 S300
G1 X63.242 Y29.220
M5
M5
G0 X63.879 Y29.220
M4 S300
G1 X64.557 Y29.220
M5
M5
G0 X12.913 Y29.400
M4 S300
G1 X13.552 Y29.400
M5
M5
G0 X13.781 Y29.400
M4 S300
G1 X14.359 Y29.400
M5
M5
G0 X14.977 Y29.400
M4 S300
G1 X15.541 Y29.400
M5
M5
G0 X15.769 Y29.400
M4 S300
G1 X16.409 Y29.400
M5
M5
G0 X16.956 Y29.400
M4 S300
G1 X17.642 Y29.400
M5
M5
G0 X18.665 Y29.400
M4 S300
G1 X19.351 Y29.400
M5
M5
G0 X20.024 Y29.400
M4 S300
G1 X20.703 Y29.400
M5
M5
G0 X21.565 Y29.400
M4 S300
G1 X22.251 Y29.400
M5
M5
G0 X23.273 Y29.400
M4 S300
G1 X23.959 Y29.400
M5
M5
G0 X24.509 Y29.400
M4 S300
G1 X25.227 Y29.400
M5
M5
G0 X25.978 Y29.400
M4 S300
G1 X26.666 Y29.400
M5
M5
G0 X27.302 Y29.400
M4 S300
G1 X27.988 Y29.400
M5
M5
G0 X30.314 Y29.400
M4 S300
G1 X30.971 Y29.400
M5
M5
G0 X31.609 Y29.400
M4 S300
G1 X32.262 Y29.400
M5
M5
G0 X33.360 Y29.400
M4 S300
G1 X34.046 Y29.400
M5
M5
G0 X34.649 Y29.400
M4 S300
G1 X35.386 Y29.400
M5
M5
G0 X36.287 Y29.400
M4 S300
G1 X37.072 Y29.400
M5
M5
G0 X39.041 Y29.400
M4 S300
G1 X39.761 Y29.400
M5
M5
G0 X42.038 Y29.400
M4 S300
G1 X42.724 Y29.400
M5
M5
G0 X43.331 Y29.400
M4 S300
G1 X44.019 Y29.400
M5
M5
G0 X44.932 Y29.400
M4 S300
G1 X45.555 Y29.400
M5
M5
G0 X46.111 Y29.400
M4 S300
G1 X46.797 Y29.400
M5
M5
G0 X47.399 Y29.400
M4 S300
G1 X48.137 Y29.400
M5
M5
G0 X49.037 Y29.400
M4 S300
G1 X49.823 Y29.400
M5
M5
G0 X52.105 Y29.400
M4 S300
G1 X52.762 Y29.400
M5
M5
G0 X53.401 Y29.400
M4 S300
G1 X54.053 Y29.400
M5
M5
G0 X55.079 Y29.400
M4 S300
G1 X55.823 Y29.400
M5
M5
G0 X56.720 Y29.400
M4 S300
G1 X57.507 Y29.400
M5
M5
G0 X58.070 Y29.400
M4 S300
G1 X58.758 Y29.400
M5
M5
G0 X59.671 Y29.400
M4 S300
G1 X60.294 Y29.400
M5
M5
G0 X60.850 Y29.400
M4 S300
G1 X61.668 Y29.400
M5
M5
G0 X62.482 Y29.400
M4 S300
G1 X63.227 Y29.400
M5
M5
G0 X63.879 Y29.400
M4 S300
G1 X64.557 Y29.400
M5
M5
G0 X12.913 Y29.580
M4 S300
G1 X13.552 Y29.580
M5
M5
G0 X13.729 Y29.580
M4 S300
G1 X14.302 Y29.580
M5
M5
G0 X15.033 Y29.580
M4 S300
G1 X15.596 Y29.580
M5
M5
G0 X15.769 Y29.580
M4 S300
G1 X16.409 Y29.580
M5
M5
G0 X16.956 Y29.580
M4 S300
G1 X17.642 Y29.580
M5
M5
G0 X18.665 Y29.580
M4 S300
G1 X19.351 Y29.580
M5
M5
G0 X20.024 Y29.580
M4 S300
G1 X20.703 Y29.580
M5
M5
G0 X21.565 Y29.580
M4 S300
G1 X22.251 Y29.580
M5
M5
G0 X23.273 Y29.580
M4 S300
G1 X23.959 Y29.580
M5
M5
G0 X24.559 Y29.580
M4 S300
G1 X25.292 Y29.580
M5
M5
G0 X25.910 Y29.580
M4 S300
G1 X26.624 Y29.580
M5
M5
G0 X27.302 Y29.580
M4 S300
G1 X27.988 Y29.580
M5
M5
G0 X30.380 Y29.580
M4 S300
G1 X31.032 Y29.580
M5
M5
G0 X31.547 Y29.580
M4 S300
G1 X32.196 Y29.580
M5
M5
G0 X33.360 Y29.580
M4 S300
G1 X34.046 Y29.580
M5
M5
G0 X34.712 Y29.580
M4 S300
G1 X35.513 Y29.580
M5
M5
G0 X36.154 Y29.580
M4 S300
G1 X37.072 Y29.580
M5
M5
G0 X39.041 Y29.580
M4 S300
G1 X39.761 Y29.580
M5
M5
G0 X42.038 Y29.580
M4 S300
G1 X42.724 Y29.580
M5
M5
G0 X43.406 Y29.580
M4 S300
G1 X44.124 Y29.580
M5
M5
G0 X44.825 Y29.580
M4 S300
G1 X45.480 Y29.580
M5
M5
G0 X46.111 Y29.580
M4 S300
G1 X46.797 Y29.580
M5
M5
G0 X47.462 Y29.580
M4 S300
G1 X48.263 Y29.580
M5
M5
G0 X48.904 Y29.580
M4 S300
G1 X49.823 Y29.580
M5
M5
G0 X52.171 Y29.580
M4 S300
G1 X52.824 Y29.580
M5
M5
G0 X53.339 Y29.580
M4 S300
G1 X53.988 Y29.580
M5
M5
G0 X55.139 Y29.580
M4 S300
G1 X55.960 Y29.580
M5
M5
G0 X56.584 Y29.580
M4 S300
G1 X57.508 Y29.580
M5
M5
G0 X58.145 Y29.580
M4 S300
G1 X58.863 Y29.580
M5
M5
G0 X59.564 Y29.580
M4 S300
G1 X60.219 Y29.580
M5
M5
G0 X60.850 Y29.580
M4 S300
G1 X61.844 Y29.580
M5
M5
G0 X62.332 Y29.580
M4 S300
G1 X63.188 Y29.580
M5
M5
G0 X63.879 Y29.580
M4 S300
G1 X64.557 Y29.580
M5
M5
G0 X12.913 Y29.760
M4 S300
G1 X13.548 Y29.760
M5
M5
G0 X13.678 Y29.760
M4 S300
G1 X14.244 Y29.760
M5
M5
G0 X15.090 Y29.760
M4 S300
G1 X15.647 Y29.760
M5
M5
G0 X15.772 Y29.760
M4 S300
G1 X16.409 Y29.760
M5
M5
G0 X16.956 Y29.760
M4 S300
G1 X17.642 Y29.760
M5
M5
G0 X18.665 Y29.760
M4 S300
G1 X19.351 Y29.760
M5
M5
G0 X19.689 Y29.760
M4 S300
G1 X21.203 Y29.760
M5
M5
G0 X21.565 Y29.760
M4 S300
G1 X22.251 Y29.760
M5
M5
G0 X23.273 Y29.760
M4 S300
G1 X23.959 Y29.760
M5
M5
G0 X24.655 Y29.760
M4 S300
G1 X26.538 Y29.760
M5
M5
G0 X27.302 Y29.760
M4 S300
G1 X27.988 Y29.760
M5
M5
G0 X30.445 Y29.760
M4 S300
G1 X31.094 Y29.760
M5
M5
G0 X31.485 Y29.760
M4 S300
G1 X32.131 Y29.760
M5
M5
G0 X33.360 Y29.760
M4 S300
G1 X34.046 Y29.760
M5
M5
G0 X34.811 Y29.760
M4 S300
G1 X36.351 Y29.760
M5
M5
G0 X36.391 Y29.760
M4 S300
G1 X37.072 Y29.760
M5
M5
G0 X39.041 Y29.760
M4 S300
G1 X39.761 Y29.760
M5
M5
G0 X42.038 Y29.760
M4 S300
G1 X42.724 Y29.760
M5
M5
G0 X43.528 Y29.760
M4 S300
G1 X45.370 Y29.760
M5
M5
G0 X46.111 Y29.760
M4 S300
G1 X46.797 Y29.760
M5
M5
G0 X47.562 Y29.760
M4 S300
G1 X49.101 Y29.760
M5
M5
G0 X49.141 Y29.760
M4 S300
G1 X49.823 Y29.760
M5
M5
G0 X52.237 Y29.760
M4 S300
G1 X52.885 Y29.760
M5
M5
G0 X53.277 Y29.760
M4 S300
G1 X53.922 Y29.760
M5
M5
G0 X55.236 Y29.760
M4 S300
G1 X56.784 Y29.760
M5
M5
G0 X56.840 Y29.760
M4 S300
G1 X57.510 Y29.760
M5
M5
G0 X58.267 Y29.760
M4 S300
G1 X60.109 Y29.760
M5
M5
G0 X60.847 Y29.760
M4 S300
G1 X61.510 Y29.760
M5
M5
G0 X61.622 Y29.760
M4 S300
G1 X63.116 Y29.760
M5
M5
G0 X63.544 Y29.760
M4 S300
G1 X65.058 Y29.760
M5
M5
G0 X12.913 Y29.940
M4 S300
G1 X13.541 Y29.940
M5
M5
G0 X13.627 Y29.940
M4 S300
G1 X14.187 Y29.940
M5
M5
G0 X15.146 Y29.940
M4 S300
G1 X15.696 Y29.940
M5
M5
G0 X15.779 Y29.940
M4 S300
G1 X16.409 Y29.940
M5
M5
G0 X16.956 Y29.940
M4 S300
G1 X17.642 Y29.940
M5
M5
G0 X18.665 Y29.940
M4 S300
G1 X19.351 Y29.940
M5
M5
G0 X19.689 Y29.940
M4 S300
G1 X21.203 Y29.940
M5
M5
G0 X21.565 Y29.940
M4 S300
G1 X22.251 Y29.940
M5
M5
G0 X23.273 Y29.940
M4 S300
G1 X23.959 Y29.940
M5
M5
G0 X24.831 Y29.940
M4 S300
G1 X26.375 Y29.940
M5
M5
G0 X27.302 Y29.940
M4 S300
G1 X27.988 Y29.940
M5
M5
G0 X30.511 Y29.940
M4 S300
G1 X31.155 Y29.940
M5
M5
G0 X31.425 Y29.940
M4 S300
G1 X32.065 Y29.940
M5
M5
G0 X33.360 Y29.940
M4 S300
G1 X34.046 Y29.940
M5
M5
G0 X34.967 Y29.940
M4 S300
G1 X36.209 Y29.940
M5
M5
G0 X36.389 Y29.940
M4 S300
G1 X37.072 Y29.940
M5
M5
G0 X39.041 Y29.940
M4 S300
G1 X39.761 Y29.940
M5
M5
G0 X42.038 Y29.940
M4 S300
G1 X42.724 Y29.940
M5
M5
G0 X43.719 Y29.940
M4 S300
G1 X45.193 Y29.940
M5
M5
G0 X46.111 Y29.940
M4 S300
G1 X46.797 Y29.940
M5
M5
G0 X47.717 Y29.940
M4 S300
G1 X48.959 Y29.940
M5
M5
G0 X49.139 Y29.940
M4 S300
G1 X49.823 Y29.940
M5
M5
G0 X52.302 Y29.940
M4 S300
G1 X52.946 Y29.940
M5
M5
G0 X53.217 Y29.940
M4 S300
G1 X53.857 Y29.940
M5
M5
G0 X55.390 Y29.940
M4 S300
G1 X56.646 Y29.940
M5
M5
G0 X56.851 Y29.940
M4 S300
G1 X57.514 Y29.940
M5
M5
G0 X58.458 Y29.940
M4 S300
G1 X59.933 Y29.940
M5
M5
G0 X60.840 Y29.940
M4 S300
G1 X61.499 Y29.940
M5
M5
G0 X61.769 Y29.940
M4 S300
G1 X62.983 Y29.940
M5
M5
G0 X63.544 Y29.940
M4 S300
G1 X65.058 Y29.940
M5
M5
G0 X12.913 Y30.120
M4 S300
G1 X13.532 Y30.120
M5
M5
G0 X13.575 Y30.120
M4 S300
G1 X14.129 Y30.120
M5
M5
G0 X15.203 Y30.120
M4 S300
G1 X15.745 Y30.120
M5
M5
G0 X15.786 Y30.120
M4 S300
G1 X16.409 Y30.120
M5
M5
G0 X20.062 Y30.120
M4 S300
G1 X20.703 Y30.120
M5
M5
G0 X25.244 Y30.120
M4 S300
G1 X25.993 Y30.120
M5
M5
G0 X27.302 Y30.120
M4 S300
G1 X27.988 Y30.120
M5
M5
G0 X30.577 Y30.120
M4 S300
G1 X31.214 Y30.120
M5
M5
G0 X31.368 Y30.120
M4 S300
G1 X32.000 Y30.120
M5
M5
G0 X35.299 Y30.120
M4 S300
G1 X35.885 Y30.120
M5
M5
G0 X36.387 Y30.120
M4 S300
G1 X37.072 Y30.120
M5
M5
G0 X39.041 Y30.120
M4 S300
G1 X39.761 Y30.120
M5
M5
G0 X44.129 Y30.120
M4 S300
G1 X44.817 Y30.120
M5
M5
G0 X46.111 Y30.120
M4 S300
G1 X46.797 Y30.120
M5
M5
G0 X48.049 Y30.120
M4 S300
G1 X48.636 Y30.120
M5
M5
G0 X49.137 Y30.120
M4 S300
G1 X49.823 Y30.120
M5
M5
G0 X52.368 Y30.120
M4 S300
G1 X53.006 Y30.120
M5
M5
G0 X53.160 Y30.120
M4 S300
G1 X53.791 Y30.120
M5
M5
G0 X55.722 Y30.120
M4 S300
G1 X56.334 Y30.120
M5
M5
G0 X58.868 Y30.120
M4 S300
G1 X59.556 Y30.120
M5
M5
G0 X62.083 Y30.120
M4 S300
G1 X62.675 Y30.120
M5
M5
G0 X63.916 Y30.120
M4 S300
G1 X64.557 Y30.120
M5
M5
G0 X12.913 Y30.300
M4 S300
G1 X13.523 Y30.300
M5
M5
G0 X13.524 Y30.300
M4 S300
G1 X14.072 Y30.300
M5
M5
G0 X15.259 Y30.300
M4 S300
G1 X15.793 Y30.300
M5
M5
G0 X15.793 Y30.300
M4 S300
G1 X16.409 Y30.300
M5
M5
G0 X20.124 Y30.300
M4 S300
G1 X20.703 Y30.300
M5
M5
G0 X27.302 Y30.300
M4 S300
G1 X27.988 Y30.300
M5
M5
G0 X30.642 Y30.300
M4 S300
G1 X31.267 Y30.300
M5
M5
G0 X31.313 Y30.300
M4 S300
G1 X31.935 Y30.300
M5
M5
G0 X36.386 Y30.300
M4 S300
G1 X37.072 Y30.300
M5
M5
G0 X39.041 Y30.300
M4 S300
G1 X39.761 Y30.300
M5
M5
G0 X46.111 Y30.300
M4 S300
G1 X46.797 Y30.300
M5
M5
G0 X49.137 Y30.300
M4 S300
G1 X49.823 Y30.300
M5
M5
G0 X52.434 Y30.300
M4 S300
G1 X53.059 Y30.300
M5
M5
G0 X53.104 Y30.300
M4 S300
G1 X53.726 Y30.300
M5
M5
G0 X63.979 Y30.300
M4 S300
G1 X64.557 Y30.300
M5
M5
G0 X12.913 Y30.480
M4 S300
G1 X14.014 Y30.480
M5
M5
G0 X15.315 Y30.480
M4 S300
G1 X16.409 Y30.480
M5
M5
G0 X20.186 Y30.480
M4 S300
G1 X20.703 Y30.480
M5
M5
G0 X27.302 Y30.480
M4 S300
G1 X27.988 Y30.480
M5
M5
G0 X30.708 Y30.480
M4 S300
G1 X31.869 Y30.480
M5
M5
G0 X36.386 Y30.480
M4 S300
G1 X37.072 Y30.480
M5
M5
G0 X39.041 Y30.480
M4 S300
G1 X41.578 Y30.480
M5
M5
G0 X46.111 Y30.480
M4 S300
G1 X46.797 Y30.480
M5
M5
G0 X49.137 Y30.480
M4 S300
G1 X49.823 Y30.480
M5
M5
G0 X52.499 Y30.480
M4 S300
G1 X53.661 Y30.480
M5
M5
G0 X64.041 Y30.480
M4 S300
G1 X64.557 Y30.480
M5
M5
G0 X12.913 Y30.660
M4 S300
G1 X13.956 Y30.660
M5
M5
G0 X15.372 Y30.660
M4 S300
G1 X16.409 Y30.660
M5
M5
G0 X20.249 Y30.660
M4 S300
G1 X20.703 Y30.660
M5
M5
G0 X27.302 Y30.660
M4 S300
G1 X27.988 Y30.660
M5
M5
G0 X30.774 Y30.660
M4 S300
G1 X31.804 Y30.660
M5
M5
G0 X33.360 Y30.660
M4 S300
G1 X34.046 Y30.660
M5
M5
G0 X36.386 Y30.660
M4 S300
G1 X37.072 Y30.660
M5
M5
G0 X39.041 Y30.660
M4 S300
G1 X41.578 Y30.660
M5
M5
G0 X42.038 Y30.660
M4 S300
G1 X42.724 Y30.660
M5
M5
G0 X46.111 Y30.660
M4 S300
G1 X46.797 Y30.660
M5
M5
G0 X49.137 Y30.660
M4 S300
G1 X49.823 Y30.660
M5
M5
G0 X52.565 Y30.660
M4 S300
G1 X53.595 Y30.660
M5
M5
G0 X64.104 Y30.660
M4 S300
G1 X64.557 Y30.660
M5
M5
G0 X12.913 Y30.840
M4 S300
G1 X13.899 Y30.840
M5
M5
G0 X15.428 Y30.840
M4 S300
G1 X16.409 Y30.840
M5
M5
G0 X27.302 Y30.840
M4 S300
G1 X27.988 Y30.840
M5
M5
G0 X30.839 Y30.840
M4 S300
G1 X31.738 Y30.840
M5
M5
G0 X33.360 Y30.840
M4 S300
G1 X34.046 Y30.840
M5
M5
G0 X36.386 Y30.840
M4 S300
G1 X37.072 Y30.840
M5
M5
G0 X39.041 Y30.840
M4 S300
G1 X41.578 Y30.840
M5
M5
G0 X42.038 Y30.840
M4 S300
G1 X42.724 Y30.840
M5
M5
G0 X46.111 Y30.840
M4 S300
G1 X46.797 Y30.840
M5
M5
G0 X49.137 Y30.840
M4 S300
G1 X49.823 Y30.840
M5
M5
G0 X52.631 Y30.840
M4 S300
G1 X53.530 Y30.840
M5
M5
G0 X27.302 Y31.020
M4 S300
G1 X27.988 Y31.020
M5
M5
G0 X33.360 Y31.020
M4 S300
G1 X34.046 Y31.020
M5
M5
G0 X36.386 Y31.020
M4 S300
G1 X37.072 Y31.020
M5
M5
G0 X42.038 Y31.020
M4 S300
G1 X42.724 Y31.020
M5
M5
G0 X46.111 Y31.020
M4 S300
G1 X46.797 Y31.020
M5
M5
G0 X49.137 Y31.020
M4 S300
G1 X49.823 Y31.020
M5
M5
G0 X106.867 Y16.980
M4 S300
G1 X108.103 Y16.980
M5
M5
G0 X106.708 Y17.160
M4 S300
G1 X107.179 Y17.160
M5
M5
G0 X107.792 Y17.160
M4 S300
G1 X108.261 Y17.160
M5
M5
G0 X106.636 Y17.340
M4 S300
G1 X107.023 Y17.340
M5
M5
G0 X107.959 Y17.340
M4 S300
G1 X108.344 Y17.340
M5
M5
G0 X108.019 Y17.520
M4 S300
G1 X108.386 Y17.520
M5
M5
G0 X94.437 Y17.700
M4 S300
G1 X94.803 Y17.700
M5
M5
G0 X95.826 Y17.700
M4 S300
G1 X96.194 Y17.700
M5
M5
G0 X97.174 Y17.700
M4 S300
G1 X98.016 Y17.700
M5
M5
G0 X99.437 Y17.700
M4 S300
G1 X100.279 Y17.700
M5
M5
G0 X101.569 Y17.700
M4 S300
G1 X102.289 Y17.700
M5
M5
G0 X102.632 Y17.700
M4 S300
G1 X102.983 Y17.700
M5
M5
G0 X103.478 Y17.700
M4 S300
G1 X103.845 Y17.700
M5
M5
G0 X104.392 Y17.700
M4 S300
G1 X104.759 Y17.700
M5
M5
G0 X105.782 Y17.700
M4 S300
G1 X106.150 Y17.700
M5
M5
G0 X107.039 Y17.700
M4 S300
G1 X107.609 Y17.700
M5
M5
G0 X108.037 Y17.700
M4 S300
G1 X108.400 Y17.700
M5
M5
G0 X110.271 Y17.700
M4 S300
G1 X110.887 Y17.700
M5
M5
G0 X111.636 Y17.700
M4 S300
G1 X112.454 Y17.700
M5
M5
G0 X114.555 Y17.700
M4 S300
G1 X114.910 Y17.700
M5
M5
G0 X115.247 Y17.700
M4 S300
G1 X115.946 Y17.700
M5
M5
G0 X117.310 Y17.700
M4 S300
G1 X118.153 Y17.700
M5
M5
G0 X120.436 Y17.700
M4 S300
G1 X121.158 Y17.700
M5
M5
G0 X121.754 Y17.700
M4 S300
G1 X122.258 Y17.700
M5
M5
G0 X122.756 Y17.700
M4 S300
G1 X123.701 Y17.700
M5
M5
G0 X124.519 Y17.700
M4 S300
G1 X124.885 Y17.700
M5
M5
G0 X125.878 Y17.700
M4 S300
G1 X126.307 Y17.700
M5
M5
G0 X127.036 Y17.700
M4 S300
G1 X127.878 Y17.700
M5
M5
G0 X129.168 Y17.700
M4 S300
G1 X129.888 Y17.700
M5
M5
G0 X130.230 Y17.700
M4 S300
G1 X130.582 Y17.700
M5
M5
G0 X131.179 Y17.700
M4 S300
G1 X131.576 Y17.700
M5
M5
G0 X94.437 Y17.880
M4 S300
G1 X94.803 Y17.880
M5
M5
G0 X95.826 Y17.880
M4 S300
G1 X96.194 Y17.880
M5
M5
G0 X96.886 Y17.880
M4 S300
G1 X98.310 Y17.880
M5
M5
G0 X99.149 Y17.880
M4 S300
G1 X100.573 Y17.880
M5
M5
G0 X101.335 Y17.880
M4 S300
G1 X102.517 Y17.880
M5
M5
G0 X102.619 Y17.880
M4 S300
G1 X102.975 Y17.880
M5
M5
G0 X103.478 Y17.880
M4 S300
G1 X103.845 Y17.880
M5
M5
G0 X104.392 Y17.880
M4 S300
G1 X104.759 Y17.880
M5
M5
G0 X105.782 Y17.880
M4 S300
G1 X106.150 Y17.880
M5
M5
G0 X106.769 Y17.880
M4 S300
G1 X107.896 Y17.880
M5
M5
G0 X108.039 Y17.880
M4 S300
G1 X108.403 Y17.880
M5
M5
G0 X110.120 Y17.880
M4 S300
G1 X110.887 Y17.880
M5
M5
G0 X111.356 Y17.880
M4 S300
G1 X112.743 Y17.880
M5
M5
G0 X114.563 Y17.880
M4 S300
G1 X114.922 Y17.880
M5
M5
G0 X115.018 Y17.880
M4 S300
G1 X116.187 Y17.880
M5
M5
G0 X117.023 Y17.880
M4 S300
G1 X118.446 Y17.880
M5
M5
G0 X120.227 Y17.880
M4 S300
G1 X121.411 Y17.880
M5
M5
G0 X121.612 Y17.880
M4 S300
G1 X122.258 Y17.880
M5
M5
G0 X122.475 Y17.880
M4 S300
G1 X123.989 Y17.880
M5
M5
G0 X124.519 Y17.880
M4 S300
G1 X124.885 Y17.880
M5
M5
G0 X125.745 Y17.880
M4 S300
G1 X126.172 Y17.880
M5
M5
G0 X126.748 Y17.880
M4 S300
G1 X128.172 Y17.880
M5
M5
G0 X128.934 Y17.880
M4 S300
G1 X130.116 Y17.880
M5
M5
G0 X130.218 Y17.880
M4 S300
G1 X130.574 Y17.880
M5
M5
G0 X131.179 Y17.880
M4 S300
G1 X131.576 Y17.880
M5
M5
G0 X94.437 Y18.060
M4 S300
G1 X94.803 Y18.060
M5
M5
G0 X95.826 Y18.060
M4 S300
G1 X96.194 Y18.060
M5
M5
G0 X96.748 Y18.060
M4 S300
G1 X97.174 Y18.060
M5
M5
G0 X98.041 Y18.060
M4 S300
G1 X98.439 Y18.060
M5
M5
G0 X99.011 Y18.060
M4 S300
G1 X99.437 Y18.060
M5
M5
G0 X100.304 Y18.060
M4 S300
G1 X100.702 Y18.060
M5
M5
G0 X101.228 Y18.060
M4 S300
G1 X101.657 Y18.060
M5
M5
G0 X102.409 Y18.060
M4 S300
G1 X102.973 Y18.060
M5
M5
G0 X103.478 Y18.060
M4 S300
G1 X103.845 Y18.060
M5
M5
G0 X104.392 Y18.060
M4 S300
G1 X104.759 Y18.060
M5
M5
G0 X105.782 Y18.060
M4 S300
G1 X106.150 Y18.060
M5
M5
G0 X106.658 Y18.060
M4 S300
G1 X107.090 Y18.060
M5
M5
G0 X107.796 Y18.060
M4 S300
G1 X108.023 Y18.060
M5
M5
G0 X108.039 Y18.060
M4 S300
G1 X108.403 Y18.060
M5
M5
G0 X110.083 Y18.060
M4 S300
G1 X110.463 Y18.060
M5
M5
G0 X111.222 Y18.060
M4 S300
G1 X111.639 Y18.060
M5
M5
G0 X112.464 Y18.060
M4 S300
G1 X112.880 Y18.060
M5
M5
G0 X114.565 Y18.060
M4 S300
G1 X115.108 Y18.060
M5
M5
G0 X115.885 Y18.060
M4 S300
G1 X116.298 Y18.060
M5
M5
G0 X116.884 Y18.060
M4 S300
G1 X117.311 Y18.060
M5
M5
G0 X118.177 Y18.060
M4 S300
G1 X118.575 Y18.060
M5
M5
G0 X120.146 Y18.060
M4 S300
G1 X120.548 Y18.060
M5
M5
G0 X121.313 Y18.060
M4 S300
G1 X121.542 Y18.060
M5
M5
G0 X121.577 Y18.060
M4 S300
G1 X121.948 Y18.060
M5
M5
G0 X122.362 Y18.060
M4 S300
G1 X122.749 Y18.060
M5
M5
G0 X123.720 Y18.060
M4 S300
G1 X124.099 Y18.060
M5
M5
G0 X124.519 Y18.060
M4 S300
G1 X124.885 Y18.060
M5
M5
G0 X125.611 Y18.060
M4 S300
G1 X126.037 Y18.060
M5
M5
G0 X126.610 Y18.060
M4 S300
G1 X127.036 Y18.060
M5
M5
G0 X127.903 Y18.060
M4 S300
G1 X128.301 Y18.060
M5
M5
G0 X128.827 Y18.060
M4 S300
G1 X129.256 Y18.060
M5
M5
G0 X130.008 Y18.060
M4 S300
G1 X130.572 Y18.060
M5
M5
G0 X131.179 Y18.060
M4 S300
G1 X131.576 Y18.060
M5
M5
G0 X94.437 Y18.240
M4 S300
G1 X94.803 Y18.240
M5
M5
G0 X95.826 Y18.240
M4 S300
G1 X96.194 Y18.240
M5
M5
G0 X96.666 Y18.240
M4 S300
G1 X97.054 Y18.240
M5
M5
G0 X98.160 Y18.240
M4 S300
G1 X98.178 Y18.240
M5
M5
G0 X98.929 Y18.240
M4 S300
G1 X99.317 Y18.240
M5
M5
G0 X100.423 Y18.240
M4 S300
G1 X100.441 Y18.240
M5
M5
G0 X101.168 Y18.240
M4 S300
G1 X101.562 Y18.240
M5
M5
G0 X102.522 Y18.240
M4 S300
G1 X102.973 Y18.240
M5
M5
G0 X103.478 Y18.240
M4 S300
G1 X103.845 Y18.240
M5
M5
G0 X104.392 Y18.240
M4 S300
G1 X104.759 Y18.240
M5
M5
G0 X105.782 Y18.240
M4 S300
G1 X106.150 Y18.240
M5
M5
G0 X106.597 Y18.240
M4 S300
G1 X106.988 Y18.240
M5
M5
G0 X107.929 Y18.240
M4 S300
G1 X108.403 Y18.240
M5
M5
G0 X110.077 Y18.240
M4 S300
G1 X110.444 Y18.240
M5
M5
G0 X111.142 Y18.240
M4 S300
G1 X111.532 Y18.240
M5
M5
G0 X112.570 Y18.240
M4 S300
G1 X112.958 Y18.240
M5
M5
G0 X114.565 Y18.240
M4 S300
G1 X115.004 Y18.240
M5
M5
G0 X115.977 Y18.240
M4 S300
G1 X116.364 Y18.240
M5
M5
G0 X116.803 Y18.240
M4 S300
G1 X117.190 Y18.240
M5
M5
G0 X118.297 Y18.240
M4 S300
G1 X118.314 Y18.240
M5
M5
G0 X120.119 Y18.240
M4 S300
G1 X120.496 Y18.240
M5
M5
G0 X121.466 Y18.240
M4 S300
G1 X121.932 Y18.240
M5
M5
G0 X122.578 Y18.240
M4 S300
G1 X122.647 Y18.240
M5
M5
G0 X123.779 Y18.240
M4 S300
G1 X124.134 Y18.240
M5
M5
G0 X124.519 Y18.240
M4 S300
G1 X124.885 Y18.240
M5
M5
G0 X125.478 Y18.240
M4 S300
G1 X125.903 Y18.240
M5
M5
G0 X126.528 Y18.240
M4 S300
G1 X126.916 Y18.240
M5
M5
G0 X128.022 Y18.240
M4 S300
G1 X128.040 Y18.240
M5
M5
G0 X128.767 Y18.240
M4 S300
G1 X129.161 Y18.240
M5
M5
G0 X130.120 Y18.240
M4 S300
G1 X130.572 Y18.240
M5
M5
G0 X94.437 Y18.420
M4 S300
G1 X94.803 Y18.420
M5
M5
G0 X95.826 Y18.420
M4 S300
G1 X96.194 Y18.420
M5
M5
G0 X96.621 Y18.420
M4 S300
G1 X96.998 Y18.420
M5
M5
G0 X98.884 Y18.420
M4 S300
G1 X99.261 Y18.420
M5
M5
G0 X101.134 Y18.420
M4 S300
G1 X101.520 Y18.420
M5
M5
G0 X102.574 Y18.420
M4 S300
G1 X102.973 Y18.420
M5
M5
G0 X103.478 Y18.420
M4 S300
G1 X103.845 Y18.420
M5
M5
G0 X104.392 Y18.420
M4 S300
G1 X104.759 Y18.420
M5
M5
G0 X105.782 Y18.420
M4 S300
G1 X106.150 Y18.420
M5
M5
G0 X106.564 Y18.420
M4 S300
G1 X106.944 Y18.420
M5
M5
G0 X107.997 Y18.420
M4 S300
G1 X108.403 Y18.420
M5
M5
G0 X110.077 Y18.420
M4 S300
G1 X110.444 Y18.420
M5
M5
G0 X111.097 Y18.420
M4 S300
G1 X111.481 Y18.420
M5
M5
G0 X112.619 Y18.420
M4 S300
G1 X113.003 Y18.420
M5
M5
G0 X114.565 Y18.420
M4 S300
G1 X114.956 Y18.420
M5
M5
G0 X116.018 Y18.420
M4 S300
G1 X116.399 Y18.420
M5
M5
G0 X116.757 Y18.420
M4 S300
G1 X117.134 Y18.420
M5
M5
G0 X120.128 Y18.420
M4 S300
G1 X120.509 Y18.420
M5
M5
G0 X121.541 Y18.420
M4 S300
G1 X121.932 Y18.420
M5
M5
G0 X123.730 Y18.420
M4 S300
G1 X124.122 Y18.420
M5
M5
G0 X124.519 Y18.420
M4 S300
G1 X124.885 Y18.420
M5
M5
G0 X125.344 Y18.420
M4 S300
G1 X125.768 Y18.420
M5
M5
G0 X126.483 Y18.420
M4 S300
G1 X126.860 Y18.420
M5
M5
G0 X128.733 Y18.420
M4 S300
G1 X129.119 Y18.420
M5
M5
G0 X130.173 Y18.420
M4 S300
G1 X130.572 Y18.420
M5
M5
G0 X94.437 Y18.600
M4 S300
G1 X94.803 Y18.600
M5
M5
G0 X95.826 Y18.600
M4 S300
G1 X96.194 Y18.600
M5
M5
G0 X96.596 Y18.600
M4 S300
G1 X96.975 Y18.600
M5
M5
G0 X98.859 Y18.600
M4 S300
G1 X99.238 Y18.600
M5
M5
G0 X101.116 Y18.600
M4 S300
G1 X101.502 Y18.600
M5
M5
G0 X102.598 Y18.600
M4 S300
G1 X102.973 Y18.600
M5
M5
G0 X103.478 Y18.600
M4 S300
G1 X103.845 Y18.600
M5
M5
G0 X104.392 Y18.600
M4 S300
G1 X104.759 Y18.600
M5
M5
G0 X105.782 Y18.600
M4 S300
G1 X106.150 Y18.600
M5
M5
G0 X106.546 Y18.600
M4 S300
G1 X106.926 Y18.600
M5
M5
G0 X108.030 Y18.600
M4 S300
G1 X108.403 Y18.600
M5
M5
G0 X110.077 Y18.600
M4 S300
G1 X110.444 Y18.600
M5
M5
G0 X111.073 Y18.600
M4 S300
G1 X111.457 Y18.600
M5
M5
G0 X112.641 Y18.600
M4 S300
G1 X113.026 Y18.600
M5
M5
G0 X114.565 Y18.600
M4 S300
G1 X114.936 Y18.600
M5
M5
G0 X116.036 Y18.600
M4 S300
G1 X116.416 Y18.600
M5
M5
G0 X116.732 Y18.600
M4 S300
G1 X117.111 Y18.600
M5
M5
G0 X120.180 Y18.600
M4 S300
G1 X120.610 Y18.600
M5
M5
G0 X121.562 Y18.600
M4 S300
G1 X121.932 Y18.600
M5
M5
G0 X123.396 Y18.600
M4 S300
G1 X124.045 Y18.600
M5
M5
G0 X124.519 Y18.600
M4 S300
G1 X125.059 Y18.600
M5
M5
G0 X125.211 Y18.600
M4 S300
G1 X125.633 Y18.600
M5
M5
G0 X126.458 Y18.600
M4 S300
G1 X126.837 Y18.600
M5
M5
G0 X128.715 Y18.600
M4 S300
G1 X129.101 Y18.600
M5
M5
G0 X130.197 Y18.600
M4 S300
G1 X130.572 Y18.600
M5
M5
G0 X94.437 Y18.780
M4 S300
G1 X94.803 Y18.780
M5
M5
G0 X95.826 Y18.780
M4 S300
G1 X96.194 Y18.780
M5
M5
G0 X96.588 Y18.780
M4 S300
G1 X98.540 Y18.780
M5
M5
G0 X98.851 Y18.780
M4 S300
G1 X100.803 Y18.780
M5
M5
G0 X101.112 Y18.780
M4 S300
G1 X101.496 Y18.780
M5
M5
G0 X102.606 Y18.780
M4 S300
G1 X102.973 Y18.780
M5
M5
G0 X103.478 Y18.780
M4 S300
G1 X103.845 Y18.780
M5
M5
G0 X104.392 Y18.780
M4 S300
G1 X104.759 Y18.780
M5
M5
G0 X105.782 Y18.780
M4 S300
G1 X106.150 Y18.780
M5
M5
G0 X106.542 Y18.780
M4 S300
G1 X106.920 Y18.780
M5
M5
G0 X108.039 Y18.780
M4 S300
G1 X108.403 Y18.780
M5
M5
G0 X110.077 Y18.780
M4 S300
G1 X110.444 Y18.780
M5
M5
G0 X111.066 Y18.780
M4 S300
G1 X111.450 Y18.780
M5
M5
G0 X112.648 Y18.780
M4 S300
G1 X113.033 Y18.780
M5
M5
G0 X114.565 Y18.780
M4 S300
G1 X114.932 Y18.780
M5
M5
G0 X116.042 Y18.780
M4 S300
G1 X116.426 Y18.780
M5
M5
G0 X116.724 Y18.780
M4 S300
G1 X118.677 Y18.780
M5
M5
G0 X120.308 Y18.780
M4 S300
G1 X121.932 Y18.780
M5
M5
G0 X122.787 Y18.780
M4 S300
G1 X123.848 Y18.780
M5
M5
G0 X124.519 Y18.780
M4 S300
G1 X125.498 Y18.780
M5
M5
G0 X126.450 Y18.780
M4 S300
G1 X128.402 Y18.780
M5
M5
G0 X128.711 Y18.780
M4 S300
G1 X129.095 Y18.780
M5
M5
G0 X130.205 Y18.780
M4 S300
G1 X130.572 Y18.780
M5
M5
G0 X94.437 Y18.960
M4 S300
G1 X94.803 Y18.960
M5
M5
G0 X95.826 Y18.960
M4 S300
G1 X96.194 Y18.960
M5
M5
G0 X96.595 Y18.960
M4 S300
G1 X98.529 Y18.960
M5
M5
G0 X98.858 Y18.960
M4 S300
G1 X100.792 Y18.960
M5
M5
G0 X101.122 Y18.960
M4 S300
G1 X101.502 Y18.960
M5
M5
G0 X102.601 Y18.960
M4 S300
G1 X102.973 Y18.960
M5
M5
G0 X103.478 Y18.960
M4 S300
G1 X103.845 Y18.960
M5
M5
G0 X104.392 Y18.960
M4 S300
G1 X104.759 Y18.960
M5
M5
G0 X105.782 Y18.960
M4 S300
G1 X106.150 Y18.960
M5
M5
G0 X106.548 Y18.960
M4 S300
G1 X106.927 Y18.960
M5
M5
G0 X108.029 Y18.960
M4 S300
G1 X108.403 Y18.960
M5
M5
G0 X110.077 Y18.960
M4 S300
G1 X110.444 Y18.960
M5
M5
G0 X111.078 Y18.960
M4 S300
G1 X111.458 Y18.960
M5
M5
G0 X112.641 Y18.960
M4 S300
G1 X113.026 Y18.960
M5
M5
G0 X114.565 Y18.960
M4 S300
G1 X114.940 Y18.960
M5
M5
G0 X116.035 Y18.960
M4 S300
G1 X116.421 Y18.960
M5
M5
G0 X116.732 Y18.960
M4 S300
G1 X118.665 Y18.960
M5
M5
G0 X120.669 Y18.960
M4 S300
G1 X121.932 Y18.960
M5
M5
G0 X122.527 Y18.960
M4 S300
G1 X123.329 Y18.960
M5
M5
G0 X124.519 Y18.960
M4 S300
G1 X124.885 Y18.960
M5
M5
G0 X125.024 Y18.960
M4 S300
G1 X125.418 Y18.960
M5
M5
G0 X126.457 Y18.960
M4 S300
G1 X128.391 Y18.960
M5
M5
G0 X128.721 Y18.960
M4 S300
G1 X129.101 Y18.960
M5
M5
G0 X130.200 Y18.960
M4 S300
G1 X130.572 Y18.960
M5
M5
G0 X94.437 Y19.140
M4 S300
G1 X94.819 Y19.140
M5
M5
G0 X95.825 Y19.140
M4 S300
G1 X96.194 Y19.140
M5
M5
G0 X96.621 Y19.140
M4 S300
G1 X96.994 Y19.140
M5
M5
G0 X98.141 Y19.140
M4 S300
G1 X98.504 Y19.140
M5
M5
G0 X98.884 Y19.140
M4 S300
G1 X99.257 Y19.140
M5
M5
G0 X100.404 Y19.140
M4 S300
G1 X100.767 Y19.140
M5
M5
G0 X101.142 Y19.140
M4 S300
G1 X101.522 Y19.140
M5
M5
G0 X102.579 Y19.140
M4 S300
G1 X102.973 Y19.140
M5
M5
G0 X103.478 Y19.140
M4 S300
G1 X103.845 Y19.140
M5
M5
G0 X104.392 Y19.140
M4 S300
G1 X104.775 Y19.140
M5
M5
G0 X105.781 Y19.140
M4 S300
G1 X106.150 Y19.140
M5
M5
G0 X106.568 Y19.140
M4 S300
G1 X106.948 Y19.140
M5
M5
G0 X107.996 Y19.140
M4 S300
G1 X108.403 Y19.140
M5
M5
G0 X110.077 Y19.140
M4 S300
G1 X110.444 Y19.140
M5
M5
G0 X111.100 Y19.140
M4 S300
G1 X111.482 Y19.140
M5
M5
G0 X112.619 Y19.140
M4 S300
G1 X113.003 Y19.140
M5
M5
G0 X114.565 Y19.140
M4 S300
G1 X114.966 Y19.140
M5
M5
G0 X116.015 Y19.140
M4 S300
G1 X116.402 Y19.140
M5
M5
G0 X116.757 Y19.140
M4 S300
G1 X117.131 Y19.140
M5
M5
G0 X118.277 Y19.140
M4 S300
G1 X118.640 Y19.140
M5
M5
G0 X121.562 Y19.140
M4 S300
G1 X121.932 Y19.140
M5
M5
G0 X122.427 Y19.140
M4 S300
G1 X122.844 Y19.140
M5
M5
G0 X124.519 Y19.140
M4 S300
G1 X124.885 Y19.140
M5
M5
G0 X125.187 Y19.140
M4 S300
G1 X125.588 Y19.140
M5
M5
G0 X126.483 Y19.140
M4 S300
G1 X126.856 Y19.140
M5
M5
G0 X128.003 Y19.140
M4 S300
G1 X128.366 Y19.140
M5
M5
G0 X128.741 Y19.140
M4 S300
G1 X129.121 Y19.140
M5
M5
G0 X130.178 Y19.140
M4 S300
G1 X130.572 Y19.140
M5
M5
G0 X94.437 Y19.320
M4 S300
G1 X94.874 Y19.320
M5
M5
G0 X95.806 Y19.320
M4 S300
G1 X96.184 Y19.320
M5
M5
G0 X96.669 Y19.320
M4 S300
G1 X97.051 Y19.320
M5
M5
G0 X98.088 Y19.320
M4 S300
G1 X98.462 Y19.320
M5
M5
G0 X98.932 Y19.320
M4 S300
G1 X99.314 Y19.320
M5
M5
G0 X100.351 Y19.320
M4 S300
G1 X100.725 Y19.320
M5
M5
G0 X101.176 Y19.320
M4 S300
G1 X101.566 Y19.320
M5
M5
G0 X102.529 Y19.320
M4 S300
G1 X102.973 Y19.320
M5
M5
G0 X103.478 Y19.320
M4 S300
G1 X103.845 Y19.320
M5
M5
G0 X104.392 Y19.320
M4 S300
G1 X104.830 Y19.320
M5
M5
G0 X105.762 Y19.320
M4 S300
G1 X106.140 Y19.320
M5
M5
G0 X106.604 Y19.320
M4 S300
G1 X106.995 Y19.320
M5
M5
G0 X107.929 Y19.320
M4 S300
G1 X108.403 Y19.320
M5
M5
G0 X110.077 Y19.320
M4 S300
G1 X110.444 Y19.320
M5
M5
G0 X111.143 Y19.320
M4 S300
G1 X111.534 Y19.320
M5
M5
G0 X112.571 Y19.320
M4 S300
G1 X112.961 Y19.320
M5
M5
G0 X114.565 Y19.320
M4 S300
G1 X115.020 Y19.320
M5
M5
G0 X115.971 Y19.320
M4 S300
G1 X116.367 Y19.320
M5
M5
G0 X116.805 Y19.320
M4 S300
G1 X117.188 Y19.320
M5
M5
G0 X118.225 Y19.320
M4 S300
G1 X118.599 Y19.320
M5
M5
G0 X120.222 Y19.320
M4 S300
G1 X120.603 Y19.320
M5
M5
G0 X121.544 Y19.320
M4 S300
G1 X121.921 Y19.320
M5
M5
G0 X122.408 Y19.320
M4 S300
G1 X122.763 Y19.320
M5
M5
G0 X124.519 Y19.320
M4 S300
G1 X124.885 Y19.320
M5
M5
G0 X125.350 Y19.320
M4 S300
G1 X125.758 Y19.320
M5
M5
G0 X126.531 Y19.320
M4 S300
G1 X126.913 Y19.320
M5
M5
G0 X127.950 Y19.320
M4 S300
G1 X128.324 Y19.320
M5
M5
G0 X128.775 Y19.320
M4 S300
G1 X129.165 Y19.320
M5
M5
G0 X130.128 Y19.320
M4 S300
G1 X130.572 Y19.320
M5
M5
G0 X94.436 Y19.500
M4 S300
G1 X94.786 Y19.500
M5
M5
G0 X94.794 Y19.500
M4 S300
G1 X95.003 Y19.500
M5
M5
G0 X95.735 Y19.500
M4 S300
G1 X96.150 Y19.500
M5
M5
G0 X96.755 Y19.500
M4 S300
G1 X97.178 Y19.500
M5
M5
G0 X97.971 Y19.500
M4 S300
G1 X98.380 Y19.500
M5
M5
G0 X99.018 Y19.500
M4 S300
G1 X99.441 Y19.500
M5
M5
G0 X100.234 Y19.500
M4 S300
G1 X100.643 Y19.500
M5
M5
G0 X101.245 Y19.500
M4 S300
G1 X101.663 Y19.500
M5
M5
G0 X102.417 Y19.500
M4 S300
G1 X102.973 Y19.500
M5
M5
G0 X103.478 Y19.500
M4 S300
G1 X103.845 Y19.500
M5
M5
G0 X104.392 Y19.500
M4 S300
G1 X104.742 Y19.500
M5
M5
G0 X104.750 Y19.500
M4 S300
G1 X104.959 Y19.500
M5
M5
G0 X105.691 Y19.500
M4 S300
G1 X106.106 Y19.500
M5
M5
G0 X106.671 Y19.500
M4 S300
G1 X107.101 Y19.500
M5
M5
G0 X107.798 Y19.500
M4 S300
G1 X108.038 Y19.500
M5
M5
G0 X108.043 Y19.500
M4 S300
G1 X108.403 Y19.500
M5
M5
G0 X110.077 Y19.500
M4 S300
G1 X110.444 Y19.500
M5
M5
G0 X111.226 Y19.500
M4 S300
G1 X111.650 Y19.500
M5
M5
G0 X112.462 Y19.500
M4 S300
G1 X112.886 Y19.500
M5
M5
G0 X114.565 Y19.500
M4 S300
G1 X115.141 Y19.500
M5
M5
G0 X115.867 Y19.500
M4 S300
G1 X116.304 Y19.500
M5
M5
G0 X116.891 Y19.500
M4 S300
G1 X117.314 Y19.500
M5
M5
G0 X118.107 Y19.500
M4 S300
G1 X118.516 Y19.500
M5
M5
G0 X120.267 Y19.500
M4 S300
G1 X120.678 Y19.500
M5
M5
G0 X121.465 Y19.500
M4 S300
G1 X121.875 Y19.500
M5
M5
G0 X122.439 Y19.500
M4 S300
G1 X122.818 Y19.500
M5
M5
G0 X123.675 Y19.500
M4 S300
G1 X124.059 Y19.500
M5
M5
G0 X124.519 Y19.500
M4 S300
G1 X124.885 Y19.500
M5
M5
G0 X125.513 Y19.500
M4 S300
G1 X125.927 Y19.500
M5
M5
G0 X126.617 Y19.500
M4 S300
G1 X127.040 Y19.500
M5
M5
G0 X127.833 Y19.500
M4 S300
G1 X128.241 Y19.500
M5
M5
G0 X128.844 Y19.500
M4 S300
G1 X129.262 Y19.500
M5
M5
G0 X130.016 Y19.500
M4 S300
G1 X130.572 Y19.500
M5
M5
G0 X94.434 Y19.680
M4 S300
G1 X94.781 Y19.680
M5
M5
G0 X94.918 Y19.680
M4 S300
G1 X96.070 Y19.680
M5
M5
G0 X96.899 Y19.680
M4 S300
G1 X98.242 Y19.680
M5
M5
G0 X99.162 Y19.680
M4 S300
G1 X100.505 Y19.680
M5
M5
G0 X101.360 Y19.680
M4 S300
G1 X102.510 Y19.680
M5
M5
G0 X102.608 Y19.680
M4 S300
G1 X102.973 Y19.680
M5
M5
G0 X103.478 Y19.680
M4 S300
G1 X103.845 Y19.680
M5
M5
G0 X104.390 Y19.680
M4 S300
G1 X104.737 Y19.680
M5
M5
G0 X104.874 Y19.680
M4 S300
G1 X106.026 Y19.680
M5
M5
G0 X106.788 Y19.680
M4 S300
G1 X107.918 Y19.680
M5
M5
G0 X108.050 Y19.680
M4 S300
G1 X108.405 Y19.680
M5
M5
G0 X109.823 Y19.680
M4 S300
G1 X110.851 Y19.680
M5
M5
G0 X111.366 Y19.680
M4 S300
G1 X112.752 Y19.680
M5
M5
G0 X114.565 Y19.680
M4 S300
G1 X114.929 Y19.680
M5
M5
G0 X115.031 Y19.680
M4 S300
G1 X116.192 Y19.680
M5
M5
G0 X117.036 Y19.680
M4 S300
G1 X118.379 Y19.680
M5
M5
G0 X120.387 Y19.680
M4 S300
G1 X121.765 Y19.680
M5
M5
G0 X122.544 Y19.680
M4 S300
G1 X123.948 Y19.680
M5
M5
G0 X124.519 Y19.680
M4 S300
G1 X124.885 Y19.680
M5
M5
G0 X125.676 Y19.680
M4 S300
G1 X126.097 Y19.680
M5
M5
G0 X126.761 Y19.680
M4 S300
G1 X128.104 Y19.680
M5
M5
G0 X128.959 Y19.680
M4 S300
G1 X130.109 Y19.680
M5
M5
G0 X130.207 Y19.680
M4 S300
G1 X130.572 Y19.680
M5
M5
G0 X94.426 Y19.860
M4 S300
G1 X94.772 Y19.860
M5
M5
G0 X95.170 Y19.860
M4 S300
G1 X95.835 Y19.860
M5
M5
G0 X97.203 Y19.860
M4 S300
G1 X97.923 Y19.860
M5
M5
G0 X99.466 Y19.860
M4 S300
G1 X100.186 Y19.860
M5
M5
G0 X101.626 Y19.860
M4 S300
G1 X102.257 Y19.860
M5
M5
G0 X102.607 Y19.860
M4 S300
G1 X102.973 Y19.860
M5
M5
G0 X103.478 Y19.860
M4 S300
G1 X103.845 Y19.860
M5
M5
G0 X104.382 Y19.860
M4 S300
G1 X104.728 Y19.860
M5
M5
G0 X105.126 Y19.860
M4 S300
G1 X105.791 Y19.860
M5
M5
G0 X107.057 Y19.860
M4 S300
G1 X107.653 Y19.860
M5
M5
G0 X108.064 Y19.860
M4 S300
G1 X108.414 Y19.860
M5
M5
G0 X109.823 Y19.860
M4 S300
G1 X110.851 Y19.860
M5
M5
G0 X111.691 Y19.860
M4 S300
G1 X112.445 Y19.860
M5
M5
G0 X114.565 Y19.860
M4 S300
G1 X114.931 Y19.860
M5
M5
G0 X115.283 Y19.860
M4 S300
G1 X115.940 Y19.860
M5
M5
G0 X117.339 Y19.860
M4 S300
G1 X118.060 Y19.860
M5
M5
G0 X120.688 Y19.860
M4 S300
G1 X121.481 Y19.860
M5
M5
G0 X122.853 Y19.860
M4 S300
G1 X123.636 Y19.860
M5
M5
G0 X124.519 Y19.860
M4 S300
G1 X124.885 Y19.860
M5
M5
G0 X125.839 Y19.860
M4 S300
G1 X126.267 Y19.860
M5
M5
G0 X127.065 Y19.860
M4 S300
G1 X127.785 Y19.860
M5
M5
G0 X129.225 Y19.860
M4 S300
G1 X129.855 Y19.860
M5
M5
G0 X130.206 Y19.860
M4 S300
G1 X130.572 Y19.860
M5
M5
G0 X102.607 Y20.040
M4 S300
G1 X102.973 Y20.040
M5
M5
G0 X110.128 Y20.040
M4 S300
G1 X110.444 Y20.040
M5
M5
G0 X114.565 Y20.040
M4 S300
G1 X114.931 Y20.040
M5
M5
G0 X124.519 Y20.040
M4 S300
G1 X124.885 Y20.040
M5
M5
G0 X130.206 Y20.040
M4 S300
G1 X130.572 Y20.040
M5
M5
G0 X102.607 Y20.220
M4 S300
G1 X102.973 Y20.220
M5
M5
G0 X110.167 Y20.220
M4 S300
G1 X110.444 Y20.220
M5
M5
G0 X114.565 Y20.220
M4 S300
G1 X114.931 Y20.220
M5
M5
G0 X124.519 Y20.220
M4 S300
G1 X124.885 Y20.220
M5
M5
G0 X130.206 Y20.220
M4 S300
G1 X130.572 Y20.220
M5
M5
G0 X102.607 Y20.400
M4 S300
G1 X102.973 Y20.400
M5
M5
G0 X103.478 Y20.400
M4 S300
G1 X103.845 Y20.400
M5
M5
G0 X114.565 Y20.400
M4 S300
G1 X114.931 Y20.400
M5
M5
G0 X124.519 Y20.400
M4 S300
G1 X124.885 Y20.400
M5
M5
G0 X130.206 Y20.400
M4 S300
G1 X130.572 Y20.400
M5
M5
G0 X102.607 Y20.580
M4 S300
G1 X102.973 Y20.580
M5
M5
G0 X103.478 Y20.580
M4 S300
G1 X103.845 Y20.580
M5
M5
G0 X114.565 Y20.580
M4 S300
G1 X114.931 Y20.580
M5
M5
G0 X124.519 Y20.580
M4 S300
G1 X124.885 Y20.580
M5
M5
G0 X130.206 Y20.580
M4 S300
G1 X130.572 Y20.580
M5
M5
G0 X93.966 Y20.940
M4 S300
G1 X94.612 Y20.940
M5
M5
G0 X127.587 Y20.940
M4 S300
G1 X127.953 Y20.940
M5
M5
G0 X94.280 Y21.120
M4 S300
G1 X94.783 Y21.120
M5
M5
G0 X127.587 Y21.120
