; vibe-cutting deterministic GRBL artifact
G21
G90
M5
; vector_engrave
; material=basswood_3mm thickness_mm=3.0
; passes=1 speed_mm_per_min=5000 power_percent=30 air_assist=low
; pass 1 of 1
F5000
M5
G0 X39.811 Y12.500
M4 S300
G1 X40.299 Y12.500
M5
M5
G0 X39.811 Y12.680
M4 S300
G1 X40.299 Y12.680
M5
M5
G0 X39.811 Y12.860
M4 S300
G1 X40.299 Y12.860
M5
M5
G0 X39.811 Y13.040
M4 S300
G1 X40.299 Y13.040
M5
M5
G0 X39.811 Y13.220
M4 S300
G1 X40.299 Y13.220
M5
M5
G0 X39.811 Y13.400
M4 S300
G1 X40.299 Y13.400
M5
M5
G0 X34.288 Y13.580
M4 S300
G1 X35.154 Y13.580
M5
M5
G0 X35.664 Y13.580
M4 S300
G1 X36.132 Y13.580
M5
M5
G0 X37.489 Y13.580
M4 S300
G1 X38.504 Y13.580
M5
M5
G0 X39.811 Y13.580
M4 S300
G1 X40.299 Y13.580
M5
M5
G0 X40.779 Y13.580
M4 S300
G1 X41.600 Y13.580
M5
M5
G0 X43.523 Y13.580
M4 S300
G1 X44.539 Y13.580
M5
M5
G0 X45.856 Y13.580
M4 S300
G1 X46.344 Y13.580
M5
M5
G0 X47.709 Y13.580
M4 S300
G1 X48.200 Y13.580
M5
M5
G0 X49.375 Y13.580
M4 S300
G1 X50.240 Y13.580
M5
M5
G0 X50.751 Y13.580
M4 S300
G1 X51.218 Y13.580
M5
M5
G0 X52.309 Y13.580
M4 S300
G1 X53.443 Y13.580
M5
M5
G0 X56.770 Y13.580
M4 S300
G1 X57.758 Y13.580
M5
M5
G0 X59.128 Y13.580
M4 S300
G1 X59.616 Y13.580
M5
M5
G0 X60.981 Y13.580
M4 S300
G1 X61.472 Y13.580
M5
M5
G0 X63.981 Y13.580
M4 S300
G1 X64.748 Y13.580
M5
M5
G0 X65.160 Y13.580
M4 S300
G1 X65.648 Y13.580
M5
M5
G0 X67.013 Y13.580
M4 S300
G1 X67.504 Y13.580
M5
M5
G0 X68.862 Y13.580
M4 S300
G1 X69.877 Y13.580
M5
M5
G0 X71.195 Y13.580
M4 S300
G1 X71.680 Y13.580
M5
M5
G0 X72.893 Y13.580
M4 S300
G1 X73.376 Y13.580
M5
M5
G0 X74.588 Y13.580
M4 S300
G1 X75.071 Y13.580
M5
M5
G0 X75.836 Y13.580
M4 S300
G1 X76.365 Y13.580
M5
M5
G0 X34.005 Y13.760
M4 S300
G1 X35.439 Y13.760
M5
M5
G0 X35.649 Y13.760
M4 S300
G1 X36.122 Y13.760
M5
M5
G0 X37.145 Y13.760
M4 S300
G1 X38.861 Y13.760
M5
M5
G0 X39.811 Y13.760
M4 S300
G1 X40.298 Y13.760
M5
M5
G0 X40.483 Y13.760
M4 S300
G1 X41.900 Y13.760
M5
M5
G0 X43.180 Y13.760
M4 S300
G1 X44.896 Y13.760
M5
M5
G0 X45.856 Y13.760
M4 S300
G1 X46.344 Y13.760
M5
M5
G0 X47.709 Y13.760
M4 S300
G1 X48.200 Y13.760
M5
M5
G0 X49.091 Y13.760
M4 S300
G1 X50.525 Y13.760
M5
M5
G0 X50.736 Y13.760
M4 S300
G1 X51.208 Y13.760
M5
M5
G0 X51.950 Y13.760
M4 S300
G1 X53.800 Y13.760
M5
M5
G0 X56.435 Y13.760
M4 S300
G1 X58.103 Y13.760
M5
M5
G0 X59.128 Y13.760
M4 S300
G1 X59.616 Y13.760
M5
M5
G0 X60.981 Y13.760
M4 S300
G1 X61.472 Y13.760
M5
M5
G0 X63.787 Y13.760
M4 S300
G1 X64.770 Y13.760
M5
M5
G0 X65.160 Y13.760
M4 S300
G1 X65.648 Y13.760
M5
M5
G0 X67.013 Y13.760
M4 S300
G1 X67.504 Y13.760
M5
M5
G0 X68.518 Y13.760
M4 S300
G1 X70.234 Y13.760
M5
M5
G0 X71.195 Y13.760
M4 S300
G1 X71.680 Y13.760
M5
M5
G0 X72.893 Y13.760
M4 S300
G1 X73.376 Y13.760
M5
M5
G0 X74.588 Y13.760
M4 S300
G1 X75.071 Y13.760
M5
M5
G0 X75.836 Y13.760
M4 S300
G1 X76.365 Y13.760
M5
M5
G0 X33.863 Y13.940
M4 S300
G1 X34.554 Y13.940
M5
M5
G0 X35.155 Y13.940
M4 S300
G1 X35.577 Y13.940
M5
M5
G0 X35.641 Y13.940
M4 S300
G1 X36.118 Y13.940
M5
M5
G0 X36.963 Y13.940
M4 S300
G1 X37.647 Y13.940
M5
M5
G0 X38.374 Y13.940
M4 S300
G1 X39.035 Y13.940
M5
M5
G0 X39.811 Y13.940
M4 S300
G1 X40.295 Y13.940
M5
M5
G0 X40.346 Y13.940
M4 S300
G1 X40.727 Y13.940
M5
M5
G0 X41.399 Y13.940
M4 S300
G1 X42.045 Y13.940
M5
M5
G0 X42.998 Y13.940
M4 S300
G1 X43.681 Y13.940
M5
M5
G0 X44.408 Y13.940
M4 S300
G1 X45.069 Y13.940
M5
M5
G0 X45.856 Y13.940
M4 S300
G1 X46.344 Y13.940
M5
M5
G0 X47.709 Y13.940
M4 S300
G1 X48.200 Y13.940
M5
M5
G0 X48.949 Y13.940
M4 S300
G1 X49.640 Y13.940
M5
M5
G0 X50.241 Y13.940
M4 S300
G1 X50.663 Y13.940
M5
M5
G0 X50.727 Y13.940
M4 S300
G1 X51.205 Y13.940
M5
M5
G0 X51.790 Y13.940
M4 S300
G1 X52.465 Y13.940
M5
M5
G0 X53.323 Y13.940
M4 S300
G1 X53.965 Y13.940
M5
M5
G0 X56.259 Y13.940
M4 S300
G1 X56.913 Y13.940
M5
M5
G0 X57.623 Y13.940
M4 S300
G1 X58.284 Y13.940
M5
M5
G0 X59.128 Y13.940
M4 S300
G1 X59.616 Y13.940
M5
M5
G0 X60.981 Y13.940
M4 S300
G1 X61.472 Y13.940
M5
M5
G0 X63.719 Y13.940
M4 S300
G1 X64.319 Y13.940
M5
M5
G0 X64.739 Y13.940
M4 S300
G1 X64.770 Y13.940
M5
M5
G0 X65.160 Y13.940
M4 S300
G1 X65.648 Y13.940
M5
M5
G0 X67.013 Y13.940
M4 S300
G1 X67.504 Y13.940
M5
M5
G0 X68.336 Y13.940
M4 S300
G1 X69.020 Y13.940
M5
M5
G0 X69.747 Y13.940
M4 S300
G1 X70.408 Y13.940
M5
M5
G0 X71.195 Y13.940
M4 S300
G1 X71.680 Y13.940
M5
M5
G0 X72.893 Y13.940
M4 S300
G1 X73.376 Y13.940
M5
M5
G0 X74.588 Y13.940
M4 S300
G1 X75.071 Y13.940
M5
M5
G0 X75.836 Y13.940
M4 S300
G1 X76.365 Y13.940
M5
M5
G0 X33.773 Y14.120
M4 S300
G1 X34.334 Y14.120
M5
M5
G0 X35.400 Y14.120
M4 S300
G1 X36.117 Y14.120
M5
M5
G0 X36.846 Y14.120
M4 S300
G1 X37.402 Y14.120
M5
M5
G0 X38.632 Y14.120
M4 S300
G1 X39.143 Y14.120
M5
M5
G0 X39.811 Y14.120
M4 S300
G1 X40.502 Y14.120
M5
M5
G0 X41.600 Y14.120
M4 S300
G1 X42.137 Y14.120
M5
M5
G0 X42.880 Y14.120
M4 S300
G1 X43.437 Y14.120
M5
M5
G0 X44.667 Y14.120
M4 S300
G1 X45.177 Y14.120
M5
M5
G0 X45.856 Y14.120
M4 S300
G1 X46.344 Y14.120
M5
M5
G0 X47.709 Y14.120
M4 S300
G1 X48.200 Y14.120
M5
M5
G0 X48.859 Y14.120
M4 S300
G1 X49.420 Y14.120
M5
M5
G0 X50.487 Y14.120
M4 S300
G1 X51.204 Y14.120
M5
M5
G0 X51.701 Y14.120
M4 S300
G1 X52.197 Y14.120
M5
M5
G0 X53.555 Y14.120
M4 S300
G1 X54.046 Y14.120
M5
M5
G0 X56.145 Y14.120
M4 S300
G1 X56.692 Y14.120
M5
M5
G0 X57.855 Y14.120
M4 S300
G1 X58.401 Y14.120
M5
M5
G0 X59.128 Y14.120
M4 S300
G1 X59.616 Y14.120
M5
M5
G0 X60.981 Y14.120
M4 S300
G1 X61.472 Y14.120
M5
M5
G0 X63.695 Y14.120
M4 S300
G1 X64.195 Y14.120
M5
M5
G0 X65.160 Y14.120
M4 S300
G1 X65.648 Y14.120
M5
M5
G0 X67.013 Y14.120
M4 S300
G1 X67.504 Y14.120
M5
M5
G0 X68.219 Y14.120
M4 S300
G1 X68.776 Y14.120
M5
M5
G0 X70.005 Y14.120
M4 S300
G1 X70.516 Y14.120
M5
M5
G0 X71.195 Y14.120
M4 S300
G1 X71.680 Y14.120
M5
M5
G0 X72.893 Y14.120
M4 S300
G1 X73.376 Y14.120
M5
M5
G0 X74.588 Y14.120
M4 S300
G1 X75.071 Y14.120
M5
M5
G0 X75.836 Y14.120
M4 S300
G1 X76.365 Y14.120
M5
M5
G0 X33.715 Y14.300
M4 S300
G1 X34.243 Y14.300
M5
M5
G0 X35.507 Y14.300
M4 S300
G1 X36.117 Y14.300
M5
M5
G0 X36.766 Y14.300
M4 S300
G1 X37.287 Y14.300
M5
M5
G0 X38.744 Y14.300
M4 S300
G1 X38.845 Y14.300
M5
M5
G0 X39.811 Y14.300
M4 S300
G1 X40.404 Y14.300
M5
M5
G0 X41.687 Y14.300
M4 S300
G1 X42.206 Y14.300
M5
M5
G0 X42.800 Y14.300
M4 S300
G1 X43.321 Y14.300
M5
M5
G0 X44.779 Y14.300
M4 S300
G1 X44.880 Y14.300
M5
M5
G0 X45.856 Y14.300
M4 S300
G1 X46.344 Y14.300
M5
M5
G0 X47.709 Y14.300
M4 S300
G1 X48.200 Y14.300
M5
M5
G0 X48.801 Y14.300
M4 S300
G1 X49.329 Y14.300
M5
M5
G0 X50.593 Y14.300
M4 S300
G1 X51.203 Y14.300
M5
M5
G0 X51.903 Y14.300
M4 S300
G1 X52.103 Y14.300
M5
M5
G0 X53.606 Y14.300
M4 S300
G1 X54.078 Y14.300
M5
M5
G0 X56.067 Y14.300
M4 S300
G1 X56.589 Y14.300
M5
M5
G0 X57.956 Y14.300
M4 S300
G1 X58.476 Y14.300
M5
M5
G0 X59.128 Y14.300
M4 S300
G1 X59.616 Y14.300
M5
M5
G0 X60.981 Y14.300
M4 S300
G1 X61.472 Y14.300
M5
M5
G0 X63.691 Y14.300
M4 S300
G1 X64.179 Y14.300
M5
M5
G0 X65.160 Y14.300
M4 S300
G1 X65.648 Y14.300
M5
M5
G0 X67.013 Y14.300
M4 S300
G1 X67.504 Y14.300
M5
M5
G0 X68.139 Y14.300
M4 S300
G1 X68.660 Y14.300
M5
M5
G0 X70.117 Y14.300
M4 S300
G1 X70.219 Y14.300
M5
M5
G0 X71.195 Y14.300
M4 S300
G1 X71.680 Y14.300
M5
M5
G0 X72.893 Y14.300
M4 S300
G1 X73.376 Y14.300
M5
M5
G0 X74.588 Y14.300
M4 S300
G1 X75.071 Y14.300
M5
M5
G0 X33.677 Y14.480
M4 S300
G1 X34.194 Y14.480
M5
M5
G0 X35.568 Y14.480
M4 S300
G1 X36.117 Y14.480
M5
M5
G0 X36.714 Y14.480
M4 S300
G1 X37.222 Y14.480
M5
M5
G0 X39.811 Y14.480
M4 S300
G1 X40.349 Y14.480
M5
M5
G0 X41.734 Y14.480
M4 S300
G1 X42.240 Y14.480
M5
M5
G0 X42.749 Y14.480
M4 S300
G1 X43.256 Y14.480
M5
M5
G0 X45.856 Y14.480
M4 S300
G1 X46.344 Y14.480
M5
M5
G0 X47.709 Y14.480
M4 S300
G1 X48.200 Y14.480
M5
M5
G0 X48.763 Y14.480
M4 S300
G1 X49.281 Y14.480
M5
M5
G0 X50.654 Y14.480
M4 S300
G1 X51.203 Y14.480
M5
M5
G0 X53.583 Y14.480
M4 S300
G1 X54.076 Y14.480
M5
M5
G0 X56.016 Y14.480
M4 S300
G1 X56.530 Y14.480
M5
M5
G0 X58.014 Y14.480
M4 S300
G1 X58.526 Y14.480
M5
M5
G0 X59.128 Y14.480
M4 S300
G1 X59.616 Y14.480
M5
M5
G0 X60.981 Y14.480
M4 S300
G1 X61.472 Y14.480
M5
M5
G0 X63.691 Y14.480
M4 S300
G1 X64.179 Y14.480
M5
M5
G0 X65.160 Y14.480
M4 S300
G1 X65.648 Y14.480
M5
M5
G0 X67.013 Y14.480
M4 S300
G1 X67.504 Y14.480
M5
M5
G0 X68.088 Y14.480
M4 S300
G1 X68.595 Y14.480
M5
M5
G0 X71.195 Y14.480
M4 S300
G1 X71.680 Y14.480
M5
M5
G0 X72.893 Y14.480
M4 S300
G1 X73.376 Y14.480
M5
M5
G0 X74.588 Y14.480
M4 S300
G1 X75.071 Y14.480
M5
M5
G0 X33.653 Y14.660
M4 S300
G1 X34.167 Y14.660
M5
M5
G0 X35.602 Y14.660
M4 S300
G1 X36.117 Y14.660
M5
M5
G0 X36.681 Y14.660
M4 S300
G1 X37.185 Y14.660
M5
M5
G0 X39.811 Y14.660
M4 S300
G1 X40.318 Y14.660
M5
M5
G0 X41.761 Y14.660
M4 S300
G1 X42.272 Y14.660
M5
M5
G0 X42.716 Y14.660
M4 S300
G1 X43.219 Y14.660
M5
M5
G0 X45.856 Y14.660
M4 S300
G1 X46.344 Y14.660
M5
M5
G0 X47.709 Y14.660
M4 S300
G1 X48.200 Y14.660
M5
M5
G0 X48.739 Y14.660
M4 S300
G1 X49.253 Y14.660
M5
M5
G0 X50.688 Y14.660
M4 S300
G1 X51.203 Y14.660
M5
M5
G0 X53.435 Y14.660
M4 S300
G1 X54.034 Y14.660
M5
M5
G0 X55.983 Y14.660
M4 S300
G1 X56.496 Y14.660
M5
M5
G0 X58.046 Y14.660
M4 S300
G1 X58.558 Y14.660
M5
M5
G0 X59.128 Y14.660
M4 S300
G1 X59.616 Y14.660
M5
M5
G0 X60.981 Y14.660
M4 S300
G1 X61.472 Y14.660
M5
M5
G0 X63.691 Y14.660
M4 S300
G1 X64.179 Y14.660
M5
M5
G0 X65.160 Y14.660
M4 S300
G1 X65.648 Y14.660
M5
M5
G0 X67.013 Y14.660
M4 S300
G1 X67.504 Y14.660
M5
M5
G0 X68.054 Y14.660
M4 S300
G1 X68.558 Y14.660
M5
M5
G0 X71.195 Y14.660
M4 S300
G1 X71.680 Y14.660
M5
M5
G0 X72.893 Y14.660
M4 S300
G1 X73.376 Y14.660
M5
M5
G0 X74.588 Y14.660
M4 S300
G1 X75.071 Y14.660
M5
M5
G0 X33.639 Y14.840
M4 S300
G1 X34.153 Y14.840
M5
M5
G0 X35.620 Y14.840
M4 S300
G1 X36.117 Y14.840
M5
M5
G0 X36.662 Y14.840
M4 S300
G1 X37.170 Y14.840
M5
M5
G0 X39.811 Y14.840
M4 S300
G1 X40.303 Y14.840
M5
M5
G0 X41.775 Y14.840
M4 S300
G1 X42.282 Y14.840
M5
M5
G0 X42.697 Y14.840
M4 S300
G1 X43.205 Y14.840
M5
M5
G0 X45.856 Y14.840
M4 S300
G1 X46.344 Y14.840
M5
M5
G0 X47.709 Y14.840
M4 S300
G1 X48.200 Y14.840
M5
M5
G0 X48.726 Y14.840
M4 S300
G1 X49.239 Y14.840
M5
M5
G0 X50.707 Y14.840
M4 S300
G1 X51.203 Y14.840
M5
M5
G0 X52.944 Y14.840
M4 S300
G1 X53.933 Y14.840
M5
M5
G0 X55.965 Y14.840
M4 S300
G1 X56.478 Y14.840
M5
M5
G0 X58.063 Y14.840
M4 S300
G1 X58.576 Y14.840
M5
M5
G0 X59.128 Y14.840
M4 S300
G1 X59.616 Y14.840
M5
M5
G0 X60.981 Y14.840
M4 S300
G1 X61.472 Y14.840
M5
M5
G0 X63.691 Y14.840
M4 S300
G1 X64.179 Y14.840
M5
M5
G0 X65.160 Y14.840
M4 S300
G1 X65.648 Y14.840
M5
M5
G0 X67.013 Y14.840
M4 S300
G1 X67.504 Y14.840
M5
M5
G0 X68.035 Y14.840
M4 S300
G1 X68.543 Y14.840
M5
M5
G0 X71.195 Y14.840
M4 S300
G1 X71.680 Y14.840
M5
M5
G0 X72.893 Y14.840
M4 S300
G1 X73.376 Y14.840
M5
M5
G0 X74.588 Y14.840
M4 S300
G1 X75.071 Y14.840
M5
M5
G0 X33.635 Y15.020
M4 S300
G1 X34.148 Y15.020
M5
M5
G0 X35.628 Y15.020
M4 S300
G1 X36.117 Y15.020
M5
M5
G0 X36.656 Y15.020
M4 S300
G1 X39.260 Y15.020
M5
M5
G0 X39.811 Y15.020
M4 S300
G1 X40.299 Y15.020
M5
M5
G0 X41.780 Y15.020
M4 S300
G1 X42.291 Y15.020
M5
M5
G0 X42.691 Y15.020
M4 S300
G1 X45.295 Y15.020
M5
M5
G0 X45.856 Y15.020
M4 S300
G1 X46.344 Y15.020
M5
M5
G0 X47.709 Y15.020
M4 S300
G1 X48.200 Y15.020
M5
M5
G0 X48.722 Y15.020
M4 S300
G1 X49.234 Y15.020
M5
M5
G0 X50.714 Y15.020
M4 S300
G1 X51.203 Y15.020
M5
M5
G0 X52.334 Y15.020
M4 S300
G1 X53.731 Y15.020
M5
M5
G0 X55.959 Y15.020
M4 S300
G1 X56.472 Y15.020
M5
M5
G0 X58.069 Y15.020
M4 S300
G1 X58.581 Y15.020
M5
M5
G0 X59.128 Y15.020
M4 S300
G1 X59.616 Y15.020
M5
M5
G0 X60.981 Y15.020
M4 S300
G1 X61.472 Y15.020
M5
M5
G0 X63.691 Y15.020
M4 S300
G1 X64.179 Y15.020
M5
M5
G0 X65.160 Y15.020
M4 S300
G1 X65.648 Y15.020
M5
M5
G0 X67.013 Y15.020
M4 S300
G1 X67.504 Y15.020
M5
M5
G0 X68.029 Y15.020
M4 S300
G1 X70.633 Y15.020
M5
M5
G0 X71.195 Y15.020
M4 S300
G1 X71.680 Y15.020
M5
M5
G0 X72.893 Y15.020
M4 S300
G1 X73.376 Y15.020
M5
M5
G0 X74.588 Y15.020
M4 S300
G1 X75.071 Y15.020
M5
M5
G0 X33.645 Y15.200
M4 S300
G1 X34.151 Y15.200
M5
M5
G0 X35.625 Y15.200
M4 S300
G1 X36.117 Y15.200
M5
M5
G0 X36.660 Y15.200
M4 S300
G1 X39.249 Y15.200
M5
M5
G0 X39.811 Y15.200
M4 S300
G1 X40.305 Y15.200
M5
M5
G0 X41.777 Y15.200
M4 S300
G1 X42.289 Y15.200
M5
M5
G0 X42.695 Y15.200
M4 S300
G1 X45.283 Y15.200
M5
M5
G0 X45.856 Y15.200
M4 S300
G1 X46.344 Y15.200
M5
M5
G0 X47.709 Y15.200
M4 S300
G1 X48.200 Y15.200
M5
M5
G0 X48.731 Y15.200
M4 S300
G1 X49.237 Y15.200
M5
M5
G0 X50.712 Y15.200
M4 S300
G1 X51.203 Y15.200
M5
M5
G0 X52.018 Y15.200
M4 S300
G1 X53.302 Y15.200
M5
M5
G0 X55.970 Y15.200
M4 S300
G1 X56.476 Y15.200
M5
M5
G0 X58.065 Y15.200
M4 S300
G1 X58.577 Y15.200
M5
M5
G0 X59.128 Y15.200
M4 S300
G1 X59.616 Y15.200
M5
M5
G0 X60.981 Y15.200
M4 S300
G1 X61.472 Y15.200
M5
M5
G0 X63.691 Y15.200
M4 S300
G1 X64.179 Y15.200
M5
M5
G0 X65.160 Y15.200
M4 S300
G1 X65.648 Y15.200
M5
M5
G0 X67.013 Y15.200
M4 S300
G1 X67.504 Y15.200
M5
M5
G0 X68.033 Y15.200
M4 S300
G1 X70.622 Y15.200
M5
M5
G0 X71.195 Y15.200
M4 S300
G1 X71.680 Y15.200
M5
M5
G0 X72.893 Y15.200
M4 S300
G1 X73.376 Y15.200
M5
M5
G0 X74.588 Y15.200
M4 S300
G1 X75.071 Y15.200
M5
M5
G0 X33.655 Y15.380
M4 S300
G1 X34.164 Y15.380
M5
M5
G0 X35.613 Y15.380
M4 S300
G1 X36.117 Y15.380
M5
M5
G0 X36.676 Y15.380
M4 S300
G1 X37.179 Y15.380
M5
M5
G0 X38.748 Y15.380
M4 S300
G1 X39.237 Y15.380
M5
M5
G0 X39.811 Y15.380
M4 S300
G1 X40.322 Y15.380
M5
M5
G0 X41.763 Y15.380
M4 S300
G1 X42.277 Y15.380
M5
M5
G0 X42.711 Y15.380
M4 S300
G1 X43.213 Y15.380
M5
M5
G0 X44.783 Y15.380
M4 S300
G1 X45.272 Y15.380
M5
M5
G0 X45.856 Y15.380
M4 S300
G1 X46.348 Y15.380
M5
M5
G0 X47.709 Y15.380
M4 S300
G1 X48.200 Y15.380
M5
M5
G0 X48.741 Y15.380
M4 S300
G1 X49.250 Y15.380
M5
M5
G0 X50.699 Y15.380
M4 S300
G1 X51.203 Y15.380
M5
M5
G0 X51.863 Y15.380
M4 S300
G1 X52.640 Y15.380
M5
M5
G0 X55.982 Y15.380
M4 S300
G1 X56.491 Y15.380
M5
M5
G0 X58.051 Y15.380
M4 S300
G1 X58.562 Y15.380
M5
M5
G0 X59.128 Y15.380
M4 S300
G1 X59.620 Y15.380
M5
M5
G0 X60.981 Y15.380
M4 S300
G1 X61.472 Y15.380
M5
M5
G0 X63.691 Y15.380
M4 S300
G1 X64.179 Y15.380
M5
M5
G0 X65.160 Y15.380
M4 S300
G1 X65.652 Y15.380
M5
M5
G0 X67.013 Y15.380
M4 S300
G1 X67.504 Y15.380
M5
M5
G0 X68.049 Y15.380
M4 S300
G1 X68.552 Y15.380
M5
M5
G0 X70.121 Y15.380
M4 S300
G1 X70.610 Y15.380
M5
M5
G0 X71.195 Y15.380
M4 S300
G1 X71.684 Y15.380
M5
M5
G0 X72.893 Y15.380
M4 S300
G1 X73.379 Y15.380
M5
M5
G0 X74.588 Y15.380
M4 S300
G1 X75.071 Y15.380
M5
M5
G0 X33.683 Y15.560
M4 S300
G1 X34.189 Y15.560
M5
M5
G0 X35.583 Y15.560
M4 S300
G1 X36.117 Y15.560
M5
M5
G0 X36.707 Y15.560
M4 S300
G1 X37.206 Y15.560
M5
M5
G0 X38.718 Y15.560
M4 S300
G1 X39.201 Y15.560
M5
M5
G0 X39.811 Y15.560
M4 S300
G1 X40.354 Y15.560
M5
M5
G0 X41.737 Y15.560
M4 S300
G1 X42.255 Y15.560
M5
M5
G0 X42.742 Y15.560
M4 S300
G1 X43.241 Y15.560
M5
M5
G0 X44.753 Y15.560
M4 S300
G1 X45.235 Y15.560
M5
M5
G0 X45.856 Y15.560
M4 S300
G1 X46.374 Y15.560
M5
M5
G0 X47.705 Y15.560
M4 S300
G1 X48.198 Y15.560
M5
M5
G0 X48.769 Y15.560
M4 S300
G1 X49.276 Y15.560
M5
M5
G0 X50.670 Y15.560
M4 S300
G1 X51.203 Y15.560
M5
M5
G0 X51.793 Y15.560
M4 S300
G1 X52.321 Y15.560
M5
M5
G0 X56.015 Y15.560
M4 S300
G1 X56.522 Y15.560
M5
M5
G0 X58.022 Y15.560
M4 S300
G1 X58.535 Y15.560
M5
M5
G0 X59.128 Y15.560
M4 S300
G1 X59.646 Y15.560
M5
M5
G0 X60.977 Y15.560
M4 S300
G1 X61.470 Y15.560
M5
M5
G0 X63.691 Y15.560
M4 S300
G1 X64.179 Y15.560
M5
M5
G0 X65.160 Y15.560
M4 S300
G1 X65.676 Y15.560
M5
M5
G0 X67.009 Y15.560
M4 S300
G1 X67.502 Y15.560
M5
M5
G0 X68.080 Y15.560
M4 S300
G1 X68.580 Y15.560
M5
M5
G0 X70.091 Y15.560
M4 S300
G1 X70.574 Y15.560
M5
M5
G0 X71.195 Y15.560
M4 S300
G1 X71.706 Y15.560
M5
M5
G0 X72.889 Y15.560
M4 S300
G1 X73.401 Y15.560
M5
M5
G0 X74.584 Y15.560
M4 S300
G1 X75.070 Y15.560
M5
M5
G0 X33.717 Y15.740
M4 S300
G1 X34.233 Y15.740
M5
M5
G0 X35.533 Y15.740
M4 S300
G1 X36.117 Y15.740
M5
M5
G0 X36.757 Y15.740
M4 S300
G1 X37.264 Y15.740
M5
M5
G0 X38.664 Y15.740
M4 S300
G1 X39.160 Y15.740
M5
M5
G0 X39.811 Y15.740
M4 S300
G1 X40.410 Y15.740
M5
M5
G0 X41.692 Y15.740
M4 S300
G1 X42.219 Y15.740
M5
M5
G0 X42.792 Y15.740
M4 S300
G1 X43.299 Y15.740
M5
M5
G0 X44.698 Y15.740
M4 S300
G1 X45.195 Y15.740
M5
M5
G0 X45.856 Y15.740
M4 S300
G1 X46.431 Y15.740
M5
M5
G0 X47.685 Y15.740
M4 S300
G1 X48.188 Y15.740
M5
M5
G0 X48.804 Y15.740
M4 S300
G1 X49.319 Y15.740
M5
M5
G0 X50.620 Y15.740
M4 S300
G1 X51.203 Y15.740
M5
M5
G0 X51.778 Y15.740
M4 S300
G1 X52.253 Y15.740
M5
M5
G0 X56.057 Y15.740
M4 S300
G1 X56.575 Y15.740
M5
M5
G0 X57.974 Y15.740
M4 S300
G1 X58.492 Y15.740
M5
M5
G0 X59.128 Y15.740
M4 S300
G1 X59.703 Y15.740
M5
M5
G0 X60.957 Y15.740
M4 S300
G1 X61.460 Y15.740
M5
M5
G0 X63.691 Y15.740
M4 S300
G1 X64.179 Y15.740
M5
M5
G0 X65.160 Y15.740
M4 S300
G1 X65.733 Y15.740
M5
M5
G0 X66.992 Y15.740
M4 S300
G1 X67.492 Y15.740
M5
M5
G0 X68.130 Y15.740
M4 S300
G1 X68.637 Y15.740
M5
M5
G0 X70.037 Y15.740
M4 S300
G1 X70.533 Y15.740
M5
M5
G0 X71.195 Y15.740
M4 S300
G1 X71.756 Y15.740
M5
M5
G0 X72.871 Y15.740
M4 S300
G1 X73.449 Y15.740
M5
M5
G0 X74.567 Y15.740
M4 S300
G1 X75.060 Y15.740
M5
M5
G0 X33.782 Y15.920
M4 S300
G1 X34.312 Y15.920
M5
M5
G0 X35.442 Y15.920
M4 S300
G1 X36.117 Y15.920
M5
M5
G0 X36.831 Y15.920
M4 S300
G1 X37.370 Y15.920
M5
M5
G0 X38.568 Y15.920
M4 S300
G1 X39.081 Y15.920
M5
M5
G0 X39.811 Y15.920
M4 S300
G1 X40.507 Y15.920
M5
M5
G0 X41.607 Y15.920
M4 S300
G1 X42.164 Y15.920
M5
M5
G0 X42.866 Y15.920
M4 S300
G1 X43.405 Y15.920
M5
M5
G0 X44.603 Y15.920
M4 S300
G1 X45.116 Y15.920
M5
M5
G0 X45.856 Y15.920
M4 S300
G1 X46.537 Y15.920
M5
M5
G0 X47.633 Y15.920
M4 S300
G1 X48.162 Y15.920
M5
M5
G0 X48.868 Y15.920
M4 S300
G1 X49.399 Y15.920
M5
M5
G0 X50.529 Y15.920
M4 S300
G1 X51.203 Y15.920
M5
M5
G0 X51.797 Y15.920
M4 S300
G1 X52.278 Y15.920
M5
M5
G0 X53.533 Y15.920
M4 S300
G1 X54.007 Y15.920
M5
M5
G0 X56.135 Y15.920
M4 S300
G1 X56.670 Y15.920
M5
M5
G0 X57.886 Y15.920
M4 S300
G1 X58.427 Y15.920
M5
M5
G0 X59.128 Y15.920
M4 S300
G1 X59.809 Y15.920
M5
M5
G0 X60.905 Y15.920
M4 S300
G1 X61.433 Y15.920
M5
M5
G0 X63.691 Y15.920
M4 S300
G1 X64.179 Y15.920
M5
M5
G0 X65.160 Y15.920
M4 S300
G1 X65.843 Y15.920
M5
M5
G0 X66.940 Y15.920
M4 S300
G1 X67.466 Y15.920
M5
M5
G0 X68.204 Y15.920
M4 S300
G1 X68.743 Y15.920
M5
M5
G0 X69.942 Y15.920
M4 S300
G1 X70.454 Y15.920
M5
M5
G0 X71.195 Y15.920
M4 S300
G1 X71.850 Y15.920
M5
M5
G0 X72.824 Y15.920
M4 S300
G1 X73.541 Y15.920
M5
M5
G0 X74.520 Y15.920
M4 S300
G1 X75.036 Y15.920
M5
M5
G0 X33.867 Y16.100
M4 S300
G1 X34.486 Y16.100
M5
M5
G0 X35.246 Y16.100
M4 S300
G1 X35.597 Y16.100
M5
M5
G0 X35.633 Y16.100
M4 S300
G1 X36.117 Y16.100
M5
M5
G0 X36.946 Y16.100
M4 S300
G1 X37.577 Y16.100
M5
M5
G0 X38.365 Y16.100
M4 S300
G1 X38.977 Y16.100
M5
M5
G0 X39.810 Y16.100
M4 S300
G1 X40.292 Y16.100
M5
M5
G0 X40.343 Y16.100
M4 S300
G1 X40.716 Y16.100
M5
M5
G0 X41.411 Y16.100
M4 S300
G1 X42.079 Y16.100
M5
M5
G0 X42.980 Y16.100
M4 S300
G1 X43.612 Y16.100
M5
M5
G0 X44.399 Y16.100
M4 S300
G1 X45.012 Y16.100
M5
M5
G0 X45.855 Y16.100
M4 S300
G1 X46.320 Y16.100
M5
M5
G0 X46.393 Y16.100
M4 S300
G1 X46.756 Y16.100
M5
M5
G0 X47.478 Y16.100
M4 S300
G1 X48.106 Y16.100
M5
M5
G0 X48.954 Y16.100
M4 S300
G1 X49.572 Y16.100
M5
M5
G0 X50.332 Y16.100
M4 S300
G1 X50.684 Y16.100
M5
M5
G0 X50.720 Y16.100
M4 S300
G1 X51.203 Y16.100
M5
M5
G0 X51.861 Y16.100
M4 S300
G1 X52.453 Y16.100
M5
M5
G0 X53.318 Y16.100
M4 S300
G1 X53.933 Y16.100
M5
M5
G0 X56.238 Y16.100
M4 S300
G1 X56.870 Y16.100
M5
M5
G0 X57.692 Y16.100
M4 S300
G1 X58.325 Y16.100
M5
M5
G0 X59.127 Y16.100
M4 S300
G1 X59.592 Y16.100
M5
M5
G0 X59.665 Y16.100
M4 S300
G1 X60.028 Y16.100
M5
M5
G0 X60.750 Y16.100
M4 S300
G1 X61.378 Y16.100
M5
M5
G0 X63.691 Y16.100
M4 S300
G1 X64.179 Y16.100
M5
M5
G0 X65.160 Y16.100
M4 S300
G1 X65.633 Y16.100
M5
M5
G0 X65.697 Y16.100
M4 S300
G1 X66.064 Y16.100
M5
M5
G0 X66.777 Y16.100
M4 S300
G1 X67.410 Y16.100
M5
M5
G0 X68.319 Y16.100
M4 S300
G1 X68.950 Y16.100
M5
M5
G0 X69.738 Y16.100
M4 S300
G1 X70.350 Y16.100
M5
M5
G0 X71.194 Y16.100
M4 S300
G1 X71.658 Y16.100
M5
M5
G0 X71.726 Y16.100
M4 S300
G1 X72.046 Y16.100
M5
M5
G0 X72.681 Y16.100
M4 S300
G1 X73.291 Y16.100
M5
M5
G0 X73.391 Y16.100
M4 S300
G1 X73.735 Y16.100
M5
M5
G0 X74.377 Y16.100
M4 S300
G1 X74.986 Y16.100
M5
M5
G0 X33.999 Y16.280
M4 S300
G1 X35.464 Y16.280
M5
M5
G0 X35.630 Y16.280
M4 S300
G1 X36.117 Y16.280
M5
M5
G0 X37.115 Y16.280
M4 S300
G1 X38.819 Y16.280
M5
M5
G0 X39.806 Y16.280
M4 S300
G1 X40.283 Y16.280
M5
M5
G0 X40.472 Y16.280
M4 S300
G1 X41.944 Y16.280
M5
M5
G0 X43.149 Y16.280
M4 S300
G1 X44.854 Y16.280
M5
M5
G0 X45.852 Y16.280
M4 S300
G1 X46.314 Y16.280
M5
M5
G0 X46.535 Y16.280
M4 S300
G1 X48.002 Y16.280
M5
M5
G0 X49.086 Y16.280
M4 S300
G1 X50.550 Y16.280
M5
M5
G0 X50.717 Y16.280
M4 S300
G1 X51.203 Y16.280
M5
M5
G0 X51.998 Y16.280
M4 S300
G1 X53.792 Y16.280
M5
M5
G0 X56.398 Y16.280
M4 S300
G1 X58.167 Y16.280
M5
M5
G0 X59.124 Y16.280
M4 S300
G1 X59.586 Y16.280
M5
M5
G0 X59.807 Y16.280
M4 S300
G1 X61.274 Y16.280
M5
M5
G0 X63.352 Y16.280
M4 S300
G1 X64.721 Y16.280
M5
M5
G0 X65.160 Y16.280
M4 S300
G1 X65.643 Y16.280
M5
M5
G0 X65.840 Y16.280
M4 S300
G1 X67.306 Y16.280
M5
M5
G0 X68.488 Y16.280
M4 S300
G1 X70.192 Y16.280
M5
M5
G0 X71.191 Y16.280
M4 S300
G1 X71.652 Y16.280
M5
M5
G0 X71.855 Y16.280
M4 S300
G1 X73.196 Y16.280
M5
M5
G0 X73.526 Y16.280
M4 S300
G1 X74.891 Y16.280
M5
M5
G0 X34.269 Y16.460
M4 S300
G1 X35.211 Y16.460
M5
M5
G0 X35.629 Y16.460
M4 S300
G1 X36.117 Y16.460
M5
M5
G0 X37.425 Y16.460
M4 S300
G1 X38.497 Y16.460
M5
M5
G0 X39.798 Y16.460
M4 S300
G1 X40.271 Y16.460
M5
M5
G0 X40.719 Y16.460
M4 S300
G1 X41.680 Y16.460
M5
M5
G0 X43.460 Y16.460
M4 S300
G1 X44.531 Y16.460
M5
M5
G0 X45.844 Y16.460
M4 S300
G1 X46.305 Y16.460
M5
M5
G0 X46.785 Y16.460
M4 S300
G1 X47.766 Y16.460
M5
M5
G0 X49.356 Y16.460
M4 S300
G1 X50.298 Y16.460
M5
M5
G0 X50.715 Y16.460
M4 S300
G1 X51.203 Y16.460
M5
M5
G0 X52.311 Y16.460
M4 S300
G1 X53.481 Y16.460
M5
M5
G0 X56.729 Y16.460
M4 S300
G1 X57.852 Y16.460
M5
M5
G0 X59.116 Y16.460
M4 S300
G1 X59.576 Y16.460
M5
M5
G0 X60.057 Y16.460
M4 S300
G1 X61.038 Y16.460
M5
M5
G0 X63.352 Y16.460
M4 S300
G1 X64.721 Y16.460
M5
M5
G0 X65.160 Y16.460
M4 S300
G1 X65.648 Y16.460
M5
M5
G0 X66.092 Y16.460
M4 S300
G1 X67.069 Y16.460
M5
M5
G0 X68.799 Y16.460
M4 S300
G1 X69.870 Y16.460
M5
M5
G0 X71.182 Y16.460
M4 S300
G1 X71.643 Y16.460
M5
M5
G0 X72.084 Y16.460
M4 S300
G1 X72.986 Y16.460
M5
M5
G0 X73.769 Y16.460
M4 S300
G1 X74.677 Y16.460
M5
M5
G0 X35.629 Y16.640
M4 S300
G1 X36.117 Y16.640
M5
M5
G0 X50.715 Y16.640
M4 S300
G1 X51.203 Y16.640
M5
M5
G0 X63.741 Y16.640
M4 S300
G1 X64.179 Y16.640
M5
M5
G0 X65.160 Y16.640
M4 S300
G1 X65.648 Y16.640
M5
M5
G0 X35.629 Y16.820
M4 S300
G1 X36.117 Y16.820
M5
M5
G0 X50.715 Y16.820
M4 S300
G1 X51.203 Y16.820
M5
M5
G0 X63.780 Y16.820
M4 S300
G1 X64.179 Y16.820
M5
M5
G0 X65.160 Y16.820
M4 S300
G1 X65.648 Y16.820
M5
M5
G0 X35.629 Y17.000
M4 S300
G1 X36.117 Y17.000
M5
M5
G0 X50.715 Y17.000
M4 S300
G1 X51.203 Y17.000
M5
M5
G0 X63.819 Y17.000
M4 S300
G1 X64.179 Y17.000
M5
M5
G0 X65.160 Y17.000
M4 S300
G1 X65.648 Y17.000
M5
M5
G0 X35.629 Y17.180
M4 S300
G1 X36.117 Y17.180
M5
M5
G0 X50.715 Y17.180
M4 S300
G1 X51.203 Y17.180
M5
M5
G0 X65.160 Y17.180
M4 S300
G1 X65.648 Y17.180
M5
M5
G0 X35.629 Y17.360
M4 S300
G1 X36.117 Y17.360
M5
M5
G0 X50.715 Y17.360
M4 S300
G1 X51.203 Y17.360
M5
M5
G0 X65.160 Y17.360
M4 S300
G1 X65.648 Y17.360
M5
M5
G0 X35.629 Y17.540
M4 S300
G1 X36.117 Y17.540
M5
M5
G0 X50.715 Y17.540
M4 S300
G1 X51.203 Y17.540
M5
M5
G0 X65.160 Y17.540
M4 S300
G1 X65.648 Y17.540
M5
M5
G0 X64.470 Y18.440
M4 S300
G1 X64.958 Y18.440
M5
M5
G0 X64.470 Y18.620
M4 S300
G1 X64.958 Y18.620
M5
M5
G0 X64.470 Y18.800
M4 S300
G1 X64.958 Y18.800
M5
M5
G0 X64.470 Y18.980
M4 S300
G1 X64.958 Y18.980
M5
M5
G0 X64.470 Y19.160
M4 S300
G1 X64.958 Y19.160
M5
M5
G0 X64.470 Y19.340
M4 S300
G1 X64.958 Y19.340
M5
M5
G0 X33.389 Y19.520
M4 S300
G1 X33.741 Y19.520
M5
M5
G0 X36.598 Y19.520
M4 S300
G1 X37.055 Y19.520
M5
M5
G0 X42.589 Y19.520
M4 S300
G1 X42.949 Y19.520
M5
M5
G0 X45.807 Y19.520
M4 S300
G1 X46.167 Y19.520
M5
M5
G0 X49.826 Y19.520
M4 S300
G1 X50.186 Y19.520
M5
M5
G0 X54.908 Y19.520
M4 S300
G1 X55.294 Y19.520
M5
M5
G0 X59.401 Y19.520
M4 S300
G1 X59.794 Y19.520
M5
M5
G0 X64.470 Y19.520
M4 S300
G1 X64.958 Y19.520
M5
M5
G0 X65.687 Y19.520
M4 S300
G1 X65.968 Y19.520
M5
M5
G0 X69.688 Y19.520
M4 S300
G1 X70.073 Y19.520
M5
M5
G0 X72.291 Y19.520
M4 S300
G1 X72.643 Y19.520
M5
M5
G0 X75.500 Y19.520
M4 S300
G1 X75.957 Y19.520
M5
M5
G0 X78.177 Y19.520
M4 S300
G1 X78.537 Y19.520
M5
M5
G0 X83.259 Y19.520
M4 S300
G1 X83.645 Y19.520
M5
M5
G0 X25.268 Y19.700
M4 S300
G1 X25.756 Y19.700
M5
M5
G0 X26.487 Y19.700
M4 S300
G1 X26.975 Y19.700
M5
M5
G0 X28.340 Y19.700
M4 S300
G1 X28.831 Y19.700
M5
M5
G0 X29.610 Y19.700
M4 S300
G1 X30.098 Y19.700
M5
M5
G0 X31.012 Y19.700
M4 S300
G1 X31.500 Y19.700
M5
M5
G0 X32.939 Y19.700
M4 S300
G1 X34.238 Y19.700
M5
M5
G0 X34.735 Y19.700
M4 S300
G1 X35.523 Y19.700
M5
M5
G0 X35.977 Y19.700
M4 S300
G1 X37.659 Y19.700
M5
M5
G0 X38.727 Y19.700
M4 S300
G1 X39.666 Y19.700
M5
M5
G0 X40.056 Y19.700
M4 S300
G1 X40.544 Y19.700
M5
M5
G0 X42.116 Y19.700
M4 S300
G1 X43.411 Y19.700
M5
M5
G0 X43.728 Y19.700
M4 S300
G1 X44.188 Y19.700
M5
M5
G0 X45.278 Y19.700
M4 S300
G1 X46.682 Y19.700
M5
M5
G0 X47.771 Y19.700
M4 S300
G1 X48.710 Y19.700
M5
M5
G0 X49.353 Y19.700
M4 S300
G1 X50.649 Y19.700
M5
M5
G0 X50.966 Y19.700
M4 S300
G1 X51.426 Y19.700
M5
M5
G0 X52.117 Y19.700
M4 S300
G1 X52.605 Y19.700
M5
M5
G0 X54.348 Y19.700
M4 S300
G1 X55.892 Y19.700
M5
M5
G0 X58.854 Y19.700
M4 S300
G1 X60.358 Y19.700
M5
M5
G0 X61.572 Y19.700
M4 S300
G1 X62.060 Y19.700
M5
M5
G0 X64.470 Y19.700
M4 S300
G1 X64.957 Y19.700
M5
M5
G0 X65.213 Y19.700
M4 S300
G1 X66.483 Y19.700
M5
M5
G0 X67.487 Y19.700
M4 S300
G1 X67.975 Y19.700
M5
M5
G0 X69.127 Y19.700
M4 S300
G1 X70.671 Y19.700
M5
M5
G0 X71.841 Y19.700
M4 S300
G1 X73.140 Y19.700
M5
M5
G0 X73.637 Y19.700
M4 S300
G1 X74.425 Y19.700
M5
M5
G0 X74.879 Y19.700
M4 S300
G1 X76.561 Y19.700
M5
M5
G0 X77.704 Y19.700
M4 S300
G1 X78.999 Y19.700
M5
M5
G0 X79.316 Y19.700
M4 S300
G1 X79.776 Y19.700
M5
M5
G0 X80.468 Y19.700
M4 S300
G1 X80.956 Y19.700
M5
M5
G0 X82.699 Y19.700
M4 S300
G1 X84.242 Y19.700
M5
M5
G0 X25.268 Y19.880
M4 S300
G1 X25.756 Y19.880
M5
M5
G0 X26.487 Y19.880
M4 S300
G1 X26.975 Y19.880
M5
M5
G0 X28.340 Y19.880
M4 S300
G1 X28.831 Y19.880
M5
M5
G0 X29.610 Y19.880
M4 S300
G1 X30.098 Y19.880
M5
M5
G0 X31.012 Y19.880
M4 S300
G1 X31.500 Y19.880
M5
M5
G0 X32.789 Y19.880
M4 S300
G1 X33.588 Y19.880
M5
M5
G0 X33.761 Y19.880
M4 S300
G1 X34.429 Y19.880
M5
M5
G0 X34.650 Y19.880
M4 S300
G1 X35.260 Y19.880
M5
M5
G0 X35.504 Y19.880
M4 S300
G1 X35.523 Y19.880
M5
M5
G0 X35.777 Y19.880
M4 S300
G1 X37.868 Y19.880
M5
M5
G0 X38.629 Y19.880
M4 S300
G1 X39.666 Y19.880
M5
M5
G0 X40.056 Y19.880
M4 S300
G1 X40.544 Y19.880
M5
M5
G0 X41.971 Y19.880
M4 S300
G1 X43.586 Y19.880
M5
M5
G0 X43.720 Y19.880
M4 S300
G1 X44.184 Y19.880
M5
M5
G0 X45.073 Y19.880
M4 S300
G1 X46.884 Y19.880
M5
M5
G0 X47.673 Y19.880
M4 S300
G1 X48.710 Y19.880
M5
M5
G0 X49.208 Y19.880
M4 S300
G1 X50.823 Y19.880
M5
M5
G0 X50.958 Y19.880
M4 S300
G1 X51.421 Y19.880
M5
M5
G0 X52.117 Y19.880
M4 S300
G1 X52.605 Y19.880
M5
M5
G0 X54.132 Y19.880
M4 S300
G1 X55.020 Y19.880
M5
M5
G0 X55.213 Y19.880
M4 S300
G1 X56.110 Y19.880
M5
M5
G0 X58.645 Y19.880
M4 S300
G1 X59.457 Y19.880
M5
M5
G0 X59.736 Y19.880
M4 S300
G1 X60.574 Y19.880
M5
M5
G0 X61.572 Y19.880
M4 S300
G1 X62.060 Y19.880
M5
M5
G0 X64.470 Y19.880
M4 S300
G1 X64.955 Y19.880
M5
M5
G0 X65.040 Y19.880
M4 S300
G1 X65.602 Y19.880
M5
M5
G0 X65.866 Y19.880
M4 S300
G1 X66.661 Y19.880
M5
M5
G0 X67.487 Y19.880
M4 S300
G1 X67.975 Y19.880
M5
M5
G0 X68.912 Y19.880
M4 S300
G1 X69.799 Y19.880
M5
M5
G0 X69.992 Y19.880
M4 S300
G1 X70.889 Y19.880
M5
M5
G0 X71.691 Y19.880
M4 S300
G1 X72.490 Y19.880
M5
M5
G0 X72.663 Y19.880
M4 S300
G1 X73.331 Y19.880
M5
M5
G0 X73.551 Y19.880
M4 S300
G1 X74.162 Y19.880
M5
M5
G0 X74.406 Y19.880
M4 S300
G1 X74.425 Y19.880
M5
M5
G0 X74.679 Y19.880
M4 S300
G1 X76.770 Y19.880
M5
M5
G0 X77.559 Y19.880
M4 S300
G1 X79.174 Y19.880
M5
M5
G0 X79.308 Y19.880
M4 S300
G1 X79.772 Y19.880
M5
M5
G0 X80.468 Y19.880
M4 S300
G1 X80.956 Y19.880
M5
M5
G0 X82.483 Y19.880
M4 S300
G1 X83.371 Y19.880
M5
M5
G0 X83.564 Y19.880
M4 S300
G1 X84.460 Y19.880
M5
M5
G0 X25.268 Y20.060
M4 S300
G1 X25.756 Y20.060
M5
M5
G0 X26.487 Y20.060
M4 S300
G1 X26.975 Y20.060
M5
M5
G0 X28.340 Y20.060
M4 S300
G1 X28.831 Y20.060
M5
M5
G0 X29.610 Y20.060
M4 S300
G1 X30.098 Y20.060
M5
M5
G0 X31.012 Y20.060
M4 S300
G1 X31.500 Y20.060
M5
M5
G0 X32.712 Y20.060
M4 S300
G1 X33.256 Y20.060
M5
M5
G0 X34.237 Y20.060
M4 S300
G1 X34.556 Y20.060
M5
M5
G0 X34.617 Y20.060
M4 S300
G1 X35.114 Y20.060
M5
M5
G0 X35.670 Y20.060
M4 S300
G1 X36.198 Y20.060
M5
M5
G0 X37.456 Y20.060
M4 S300
G1 X37.972 Y20.060
M5
M5
G0 X38.595 Y20.060
M4 S300
G1 X39.107 Y20.060
M5
M5
G0 X40.056 Y20.060
M4 S300
G1 X40.544 Y20.060
M5
M5
G0 X41.898 Y20.060
M4 S300
G1 X42.453 Y20.060
M5
M5
G0 X43.424 Y20.060
M4 S300
G1 X43.704 Y20.060
M5
M5
G0 X43.715 Y20.060
M4 S300
G1 X44.182 Y20.060
M5
M5
G0 X44.945 Y20.060
M4 S300
G1 X45.524 Y20.060
M5
M5
G0 X46.443 Y20.060
M4 S300
G1 X47.007 Y20.060
M5
M5
G0 X47.639 Y20.060
M4 S300
G1 X48.151 Y20.060
M5
M5
G0 X49.135 Y20.060
M4 S300
G1 X49.690 Y20.060
M5
M5
G0 X50.661 Y20.060
M4 S300
G1 X50.941 Y20.060
M5
M5
G0 X50.953 Y20.060
M4 S300
G1 X51.419 Y20.060
M5
M5
G0 X52.117 Y20.060
M4 S300
G1 X52.605 Y20.060
M5
M5
G0 X53.999 Y20.060
M4 S300
G1 X54.579 Y20.060
M5
M5
G0 X55.689 Y20.060
M4 S300
G1 X56.233 Y20.060
M5
M5
G0 X58.516 Y20.060
M4 S300
G1 X59.081 Y20.060
M5
M5
G0 X60.140 Y20.060
M4 S300
G1 X60.704 Y20.060
M5
M5
G0 X61.572 Y20.060
M4 S300
G1 X62.060 Y20.060
M5
M5
G0 X64.470 Y20.060
M4 S300
G1 X65.212 Y20.060
M5
M5
G0 X66.214 Y20.060
M4 S300
G1 X66.772 Y20.060
M5
M5
G0 X67.487 Y20.060
M4 S300
G1 X67.975 Y20.060
M5
M5
G0 X68.779 Y20.060
M4 S300
G1 X69.359 Y20.060
M5
M5
G0 X70.468 Y20.060
M4 S300
G1 X71.013 Y20.060
M5
M5
G0 X71.614 Y20.060
M4 S300
G1 X72.158 Y20.060
M5
M5
G0 X73.139 Y20.060
M4 S300
G1 X73.458 Y20.060
M5
M5
G0 X73.519 Y20.060
M4 S300
G1 X74.016 Y20.060
M5
M5
G0 X74.571 Y20.060
M4 S300
G1 X75.100 Y20.060
M5
M5
G0 X76.358 Y20.060
M4 S300
G1 X76.874 Y20.060
M5
M5
G0 X77.486 Y20.060
M4 S300
G1 X78.041 Y20.060
M5
M5
G0 X79.012 Y20.060
M4 S300
G1 X79.292 Y20.060
M5
M5
G0 X79.303 Y20.060
M4 S300
G1 X79.770 Y20.060
M5
M5
G0 X80.468 Y20.060
M4 S300
G1 X80.956 Y20.060
M5
M5
G0 X82.350 Y20.060
M4 S300
G1 X82.930 Y20.060
M5
M5
G0 X84.040 Y20.060
M4 S300
G1 X84.584 Y20.060
M5
M5
G0 X25.268 Y20.240
M4 S300
G1 X25.756 Y20.240
M5
M5
G0 X26.487 Y20.240
M4 S300
G1 X26.975 Y20.240
M5
M5
G0 X28.340 Y20.240
M4 S300
G1 X28.831 Y20.240
M5
M5
G0 X29.610 Y20.240
M4 S300
G1 X30.098 Y20.240
M5
M5
G0 X31.012 Y20.240
M4 S300
G1 X31.500 Y20.240
M5
M5
G0 X32.678 Y20.240
M4 S300
G1 X33.183 Y20.240
M5
M5
G0 X34.414 Y20.240
M4 S300
G1 X35.090 Y20.240
M5
M5
G0 X35.609 Y20.240
M4 S300
G1 X36.071 Y20.240
M5
M5
G0 X37.543 Y20.240
M4 S300
G1 X38.017 Y20.240
M5
M5
G0 X38.586 Y20.240
M4 S300
G1 X39.076 Y20.240
M5
M5
G0 X40.056 Y20.240
M4 S300
G1 X40.544 Y20.240
M5
M5
G0 X41.858 Y20.240
M4 S300
G1 X42.370 Y20.240
M5
M5
G0 X43.566 Y20.240
M4 S300
G1 X44.182 Y20.240
M5
M5
G0 X44.860 Y20.240
M4 S300
G1 X45.389 Y20.240
M5
M5
G0 X46.569 Y20.240
M4 S300
G1 X47.082 Y20.240
M5
M5
G0 X47.630 Y20.240
M4 S300
G1 X48.120 Y20.240
M5
M5
G0 X49.096 Y20.240
M4 S300
G1 X49.607 Y20.240
M5
M5
G0 X50.804 Y20.240
M4 S300
G1 X51.419 Y20.240
M5
M5
G0 X52.117 Y20.240
M4 S300
G1 X52.605 Y20.240
M5
M5
G0 X53.910 Y20.240
M4 S300
G1 X54.437 Y20.240
M5
M5
G0 X55.836 Y20.240
M4 S300
G1 X56.176 Y20.240
M5
M5
G0 X58.429 Y20.240
M4 S300
G1 X58.954 Y20.240
M5
M5
G0 X60.269 Y20.240
M4 S300
G1 X60.791 Y20.240
M5
M5
G0 X61.572 Y20.240
M4 S300
G1 X62.060 Y20.240
M5
M5
G0 X64.470 Y20.240
M4 S300
G1 X65.088 Y20.240
M5
M5
G0 X66.323 Y20.240
M4 S300
G1 X66.843 Y20.240
M5
M5
G0 X67.487 Y20.240
M4 S300
G1 X67.975 Y20.240
M5
M5
G0 X68.690 Y20.240
M4 S300
G1 X69.216 Y20.240
M5
M5
G0 X70.615 Y20.240
M4 S300
G1 X70.955 Y20.240
M5
M5
G0 X71.580 Y20.240
M4 S300
G1 X72.085 Y20.240
M5
M5
G0 X73.316 Y20.240
M4 S300
G1 X73.992 Y20.240
M5
M5
G0 X74.511 Y20.240
M4 S300
G1 X74.973 Y20.240
M5
M5
G0 X76.445 Y20.240
M4 S300
G1 X76.919 Y20.240
M5
M5
G0 X77.446 Y20.240
M4 S300
G1 X77.958 Y20.240
M5
M5
G0 X79.154 Y20.240
M4 S300
G1 X79.770 Y20.240
M5
M5
G0 X80.468 Y20.240
M4 S300
G1 X80.956 Y20.240
M5
M5
G0 X82.261 Y20.240
M4 S300
G1 X82.787 Y20.240
M5
M5
G0 X84.186 Y20.240
M4 S300
G1 X84.526 Y20.240
M5
M5
G0 X25.268 Y20.420
M4 S300
G1 X25.756 Y20.420
M5
M5
G0 X26.487 Y20.420
M4 S300
G1 X26.975 Y20.420
M5
M5
G0 X28.340 Y20.420
M4 S300
G1 X28.831 Y20.420
M5
M5
G0 X29.610 Y20.420
M4 S300
G1 X30.098 Y20.420
M5
M5
G0 X31.012 Y20.420
M4 S300
G1 X31.500 Y20.420
M5
M5
G0 X32.671 Y20.420
M4 S300
G1 X33.172 Y20.420
M5
M5
G0 X34.518 Y20.420
M4 S300
G1 X35.089 Y20.420
M5
M5
G0 X37.545 Y20.420
M4 S300
G1 X38.026 Y20.420
M5
M5
G0 X38.586 Y20.420
M4 S300
G1 X39.075 Y20.420
M5
M5
G0 X40.056 Y20.420
M4 S300
G1 X40.544 Y20.420
M5
M5
G0 X41.842 Y20.420
M4 S300
G1 X42.339 Y20.420
M5
M5
G0 X43.642 Y20.420
M4 S300
G1 X44.182 Y20.420
M5
M5
G0 X44.801 Y20.420
M4 S300
G1 X45.317 Y20.420
M5
M5
G0 X46.623 Y20.420
M4 S300
G1 X47.123 Y20.420
M5
M5
G0 X47.630 Y20.420
M4 S300
G1 X48.119 Y20.420
M5
M5
G0 X49.079 Y20.420
M4 S300
G1 X49.576 Y20.420
M5
M5
G0 X50.880 Y20.420
M4 S300
G1 X51.419 Y20.420
M5
M5
G0 X52.117 Y20.420
M4 S300
G1 X52.605 Y20.420
M5
M5
G0 X53.850 Y20.420
M4 S300
G1 X54.358 Y20.420
M5
M5
G0 X58.369 Y20.420
M4 S300
G1 X58.884 Y20.420
M5
M5
G0 X60.335 Y20.420
M4 S300
G1 X60.850 Y20.420
M5
M5
G0 X61.572 Y20.420
M4 S300
G1 X62.060 Y20.420
M5
M5
G0 X64.470 Y20.420
M4 S300
G1 X65.023 Y20.420
M5
M5
G0 X66.381 Y20.420
M4 S300
G1 X66.888 Y20.420
M5
M5
G0 X67.487 Y20.420
M4 S300
G1 X67.975 Y20.420
M5
M5
G0 X68.629 Y20.420
M4 S300
G1 X69.137 Y20.420
M5
M5
G0 X71.573 Y20.420
M4 S300
G1 X72.074 Y20.420
M5
M5
G0 X73.420 Y20.420
M4 S300
G1 X73.991 Y20.420
M5
M5
G0 X76.447 Y20.420
M4 S300
G1 X76.928 Y20.420
M5
M5
G0 X77.430 Y20.420
M4 S300
G1 X77.927 Y20.420
M5
M5
G0 X79.230 Y20.420
M4 S300
G1 X79.770 Y20.420
M5
M5
G0 X80.468 Y20.420
M4 S300
G1 X80.956 Y20.420
M5
M5
G0 X82.201 Y20.420
M4 S300
G1 X82.709 Y20.420
M5
M5
G0 X25.268 Y20.600
M4 S300
G1 X25.756 Y20.600
M5
M5
G0 X26.487 Y20.600
M4 S300
G1 X26.975 Y20.600
M5
M5
G0 X28.340 Y20.600
M4 S300
G1 X28.831 Y20.600
M5
M5
G0 X29.610 Y20.600
M4 S300
G1 X30.098 Y20.600
M5
M5
G0 X31.012 Y20.600
M4 S300
G1 X31.500 Y20.600
M5
M5
G0 X32.690 Y20.600
M4 S300
G1 X33.203 Y20.600
M5
M5
G0 X34.577 Y20.600
M4 S300
G1 X35.089 Y20.600
M5
M5
G0 X37.452 Y20.600
M4 S300
G1 X37.999 Y20.600
M5
M5
G0 X38.586 Y20.600
M4 S300
G1 X39.075 Y20.600
M5
M5
G0 X40.056 Y20.600
M4 S300
G1 X40.544 Y20.600
M5
M5
G0 X41.838 Y20.600
M4 S300
G1 X42.330 Y20.600
M5
M5
G0 X43.680 Y20.600
M4 S300
G1 X44.182 Y20.600
M5
M5
G0 X44.764 Y20.600
M4 S300
G1 X45.274 Y20.600
M5
M5
G0 X47.630 Y20.600
M4 S300
G1 X48.119 Y20.600
M5
M5
G0 X49.075 Y20.600
M4 S300
G1 X49.567 Y20.600
M5
M5
G0 X50.918 Y20.600
M4 S300
G1 X51.419 Y20.600
M5
M5
G0 X52.117 Y20.600
M4 S300
G1 X52.605 Y20.600
M5
M5
G0 X53.811 Y20.600
M4 S300
G1 X54.315 Y20.600
M5
M5
G0 X58.331 Y20.600
M4 S300
G1 X58.842 Y20.600
M5
M5
G0 X60.375 Y20.600
M4 S300
G1 X60.887 Y20.600
M5
M5
G0 X61.572 Y20.600
M4 S300
G1 X62.060 Y20.600
M5
M5
G0 X64.470 Y20.600
M4 S300
G1 X64.986 Y20.600
M5
M5
G0 X66.413 Y20.600
M4 S300
G1 X66.922 Y20.600
M5
M5
G0 X67.487 Y20.600
M4 S300
G1 X67.975 Y20.600
M5
M5
G0 X68.590 Y20.600
M4 S300
G1 X69.094 Y20.600
M5
M5
G0 X71.592 Y20.600
M4 S300
G1 X72.105 Y20.600
M5
M5
G0 X73.479 Y20.600
M4 S300
G1 X73.991 Y20.600
M5
M5
G0 X76.354 Y20.600
M4 S300
G1 X76.901 Y20.600
M5
M5
G0 X77.426 Y20.600
M4 S300
G1 X77.917 Y20.600
M5
M5
G0 X79.268 Y20.600
M4 S300
G1 X79.770 Y20.600
M5
M5
G0 X80.468 Y20.600
M4 S300
G1 X80.956 Y20.600
M5
M5
G0 X82.161 Y20.600
M4 S300
G1 X82.665 Y20.600
M5
M5
G0 X25.268 Y20.780
M4 S300
G1 X25.756 Y20.780
M5
M5
G0 X26.487 Y20.780
M4 S300
G1 X26.975 Y20.780
M5
M5
G0 X28.340 Y20.780
M4 S300
G1 X28.831 Y20.780
M5
M5
G0 X29.610 Y20.780
M4 S300
G1 X30.098 Y20.780
M5
M5
G0 X31.012 Y20.780
M4 S300
G1 X31.500 Y20.780
M5
M5
G0 X32.744 Y20.780
M4 S300
G1 X33.307 Y20.780
M5
M5
G0 X34.595 Y20.780
M4 S300
G1 X35.089 Y20.780
M5
M5
G0 X37.111 Y20.780
M4 S300
G1 X37.919 Y20.780
M5
M5
G0 X38.586 Y20.780
M4 S300
G1 X39.075 Y20.780
M5
M5
G0 X40.056 Y20.780
M4 S300
G1 X40.544 Y20.780
M5
M5
G0 X41.838 Y20.780
M4 S300
G1 X42.329 Y20.780
M5
M5
G0 X43.693 Y20.780
M4 S300
G1 X44.182 Y20.780
M5
M5
G0 X44.742 Y20.780
M4 S300
G1 X45.252 Y20.780
M5
M5
G0 X47.630 Y20.780
M4 S300
G1 X48.119 Y20.780
M5
M5
G0 X49.075 Y20.780
M4 S300
G1 X49.566 Y20.780
M5
M5
G0 X50.930 Y20.780
M4 S300
G1 X51.419 Y20.780
M5
M5
G0 X52.117 Y20.780
M4 S300
G1 X52.605 Y20.780
M5
M5
G0 X53.788 Y20.780
M4 S300
G1 X54.292 Y20.780
M5
M5
G0 X58.308 Y20.780
M4 S300
G1 X58.820 Y20.780
M5
M5
G0 X60.396 Y20.780
M4 S300
G1 X60.908 Y20.780
M5
M5
G0 X61.572 Y20.780
M4 S300
G1 X62.060 Y20.780
M5
M5
G0 X64.470 Y20.780
M4 S300
G1 X64.966 Y20.780
M5
M5
G0 X66.430 Y20.780
M4 S300
G1 X66.937 Y20.780
M5
M5
G0 X67.487 Y20.780
M4 S300
G1 X67.975 Y20.780
M5
M5
G0 X68.567 Y20.780
M4 S300
G1 X69.072 Y20.780
M5
M5
G0 X71.646 Y20.780
M4 S300
G1 X72.208 Y20.780
M5
M5
G0 X73.497 Y20.780
M4 S300
G1 X73.991 Y20.780
M5
M5
G0 X76.013 Y20.780
M4 S300
G1 X76.821 Y20.780
M5
M5
G0 X77.426 Y20.780
M4 S300
G1 X77.917 Y20.780
M5
M5
G0 X79.281 Y20.780
M4 S300
G1 X79.770 Y20.780
M5
M5
G0 X80.468 Y20.780
M4 S300
G1 X80.956 Y20.780
M5
M5
G0 X82.138 Y20.780
M4 S300
G1 X82.643 Y20.780
M5
M5
G0 X25.268 Y20.960
M4 S300
G1 X25.756 Y20.960
M5
M5
G0 X26.487 Y20.960
M4 S300
G1 X26.975 Y20.960
M5
M5
G0 X28.340 Y20.960
M4 S300
G1 X28.831 Y20.960
M5
M5
G0 X29.610 Y20.960
M4 S300
G1 X30.098 Y20.960
M5
M5
G0 X31.012 Y20.960
M4 S300
G1 X31.500 Y20.960
M5
M5
G0 X32.850 Y20.960
M4 S300
G1 X33.641 Y20.960
M5
M5
G0 X34.595 Y20.960
M4 S300
G1 X35.089 Y20.960
M5
M5
G0 X36.452 Y20.960
M4 S300
G1 X37.760 Y20.960
M5
M5
G0 X38.586 Y20.960
M4 S300
G1 X39.075 Y20.960
M5
M5
G0 X40.056 Y20.960
M4 S300
G1 X40.544 Y20.960
M5
M5
G0 X41.838 Y20.960
M4 S300
G1 X42.329 Y20.960
M5
M5
G0 X43.693 Y20.960
M4 S300
G1 X44.182 Y20.960
M5
M5
G0 X44.733 Y20.960
M4 S300
G1 X45.242 Y20.960
M5
M5
G0 X47.630 Y20.960
M4 S300
G1 X48.119 Y20.960
M5
M5
G0 X49.075 Y20.960
M4 S300
G1 X49.566 Y20.960
M5
M5
G0 X50.931 Y20.960
M4 S300
G1 X51.419 Y20.960
M5
M5
G0 X52.117 Y20.960
M4 S300
G1 X52.605 Y20.960
M5
M5
G0 X53.778 Y20.960
M4 S300
G1 X56.381 Y20.960
M5
M5
G0 X58.299 Y20.960
M4 S300
G1 X58.811 Y20.960
M5
M5
G0 X60.405 Y20.960
M4 S300
G1 X60.917 Y20.960
M5
M5
G0 X61.572 Y20.960
M4 S300
G1 X62.060 Y20.960
M5
M5
G0 X64.470 Y20.960
M4 S300
G1 X64.959 Y20.960
M5
M5
G0 X66.437 Y20.960
M4 S300
G1 X66.947 Y20.960
M5
M5
G0 X67.487 Y20.960
M4 S300
G1 X67.975 Y20.960
M5
M5
G0 X68.557 Y20.960
M4 S300
G1 X71.161 Y20.960
M5
M5
G0 X71.752 Y20.960
M4 S300
G1 X72.543 Y20.960
M5
M5
G0 X73.497 Y20.960
M4 S300
G1 X73.991 Y20.960
M5
M5
G0 X75.354 Y20.960
M4 S300
G1 X76.662 Y20.960
M5
M5
G0 X77.426 Y20.960
M4 S300
G1 X77.917 Y20.960
M5
M5
G0 X79.281 Y20.960
M4 S300
G1 X79.770 Y20.960
M5
M5
G0 X80.468 Y20.960
M4 S300
G1 X80.956 Y20.960
M5
M5
G0 X82.128 Y20.960
M4 S300
G1 X84.732 Y20.960
M5
M5
G0 X25.268 Y21.140
M4 S300
G1 X25.756 Y21.140
M5
M5
G0 X26.487 Y21.140
M4 S300
G1 X26.975 Y21.140
M5
M5
G0 X28.340 Y21.140
M4 S300
G1 X28.831 Y21.140
M5
M5
G0 X29.610 Y21.140
M4 S300
G1 X30.098 Y21.140
M5
M5
G0 X31.012 Y21.140
M4 S300
G1 X31.501 Y21.140
M5
M5
G0 X33.051 Y21.140
M4 S300
G1 X35.089 Y21.140
M5
M5
G0 X36.042 Y21.140
M4 S300
G1 X37.429 Y21.140
M5
M5
G0 X38.586 Y21.140
M4 S300
G1 X39.075 Y21.140
M5
M5
G0 X40.056 Y21.140
M4 S300
G1 X40.545 Y21.140
M5
M5
G0 X41.838 Y21.140
M4 S300
G1 X42.329 Y21.140
M5
M5
G0 X43.693 Y21.140
M4 S300
G1 X44.182 Y21.140
M5
M5
G0 X44.734 Y21.140
M4 S300
G1 X45.242 Y21.140
M5
M5
G0 X47.630 Y21.140
M4 S300
G1 X48.119 Y21.140
M5
M5
G0 X49.075 Y21.140
M4 S300
G1 X49.566 Y21.140
M5
M5
G0 X50.931 Y21.140
M4 S300
G1 X51.419 Y21.140
M5
M5
G0 X52.117 Y21.140
M4 S300
G1 X52.606 Y21.140
M5
M5
G0 X53.778 Y21.140
M4 S300
G1 X56.372 Y21.140
M5
M5
G0 X58.304 Y21.140
M4 S300
G1 X58.812 Y21.140
M5
M5
G0 X60.404 Y21.140
M4 S300
G1 X60.916 Y21.140
M5
M5
G0 X61.572 Y21.140
M4 S300
G1 X62.060 Y21.140
M5
M5
G0 X64.470 Y21.140
M4 S300
G1 X64.961 Y21.140
M5
M5
G0 X66.437 Y21.140
M4 S300
G1 X66.949 Y21.140
M5
M5
G0 X67.487 Y21.140
M4 S300
G1 X67.975 Y21.140
M5
M5
G0 X68.557 Y21.140
M4 S300
G1 X71.151 Y21.140
M5
M5
G0 X71.953 Y21.140
M4 S300
G1 X73.991 Y21.140
M5
M5
G0 X74.944 Y21.140
M4 S300
G1 X76.331 Y21.140
M5
M5
G0 X77.426 Y21.140
M4 S300
G1 X77.917 Y21.140
M5
M5
G0 X79.281 Y21.140
M4 S300
G1 X79.770 Y21.140
M5
M5
G0 X80.468 Y21.140
M4 S300
G1 X80.957 Y21.140
M5
M5
G0 X82.128 Y21.140
M4 S300
G1 X84.722 Y21.140
M5
M5
G0 X25.268 Y21.320
M4 S300
G1 X25.756 Y21.320
M5
M5
G0 X26.487 Y21.320
M4 S300
G1 X26.977 Y21.320
M5
M5
G0 X28.340 Y21.320
M4 S300
G1 X28.831 Y21.320
M5
M5
G0 X29.610 Y21.320
M4 S300
G1 X30.098 Y21.320
M5
M5
G0 X31.012 Y21.320
M4 S300
G1 X31.510 Y21.320
M5
M5
G0 X33.628 Y21.320
M4 S300
G1 X35.089 Y21.320
M5
M5
G0 X35.849 Y21.320
M4 S300
G1 X36.794 Y21.320
M5
M5
G0 X38.586 Y21.320
M4 S300
G1 X39.075 Y21.320
M5
M5
G0 X40.056 Y21.320
M4 S300
G1 X40.554 Y21.320
M5
M5
G0 X41.838 Y21.320
M4 S300
G1 X42.329 Y21.320
M5
M5
G0 X43.693 Y21.320
M4 S300
G1 X44.182 Y21.320
M5
M5
G0 X44.746 Y21.320
M4 S300
G1 X45.252 Y21.320
M5
M5
G0 X47.630 Y21.320
M4 S300
G1 X48.119 Y21.320
M5
M5
G0 X49.075 Y21.320
M4 S300
G1 X49.566 Y21.320
M5
M5
G0 X50.931 Y21.320
M4 S300
G1 X51.419 Y21.320
M5
M5
G0 X52.117 Y21.320
M4 S300
G1 X52.616 Y21.320
M5
M5
G0 X53.789 Y21.320
M4 S300
G1 X54.294 Y21.320
M5
M5
G0 X55.875 Y21.320
M4 S300
G1 X56.360 Y21.320
M5
M5
G0 X58.316 Y21.320
M4 S300
G1 X58.822 Y21.320
M5
M5
G0 X60.395 Y21.320
M4 S300
G1 X60.906 Y21.320
M5
M5
G0 X61.572 Y21.320
M4 S300
G1 X62.060 Y21.320
M5
M5
G0 X64.470 Y21.320
M4 S300
G1 X64.973 Y21.320
M5
M5
G0 X66.428 Y21.320
M4 S300
G1 X66.941 Y21.320
M5
M5
G0 X67.487 Y21.320
M4 S300
G1 X67.975 Y21.320
M5
M5
G0 X68.569 Y21.320
M4 S300
G1 X69.073 Y21.320
M5
M5
G0 X70.654 Y21.320
M4 S300
G1 X71.140 Y21.320
M5
M5
G0 X72.530 Y21.320
M4 S300
G1 X73.991 Y21.320
M5
M5
G0 X74.751 Y21.320
M4 S300
G1 X75.696 Y21.320
M5
M5
G0 X77.426 Y21.320
M4 S300
G1 X77.917 Y21.320
M5
M5
G0 X79.281 Y21.320
M4 S300
G1 X79.770 Y21.320
M5
M5
G0 X80.468 Y21.320
M4 S300
G1 X80.966 Y21.320
M5
M5
G0 X82.140 Y21.320
M4 S300
G1 X82.645 Y21.320
M5
M5
G0 X84.225 Y21.320
M4 S300
G1 X84.711 Y21.320
M5
M5
G0 X25.268 Y21.500
M4 S300
G1 X25.756 Y21.500
M5
M5
G0 X26.487 Y21.500
M4 S300
G1 X26.993 Y21.500
M5
M5
G0 X28.339 Y21.500
M4 S300
G1 X28.831 Y21.500
M5
M5
G0 X29.610 Y21.500
M4 S300
G1 X30.098 Y21.500
M5
M5
G0 X31.012 Y21.500
M4 S300
G1 X31.536 Y21.500
M5
M5
G0 X34.595 Y21.500
M4 S300
G1 X35.089 Y21.500
M5
M5
G0 X35.754 Y21.500
M4 S300
G1 X36.329 Y21.500
M5
M5
G0 X38.586 Y21.500
M4 S300
G1 X39.075 Y21.500
M5
M5
G0 X40.056 Y21.500
M4 S300
G1 X40.580 Y21.500
M5
M5
G0 X41.838 Y21.500
M4 S300
G1 X42.329 Y21.500
M5
M5
G0 X43.693 Y21.500
M4 S300
G1 X44.182 Y21.500
M5
M5
G0 X44.771 Y21.500
M4 S300
G1 X45.272 Y21.500
M5
M5
G0 X47.630 Y21.500
M4 S300
G1 X48.119 Y21.500
M5
M5
G0 X49.075 Y21.500
M4 S300
G1 X49.566 Y21.500
M5
M5
G0 X50.931 Y21.500
M4 S300
G1 X51.419 Y21.500
M5
M5
G0 X52.117 Y21.500
M4 S300
G1 X52.641 Y21.500
M5
M5
G0 X53.815 Y21.500
M4 S300
G1 X54.314 Y21.500
M5
M5
G0 X55.849 Y21.500
M4 S300
G1 X56.334 Y21.500
M5
M5
G0 X58.338 Y21.500
M4 S300
G1 X58.847 Y21.500
M5
M5
G0 X60.372 Y21.500
M4 S300
G1 X60.884 Y21.500
M5
M5
G0 X61.572 Y21.500
M4 S300
G1 X62.060 Y21.500
M5
M5
G0 X64.470 Y21.500
M4 S300
G1 X65.000 Y21.500
M5
M5
G0 X66.407 Y21.500
M4 S300
G1 X66.923 Y21.500
M5
M5
G0 X67.487 Y21.500
M4 S300
G1 X67.975 Y21.500
M5
M5
G0 X68.594 Y21.500
M4 S300
G1 X69.093 Y21.500
M5
M5
G0 X70.629 Y21.500
M4 S300
G1 X71.113 Y21.500
M5
M5
G0 X73.497 Y21.500
M4 S300
G1 X73.991 Y21.500
M5
M5
G0 X74.656 Y21.500
M4 S300
G1 X75.231 Y21.500
M5
M5
G0 X77.426 Y21.500
M4 S300
G1 X77.917 Y21.500
M5
M5
G0 X79.281 Y21.500
M4 S300
G1 X79.770 Y21.500
M5
M5
G0 X80.468 Y21.500
M4 S300
G1 X80.992 Y21.500
M5
M5
G0 X82.165 Y21.500
M4 S300
G1 X82.664 Y21.500
M5
M5
G0 X84.200 Y21.500
M4 S300
G1 X84.684 Y21.500
M5
M5
G0 X25.268 Y21.680
M4 S300
G1 X25.756 Y21.680
M5
M5
G0 X26.487 Y21.680
M4 S300
G1 X27.038 Y21.680
M5
M5
G0 X28.325 Y21.680
M4 S300
G1 X28.825 Y21.680
M5
M5
G0 X29.610 Y21.680
M4 S300
G1 X30.098 Y21.680
M5
M5
G0 X31.012 Y21.680
M4 S300
G1 X31.583 Y21.680
M5
M5
G0 X34.585 Y21.680
M4 S300
G1 X35.084 Y21.680
M5
M5
G0 X35.723 Y21.680
M4 S300
G1 X36.207 Y21.680
M5
M5
G0 X38.586 Y21.680
M4 S300
G1 X39.075 Y21.680
M5
M5
G0 X40.056 Y21.680
M4 S300
G1 X40.627 Y21.680
M5
M5
G0 X41.838 Y21.680
M4 S300
G1 X42.329 Y21.680
M5
M5
G0 X43.693 Y21.680
M4 S300
G1 X44.182 Y21.680
M5
M5
G0 X44.812 Y21.680
M4 S300
G1 X45.313 Y21.680
M5
M5
G0 X46.600 Y21.680
M4 S300
G1 X47.109 Y21.680
M5
M5
G0 X47.630 Y21.680
M4 S300
G1 X48.119 Y21.680
M5
M5
G0 X49.075 Y21.680
M4 S300
G1 X49.566 Y21.680
M5
M5
G0 X50.931 Y21.680
M4 S300
G1 X51.419 Y21.680
M5
M5
G0 X52.117 Y21.680
M4 S300
G1 X52.689 Y21.680
M5
M5
G0 X53.858 Y21.680
M4 S300
G1 X54.360 Y21.680
M5
M5
G0 X55.804 Y21.680
M4 S300
G1 X56.293 Y21.680
M5
M5
G0 X58.381 Y21.680
M4 S300
G1 X58.893 Y21.680
M5
M5
G0 X60.330 Y21.680
M4 S300
G1 X60.846 Y21.680
M5
M5
G0 X61.572 Y21.680
M4 S300
G1 X62.060 Y21.680
M5
M5
G0 X64.470 Y21.680
M4 S300
G1 X65.047 Y21.680
M5
M5
G0 X66.368 Y21.680
M4 S300
G1 X66.892 Y21.680
M5
M5
G0 X67.487 Y21.680
M4 S300
G1 X67.975 Y21.680
M5
M5
G0 X68.637 Y21.680
M4 S300
G1 X69.140 Y21.680
M5
M5
G0 X70.584 Y21.680
M4 S300
G1 X71.072 Y21.680
M5
M5
G0 X73.487 Y21.680
M4 S300
G1 X73.986 Y21.680
M5
M5
G0 X74.625 Y21.680
M4 S300
G1 X75.109 Y21.680
M5
M5
G0 X77.426 Y21.680
M4 S300
G1 X77.917 Y21.680
M5
M5
G0 X79.281 Y21.680
M4 S300
G1 X79.770 Y21.680
M5
M5
G0 X80.468 Y21.680
M4 S300
G1 X81.039 Y21.680
M5
M5
G0 X82.209 Y21.680
M4 S300
G1 X82.711 Y21.680
M5
M5
G0 X84.155 Y21.680
M4 S300
G1 X84.644 Y21.680
M5
M5
G0 X25.268 Y21.860
M4 S300
G1 X25.756 Y21.860
M5
M5
G0 X26.487 Y21.860
M4 S300
G1 X27.124 Y21.860
M5
M5
G0 X28.287 Y21.860
M4 S300
G1 X28.803 Y21.860
M5
M5
G0 X29.610 Y21.860
M4 S300
G1 X30.098 Y21.860
M5
M5
G0 X31.012 Y21.860
M4 S300
G1 X31.672 Y21.860
M5
M5
G0 X32.825 Y21.860
M4 S300
G1 X33.342 Y21.860
M5
M5
G0 X34.544 Y21.860
M4 S300
G1 X35.056 Y21.860
M5
M5
G0 X35.732 Y21.860
M4 S300
G1 X36.206 Y21.860
M5
M5
G0 X37.508 Y21.860
M4 S300
G1 X37.967 Y21.860
M5
M5
G0 X38.586 Y21.860
M4 S300
G1 X39.075 Y21.860
M5
M5
G0 X40.056 Y21.860
M4 S300
G1 X40.716 Y21.860
M5
M5
G0 X41.838 Y21.860
M4 S300
G1 X42.329 Y21.860
M5
M5
G0 X43.693 Y21.860
M4 S300
G1 X44.182 Y21.860
M5
M5
G0 X44.875 Y21.860
M4 S300
G1 X45.384 Y21.860
M5
M5
G0 X46.539 Y21.860
M4 S300
G1 X47.060 Y21.860
M5
M5
G0 X47.630 Y21.860
M4 S300
G1 X48.119 Y21.860
M5
M5
G0 X49.075 Y21.860
M4 S300
G1 X49.566 Y21.860
M5
M5
G0 X50.931 Y21.860
M4 S300
G1 X51.419 Y21.860
M5
M5
G0 X52.117 Y21.860
M4 S300
G1 X52.777 Y21.860
M5
M5
G0 X53.924 Y21.860
M4 S300
G1 X54.447 Y21.860
M5
M5
G0 X55.726 Y21.860
M4 S300
G1 X56.228 Y21.860
M5
M5
G0 X58.443 Y21.860
M4 S300
G1 X58.970 Y21.860
M5
M5
G0 X60.258 Y21.860
M4 S300
G1 X60.788 Y21.860
M5
M5
G0 X61.572 Y21.860
M4 S300
G1 X62.060 Y21.860
M5
M5
G0 X64.470 Y21.860
M4 S300
G1 X65.127 Y21.860
M5
M5
G0 X66.300 Y21.860
M4 S300
G1 X66.843 Y21.860
M5
M5
G0 X67.487 Y21.860
M4 S300
G1 X67.975 Y21.860
M5
M5
G0 X68.704 Y21.860
M4 S300
G1 X69.226 Y21.860
M5
M5
G0 X70.505 Y21.860
M4 S300
G1 X71.008 Y21.860
M5
M5
G0 X71.727 Y21.860
M4 S300
G1 X72.244 Y21.860
M5
M5
G0 X73.446 Y21.860
M4 S300
G1 X73.958 Y21.860
M5
M5
G0 X74.634 Y21.860
M4 S300
G1 X75.108 Y21.860
M5
M5
G0 X76.410 Y21.860
M4 S300
G1 X76.869 Y21.860
M5
M5
G0 X77.426 Y21.860
M4 S300
G1 X77.917 Y21.860
M5
M5
G0 X79.281 Y21.860
M4 S300
G1 X79.770 Y21.860
M5
M5
G0 X80.467 Y21.860
M4 S300
G1 X81.127 Y21.860
M5
M5
G0 X82.275 Y21.860
M4 S300
G1 X82.798 Y21.860
M5
M5
G0 X84.076 Y21.860
M4 S300
G1 X84.579 Y21.860
M5
M5
G0 X25.268 Y22.040
M4 S300
G1 X25.756 Y22.040
M5
M5
G0 X26.486 Y22.040
M4 S300
G1 X26.952 Y22.040
M5
M5
G0 X26.987 Y22.040
M4 S300
G1 X27.291 Y22.040
M5
M5
G0 X28.184 Y22.040
M4 S300
G1 X28.760 Y22.040
M5
M5
G0 X29.610 Y22.040
M4 S300
G1 X30.098 Y22.040
M5
M5
G0 X31.010 Y22.040
M4 S300
G1 X31.475 Y22.040
M5
M5
G0 X31.538 Y22.040
M4 S300
G1 X31.859 Y22.040
M5
M5
G0 X32.890 Y22.040
M4 S300
G1 X33.453 Y22.040
M5
M5
G0 X34.428 Y22.040
M4 S300
G1 X34.998 Y22.040
M5
M5
G0 X35.778 Y22.040
M4 S300
G1 X36.307 Y22.040
M5
M5
G0 X37.366 Y22.040
M4 S300
G1 X37.908 Y22.040
M5
M5
G0 X38.586 Y22.040
M4 S300
G1 X39.075 Y22.040
M5
M5
G0 X40.054 Y22.040
M4 S300
G1 X40.519 Y22.040
M5
M5
G0 X40.582 Y22.040
M4 S300
G1 X40.903 Y22.040
M5
M5
G0 X41.838 Y22.040
M4 S300
G1 X42.329 Y22.040
M5
M5
G0 X43.693 Y22.040
M4 S300
G1 X44.182 Y22.040
M5
M5
G0 X44.967 Y22.040
M4 S300
G1 X45.532 Y22.040
M5
M5
G0 X46.399 Y22.040
M4 S300
G1 X46.978 Y22.040
M5
M5
G0 X47.630 Y22.040
M4 S300
G1 X48.119 Y22.040
M5
M5
G0 X49.075 Y22.040
M4 S300
G1 X49.566 Y22.040
M5
M5
G0 X50.931 Y22.040
M4 S300
G1 X51.419 Y22.040
M5
M5
G0 X52.115 Y22.040
M4 S300
G1 X52.580 Y22.040
M5
M5
G0 X52.643 Y22.040
M4 S300
G1 X52.965 Y22.040
M5
M5
G0 X54.020 Y22.040
M4 S300
G1 X54.607 Y22.040
M5
M5
G0 X55.575 Y22.040
M4 S300
G1 X56.145 Y22.040
M5
M5
G0 X58.530 Y22.040
M4 S300
G1 X59.119 Y22.040
M5
M5
G0 X60.116 Y22.040
M4 S300
G1 X60.702 Y22.040
M5
M5
G0 X61.572 Y22.040
M4 S300
G1 X62.060 Y22.040
M5
M5
G0 X64.469 Y22.040
M4 S300
G1 X64.952 Y22.040
M5
M5
G0 X64.970 Y22.040
M4 S300
G1 X65.279 Y22.040
M5
M5
G0 X66.161 Y22.040
M4 S300
G1 X66.770 Y22.040
M5
M5
G0 X67.487 Y22.040
M4 S300
G1 X67.975 Y22.040
M5
M5
G0 X68.800 Y22.040
M4 S300
G1 X69.387 Y22.040
M5
M5
G0 X70.355 Y22.040
M4 S300
G1 X70.925 Y22.040
M5
M5
G0 X71.792 Y22.040
M4 S300
G1 X72.355 Y22.040
M5
M5
G0 X73.330 Y22.040
M4 S300
G1 X73.900 Y22.040
M5
M5
G0 X74.680 Y22.040
M4 S300
G1 X75.209 Y22.040
M5
M5
G0 X76.268 Y22.040
M4 S300
G1 X76.810 Y22.040
M5
M5
G0 X77.426 Y22.040
M4 S300
G1 X77.917 Y22.040
M5
M5
G0 X79.281 Y22.040
M4 S300
G1 X79.770 Y22.040
M5
M5
G0 X80.466 Y22.040
M4 S300
G1 X80.931 Y22.040
M5
M5
G0 X80.994 Y22.040
M4 S300
G1 X81.315 Y22.040
M5
M5
G0 X82.371 Y22.040
M4 S300
G1 X82.958 Y22.040
M5
M5
G0 X83.926 Y22.040
M4 S300
G1 X84.496 Y22.040
M5
M5
G0 X25.268 Y22.220
M4 S300
G1 X25.756 Y22.220
M5
M5
G0 X26.484 Y22.220
M4 S300
G1 X26.947 Y22.220
M5
M5
G0 X27.112 Y22.220
M4 S300
G1 X28.676 Y22.220
M5
M5
G0 X29.198 Y22.220
M4 S300
G1 X30.671 Y22.220
M5
M5
G0 X31.005 Y22.220
M4 S300
G1 X31.468 Y22.220
M5
M5
G0 X31.617 Y22.220
M4 S300
G1 X32.384 Y22.220
M5
M5
G0 X33.010 Y22.220
M4 S300
G1 X34.885 Y22.220
M5
M5
G0 X35.887 Y22.220
M4 S300
G1 X37.794 Y22.220
M5
M5
G0 X38.247 Y22.220
M4 S300
G1 X39.617 Y22.220
M5
M5
G0 X40.050 Y22.220
M4 S300
G1 X40.512 Y22.220
M5
M5
G0 X40.661 Y22.220
M4 S300
G1 X41.428 Y22.220
M5
M5
G0 X41.838 Y22.220
M4 S300
G1 X42.329 Y22.220
M5
M5
G0 X43.693 Y22.220
M4 S300
G1 X44.182 Y22.220
M5
M5
G0 X45.110 Y22.220
M4 S300
G1 X46.844 Y22.220
M5
M5
G0 X47.291 Y22.220
M4 S300
G1 X48.661 Y22.220
M5
M5
G0 X49.075 Y22.220
M4 S300
G1 X49.566 Y22.220
M5
M5
G0 X50.931 Y22.220
M4 S300
G1 X51.419 Y22.220
M5
M5
G0 X52.111 Y22.220
M4 S300
G1 X52.574 Y22.220
M5
M5
G0 X52.723 Y22.220
M4 S300
G1 X53.490 Y22.220
M5
M5
G0 X54.170 Y22.220
M4 S300
G1 X55.997 Y22.220
M5
M5
G0 X58.679 Y22.220
M4 S300
G1 X60.565 Y22.220
M5
M5
G0 X61.159 Y22.220
M4 S300
G1 X62.632 Y22.220
M5
M5
G0 X64.467 Y22.220
M4 S300
G1 X64.945 Y22.220
M5
M5
G0 X65.081 Y22.220
M4 S300
G1 X66.655 Y22.220
M5
M5
G0 X67.487 Y22.220
M4 S300
G1 X67.975 Y22.220
M5
M5
G0 X68.949 Y22.220
M4 S300
G1 X70.777 Y22.220
M5
M5
G0 X71.912 Y22.220
M4 S300
G1 X73.787 Y22.220
M5
M5
G0 X74.789 Y22.220
M4 S300
G1 X76.696 Y22.220
M5
M5
G0 X77.426 Y22.220
M4 S300
G1 X77.917 Y22.220
M5
M5
G0 X79.281 Y22.220
M4 S300
G1 X79.770 Y22.220
M5
M5
G0 X80.461 Y22.220
M4 S300
G1 X80.924 Y22.220
M5
M5
G0 X81.073 Y22.220
M4 S300
G1 X81.840 Y22.220
M5
M5
G0 X82.521 Y22.220
M4 S300
G1 X84.348 Y22.220
M5
M5
G0 X25.268 Y22.400
M4 S300
G1 X25.756 Y22.400
M5
M5
G0 X26.479 Y22.400
M4 S300
G1 X26.939 Y22.400
M5
M5
G0 X27.309 Y22.400
M4 S300
G1 X28.503 Y22.400
M5
M5
G0 X29.198 Y22.400
M4 S300
G1 X30.671 Y22.400
M5
M5
G0 X30.999 Y22.400
M4 S300
G1 X31.461 Y22.400
M5
M5
G0 X31.744 Y22.400
M4 S300
G1 X32.384 Y22.400
M5
M5
G0 X33.234 Y22.400
M4 S300
G1 X34.667 Y22.400
M5
M5
G0 X36.115 Y22.400
M4 S300
G1 X37.564 Y22.400
M5
M5
G0 X38.247 Y22.400
M4 S300
G1 X39.617 Y22.400
M5
M5
G0 X40.043 Y22.400
M4 S300
G1 X40.505 Y22.400
M5
M5
G0 X40.788 Y22.400
M4 S300
G1 X41.428 Y22.400
M5
M5
G0 X41.838 Y22.400
M4 S300
G1 X42.329 Y22.400
M5
M5
G0 X43.693 Y22.400
M4 S300
G1 X44.182 Y22.400
M5
M5
G0 X45.343 Y22.400
M4 S300
G1 X46.615 Y22.400
M5
M5
G0 X47.291 Y22.400
M4 S300
G1 X48.661 Y22.400
M5
M5
G0 X49.075 Y22.400
M4 S300
G1 X49.566 Y22.400
M5
M5
G0 X50.931 Y22.400
M4 S300
G1 X51.419 Y22.400
M5
M5
G0 X52.105 Y22.400
M4 S300
G1 X52.566 Y22.400
M5
M5
G0 X52.849 Y22.400
M4 S300
G1 X53.490 Y22.400
M5
M5
G0 X54.414 Y22.400
M4 S300
G1 X55.759 Y22.400
M5
M5
G0 X58.923 Y22.400
M4 S300
G1 X60.325 Y22.400
M5
M5
G0 X61.159 Y22.400
M4 S300
G1 X62.632 Y22.400
M5
M5
G0 X64.461 Y22.400
M4 S300
G1 X64.935 Y22.400
M5
M5
G0 X65.271 Y22.400
M4 S300
G1 X66.452 Y22.400
M5
M5
G0 X67.487 Y22.400
M4 S300
G1 X67.975 Y22.400
M5
M5
G0 X69.193 Y22.400
M4 S300
G1 X70.539 Y22.400
M5
M5
G0 X72.136 Y22.400
M4 S300
G1 X73.569 Y22.400
M5
M5
G0 X75.017 Y22.400
M4 S300
G1 X76.466 Y22.400
M5
M5
G0 X77.426 Y22.400
M4 S300
G1 X77.917 Y22.400
M5
M5
G0 X79.281 Y22.400
M4 S300
G1 X79.770 Y22.400
M5
M5
G0 X80.455 Y22.400
M4 S300
G1 X80.917 Y22.400
M5
M5
G0 X81.200 Y22.400
M4 S300
G1 X81.840 Y22.400
M5
M5
G0 X82.764 Y22.400
M4 S300
G1 X84.110 Y22.400
M5
M5
G0 X29.610 Y22.580
M4 S300
G1 X30.098 Y22.580
M5
M5
G0 X38.623 Y22.580
M4 S300
G1 X39.075 Y22.580
M5
M5
G0 X47.667 Y22.580
M4 S300
G1 X48.119 Y22.580
M5
M5
G0 X61.572 Y22.580
M4 S300
G1 X62.060 Y22.580
M5
M5
G0 X67.487 Y22.580
M4 S300
G1 X67.975 Y22.580
M5
M5
G0 X29.610 Y22.760
M4 S300
G1 X30.098 Y22.760
M5
M5
G0 X38.663 Y22.760
M4 S300
G1 X39.075 Y22.760
M5
M5
G0 X47.707 Y22.760
M4 S300
G1 X48.119 Y22.760
M5
M5
G0 X61.572 Y22.760
M4 S300
G1 X62.060 Y22.760
M5
M5
G0 X67.487 Y22.760
M4 S300
G1 X67.975 Y22.760
M5
M5
G0 X29.614 Y22.940
M4 S300
G1 X30.113 Y22.940
M5
M5
G0 X38.702 Y22.940
M4 S300
G1 X39.075 Y22.940
M5
M5
G0 X47.746 Y22.940
M4 S300
G1 X48.119 Y22.940
M5
M5
G0 X61.575 Y22.940
M4 S300
G1 X62.074 Y22.940
M5
M5
G0 X67.487 Y22.940
M4 S300
G1 X67.975 Y22.940
M5
M5
G0 X29.640 Y23.120
M4 S300
G1 X30.197 Y23.120
M5
M5
G0 X38.741 Y23.120
M4 S300
G1 X39.075 Y23.120
M5
M5
G0 X47.785 Y23.120
M4 S300
G1 X48.119 Y23.120
M5
M5
G0 X61.601 Y23.120
M4 S300
G1 X62.158 Y23.120
M5
M5
G0 X67.487 Y23.120
M4 S300
G1 X67.975 Y23.120
M5
M5
G0 X25.268 Y23.300
M4 S300
G1 X25.756 Y23.300
M5
M5
G0 X29.707 Y23.300
M4 S300
G1 X30.671 Y23.300
M5
M5
G0 X61.669 Y23.300
M4 S300
G1 X62.632 Y23.300
M5
M5
G0 X67.487 Y23.300
M4 S300
G1 X67.975 Y23.300
M5
M5
G0 X25.268 Y23.480
M4 S300
G1 X25.756 Y23.480
M5
M5
G0 X29.881 Y23.480
M4 S300
G1 X30.671 Y23.480
M5
M5
G0 X61.842 Y23.480
M4 S300
G1 X62.632 Y23.480
M5
M5
G0 X67.487 Y23.480
M4 S300
G1 X67.975 Y23.480
M5
M5
G0 X22.819 Y24.560
M4 S300
G1 X23.644 Y24.560
M5
M5
G0 X45.733 Y24.560
M4 S300
G1 X46.559 Y24.560
M5
M5
G0 X65.933 Y24.560
M4 S300
G1 X67.319 Y24.560
M5
M5
G0 X22.819 Y24.740
M4 S300
G1 X23.840 Y24.740
M5
M5
G0 X45.733 Y24.740
M4 S300
G1 X46.755 Y24.740
M5
M5
G0 X65.703 Y24.740
M4 S300
G1 X67.560 Y24.740
M5
M5
G0 X23.409 Y24.920
M4 S300
G1 X23.971 Y24.920
M5
M5
G0 X46.324 Y24.920
M4 S300
G1 X46.886 Y24.920
M5
M5
G0 X65.579 Y24.920
M4 S300
G1 X66.169 Y24.920
M5
M5
G0 X67.106 Y24.920
M4 S300
G1 X67.692 Y24.920
M5
M5
G0 X23.575 Y25.100
M4 S300
G1 X24.072 Y25.100
M5
M5
G0 X46.490 Y25.100
M4 S300
G1 X46.987 Y25.100
M5
M5
G0 X65.510 Y25.100
M4 S300
G1 X66.027 Y25.100
M5
M5
G0 X67.258 Y25.100
M4 S300
G1 X67.775 Y25.100
M5
M5
G0 X23.686 Y25.280
M4 S300
G1 X24.157 Y25.280
M5
M5
G0 X46.601 Y25.280
M4 S300
G1 X47.072 Y25.280
M5
M5
G0 X67.329 Y25.280
M4 S300
G1 X67.824 Y25.280
M5
M5
G0 X23.768 Y25.460
M4 S300
G1 X24.234 Y25.460
M5
M5
G0 X46.682 Y25.460
M4 S300
G1 X47.149 Y25.460
M5
M5
G0 X67.362 Y25.460
M4 S300
G1 X67.845 Y25.460
M5
M5
G0 X18.503 Y25.640
M4 S300
G1 X18.988 Y25.640
M5
M5
G0 X20.201 Y25.640
M4 S300
G1 X20.683 Y25.640
M5
M5
G0 X21.896 Y25.640
M4 S300
G1 X22.379 Y25.640
M5
M5
G0 X23.789 Y25.640
M4 S300
G1 X24.305 Y25.640
M5
M5
G0 X25.986 Y25.640
M4 S300
G1 X27.446 Y25.640
M5
M5
G0 X28.680 Y25.640
M4 S300
G1 X29.565 Y25.640
M5
M5
G0 X30.488 Y25.640
M4 S300
G1 X31.819 Y25.640
M5
M5
G0 X32.972 Y25.640
M4 S300
G1 X33.460 Y25.640
M5
M5
G0 X34.765 Y25.640
M4 S300
G1 X35.253 Y25.640
M5
M5
G0 X36.495 Y25.640
M4 S300
G1 X37.783 Y25.640
M5
M5
G0 X39.338 Y25.640
M4 S300
G1 X40.464 Y25.640
M5
M5
G0 X40.870 Y25.640
M4 S300
G1 X41.330 Y25.640
M5
M5
G0 X42.270 Y25.640
M4 S300
G1 X43.730 Y25.640
M5
M5
G0 X44.721 Y25.640
M4 S300
G1 X45.209 Y25.640
M5
M5
G0 X46.704 Y25.640
M4 S300
G1 X47.219 Y25.640
M5
M5
G0 X50.157 Y25.640
M4 S300
G1 X50.642 Y25.640
M5
M5
G0 X51.855 Y25.640
M4 S300
G1 X52.338 Y25.640
M5
M5
G0 X53.550 Y25.640
M4 S300
G1 X54.033 Y25.640
M5
M5
G0 X54.663 Y25.640
M4 S300
G1 X55.151 Y25.640
M5
M5
G0 X56.132 Y25.640
M4 S300
G1 X57.593 Y25.640
M5
M5
G0 X58.845 Y25.640
M4 S300
G1 X60.306 Y25.640
M5
M5
G0 X61.293 Y25.640
M4 S300
G1 X61.782 Y25.640
M5
M5
G0 X62.512 Y25.640
M4 S300
G1 X63.000 Y25.640
M5
M5
G0 X64.365 Y25.640
M4 S300
G1 X64.856 Y25.640
M5
M5
G0 X65.943 Y25.640
M4 S300
G1 X66.903 Y25.640
M5
M5
G0 X67.374 Y25.640
M4 S300
G1 X67.859 Y25.640
M5
M5
G0 X70.461 Y25.640
M4 S300
G1 X71.067 Y25.640
M5
M5
G0 X72.268 Y25.640
M4 S300
G1 X72.875 Y25.640
M5
M5
G0 X73.972 Y25.640
M4 S300
G1 X74.460 Y25.640
M5
M5
G0 X75.825 Y25.640
M4 S300
G1 X76.316 Y25.640
M5
M5
G0 X77.523 Y25.640
M4 S300
G1 X78.854 Y25.640
M5
M5
G0 X80.007 Y25.640
M4 S300
G1 X80.495 Y25.640
M5
M5
G0 X81.859 Y25.640
M4 S300
G1 X82.350 Y25.640
M5
M5
G0 X84.765 Y25.640
M4 S300
G1 X85.649 Y25.640
M5
M5
G0 X86.039 Y25.640
M4 S300
G1 X86.527 Y25.640
M5
M5
G0 X87.891 Y25.640
M4 S300
G1 X88.382 Y25.640
M5
M5
G0 X89.589 Y25.640
M4 S300
G1 X90.921 Y25.640
M5
M5
G0 X18.503 Y25.820
M4 S300
G1 X18.988 Y25.820
M5
M5
G0 X20.201 Y25.820
M4 S300
G1 X20.683 Y25.820
M5
M5
G0 X21.896 Y25.820
M4 S300
G1 X22.379 Y25.820
M5
M5
G0 X23.717 Y25.820
M4 S300
G1 X24.374 Y25.820
M5
M5
G0 X25.729 Y25.820
M4 S300
G1 X27.712 Y25.820
M5
M5
G0 X28.552 Y25.820
M4 S300
G1 X29.565 Y25.820
M5
M5
G0 X30.224 Y25.820
M4 S300
G1 X32.079 Y25.820
M5
M5
G0 X32.972 Y25.820
M4 S300
G1 X33.460 Y25.820
M5
M5
G0 X34.765 Y25.820
M4 S300
G1 X35.253 Y25.820
M5
M5
G0 X36.239 Y25.820
M4 S300
G1 X38.048 Y25.820
M5
M5
G0 X39.145 Y25.820
M4 S300
G1 X40.676 Y25.820
M5
M5
G0 X40.861 Y25.820
M4 S300
G1 X41.324 Y25.820
M5
M5
G0 X42.013 Y25.820
M4 S300
G1 X43.996 Y25.820
M5
M5
G0 X44.721 Y25.820
M4 S300
G1 X45.209 Y25.820
M5
M5
G0 X46.632 Y25.820
M4 S300
G1 X47.288 Y25.820
M5
M5
G0 X50.157 Y25.820
M4 S300
G1 X50.642 Y25.820
M5
M5
G0 X51.855 Y25.820
M4 S300
G1 X52.338 Y25.820
M5
M5
G0 X53.550 Y25.820
M4 S300
G1 X54.033 Y25.820
M5
M5
G0 X54.663 Y25.820
M4 S300
G1 X55.151 Y25.820
M5
M5
G0 X55.875 Y25.820
M4 S300
G1 X57.859 Y25.820
M5
M5
G0 X58.588 Y25.820
M4 S300
G1 X60.572 Y25.820
M5
M5
G0 X61.293 Y25.820
M4 S300
G1 X61.782 Y25.820
M5
M5
G0 X62.512 Y25.820
M4 S300
G1 X63.000 Y25.820
M5
M5
G0 X64.365 Y25.820
M4 S300
G1 X64.856 Y25.820
M5
M5
G0 X65.697 Y25.820
M4 S300
G1 X67.164 Y25.820
M5
M5
G0 X67.374 Y25.820
M4 S300
G1 X67.860 Y25.820
M5
M5
G0 X70.411 Y25.820
M4 S300
G1 X71.113 Y25.820
M5
M5
G0 X72.223 Y25.820
M4 S300
G1 X72.927 Y25.820
M5
M5
G0 X73.972 Y25.820
M4 S300
G1 X74.460 Y25.820
M5
M5
G0 X75.825 Y25.820
M4 S300
G1 X76.316 Y25.820
M5
M5
G0 X77.259 Y25.820
M4 S300
G1 X79.114 Y25.820
M5
M5
G0 X80.007 Y25.820
M4 S300
G1 X80.495 Y25.820
M5
M5
G0 X81.859 Y25.820
M4 S300
G1 X82.350 Y25.820
M5
M5
G0 X84.637 Y25.820
M4 S300
G1 X85.649 Y25.820
M5
M5
G0 X86.039 Y25.820
M4 S300
G1 X86.527 Y25.820
M5
M5
G0 X87.891 Y25.820
M4 S300
G1 X88.382 Y25.820
M5
M5
G0 X89.325 Y25.820
M4 S300
G1 X91.181 Y25.820
M5
M5
G0 X18.503 Y26.000
M4 S300
G1 X18.988 Y26.000
M5
M5
G0 X20.201 Y26.000
M4 S300
G1 X20.683 Y26.000
M5
M5
G0 X21.896 Y26.000
M4 S300
G1 X22.379 Y26.000
M5
M5
G0 X23.646 Y26.000
M4 S300
G1 X24.443 Y26.000
M5
M5
G0 X25.599 Y26.000
M4 S300
G1 X26.179 Y26.000
M5
M5
G0 X27.286 Y26.000
M4 S300
G1 X27.842 Y26.000
M5
M5
G0 X28.499 Y26.000
M4 S300
G1 X29.038 Y26.000
M5
M5
G0 X30.068 Y26.000
M4 S300
G1 X30.686 Y26.000
M5
M5
G0 X31.641 Y26.000
M4 S300
G1 X32.230 Y26.000
M5
M5
G0 X32.972 Y26.000
M4 S300
G1 X33.460 Y26.000
M5
M5
G0 X34.765 Y26.000
M4 S300
G1 X35.253 Y26.000
M5
M5
G0 X36.088 Y26.000
M4 S300
G1 X36.686 Y26.000
M5
M5
G0 X37.604 Y26.000
M4 S300
G1 X38.204 Y26.000
M5
M5
G0 X39.055 Y26.000
M4 S300
G1 X39.647 Y26.000
M5
M5
G0 X40.484 Y26.000
M4 S300
G1 X40.807 Y26.000
M5
M5
G0 X40.856 Y26.000
M4 S300
G1 X41.321 Y26.000
M5
M5
G0 X41.883 Y26.000
M4 S300
G1 X42.463 Y26.000
M5
M5
G0 X43.570 Y26.000
M4 S300
G1 X44.126 Y26.000
M5
M5
G0 X44.721 Y26.000
M4 S300
G1 X45.209 Y26.000
M5
M5
G0 X46.560 Y26.000
M4 S300
G1 X47.358 Y26.000
M5
M5
G0 X50.157 Y26.000
M4 S300
G1 X50.642 Y26.000
M5
M5
G0 X51.855 Y26.000
M4 S300
G1 X52.338 Y26.000
M5
M5
G0 X53.550 Y26.000
M4 S300
G1 X54.033 Y26.000
M5
M5
G0 X54.663 Y26.000
M4 S300
G1 X55.151 Y26.000
M5
M5
G0 X55.746 Y26.000
M4 S300
G1 X56.326 Y26.000
M5
M5
G0 X57.433 Y26.000
M4 S300
G1 X57.989 Y26.000
M5
M5
G0 X58.458 Y26.000
M4 S300
G1 X59.038 Y26.000
M5
M5
G0 X60.146 Y26.000
M4 S300
G1 X60.702 Y26.000
M5
M5
G0 X61.293 Y26.000
M4 S300
G1 X61.782 Y26.000
M5
M5
G0 X62.512 Y26.000
M4 S300
G1 X63.000 Y26.000
M5
M5
G0 X64.365 Y26.000
M4 S300
G1 X64.856 Y26.000
M5
M5
G0 X65.570 Y26.000
M4 S300
G1 X66.205 Y26.000
M5
M5
G0 X66.943 Y26.000
M4 S300
G1 X67.307 Y26.000
M5
M5
G0 X67.374 Y26.000
M4 S300
G1 X67.860 Y26.000
M5
M5
G0 X70.361 Y26.000
M4 S300
G1 X70.750 Y26.000
M5
M5
G0 X70.764 Y26.000
M4 S300
G1 X71.159 Y26.000
M5
M5
G0 X72.179 Y26.000
M4 S300
G1 X72.569 Y26.000
M5
M5
G0 X72.584 Y26.000
M4 S300
G1 X72.978 Y26.000
M5
M5
G0 X73.972 Y26.000
M4 S300
G1 X74.460 Y26.000
M5
M5
G0 X75.825 Y26.000
M4 S300
G1 X76.316 Y26.000
M5
M5
G0 X77.102 Y26.000
M4 S300
G1 X77.721 Y26.000
M5
M5
G0 X78.675 Y26.000
M4 S300
G1 X79.265 Y26.000
M5
M5
G0 X80.007 Y26.000
M4 S300
G1 X80.495 Y26.000
M5
M5
G0 X81.859 Y26.000
M4 S300
G1 X82.350 Y26.000
M5
M5
G0 X84.583 Y26.000
M4 S300
G1 X85.123 Y26.000
M5
M5
G0 X86.039 Y26.000
M4 S300
G1 X86.527 Y26.000
M5
M5
G0 X87.891 Y26.000
M4 S300
G1 X88.382 Y26.000
M5
M5
G0 X89.169 Y26.000
M4 S300
G1 X89.788 Y26.000
M5
M5
G0 X90.742 Y26.000
M4 S300
G1 X91.331 Y26.000
M5
M5
G0 X18.503 Y26.180
M4 S300
G1 X18.988 Y26.180
M5
M5
G0 X20.201 Y26.180
M4 S300
G1 X20.683 Y26.180
M5
M5
G0 X21.896 Y26.180
M4 S300
G1 X22.379 Y26.180
M5
M5
G0 X23.574 Y26.180
M4 S300
G1 X24.029 Y26.180
M5
M5
G0 X24.086 Y26.180
M4 S300
G1 X24.512 Y26.180
M5
M5
G0 X25.525 Y26.180
M4 S300
G1 X26.000 Y26.180
M5
M5
G0 X27.426 Y26.180
M4 S300
G1 X27.906 Y26.180
M5
M5
G0 X28.486 Y26.180
M4 S300
G1 X28.979 Y26.180
M5
M5
G0 X29.967 Y26.180
M4 S300
G1 X30.507 Y26.180
M5
M5
G0 X31.830 Y26.180
M4 S300
G1 X32.322 Y26.180
M5
M5
G0 X32.972 Y26.180
M4 S300
G1 X33.460 Y26.180
M5
M5
G0 X34.765 Y26.180
M4 S300
G1 X35.253 Y26.180
M5
M5
G0 X35.989 Y26.180
M4 S300
G1 X36.523 Y26.180
M5
M5
G0 X37.770 Y26.180
M4 S300
G1 X38.302 Y26.180
M5
M5
G0 X39.008 Y26.180
M4 S300
G1 X39.528 Y26.180
M5
M5
G0 X40.667 Y26.180
M4 S300
G1 X41.321 Y26.180
M5
M5
G0 X41.809 Y26.180
M4 S300
G1 X42.284 Y26.180
M5
M5
G0 X43.710 Y26.180
M4 S300
G1 X44.190 Y26.180
M5
M5
G0 X44.721 Y26.180
M4 S300
G1 X45.209 Y26.180
M5
M5
G0 X46.489 Y26.180
M4 S300
G1 X46.944 Y26.180
M5
M5
G0 X47.000 Y26.180
M4 S300
G1 X47.427 Y26.180
M5
M5
G0 X50.157 Y26.180
M4 S300
G1 X50.642 Y26.180
M5
M5
G0 X51.855 Y26.180
M4 S300
G1 X52.338 Y26.180
M5
M5
G0 X53.550 Y26.180
M4 S300
G1 X54.033 Y26.180
M5
M5
G0 X54.663 Y26.180
M4 S300
G1 X55.151 Y26.180
M5
M5
G0 X55.672 Y26.180
M4 S300
G1 X56.147 Y26.180
M5
M5
G0 X57.573 Y26.180
M4 S300
G1 X58.052 Y26.180
M5
M5
G0 X58.384 Y26.180
M4 S300
G1 X58.860 Y26.180
M5
M5
G0 X60.285 Y26.180
M4 S300
G1 X60.765 Y26.180
M5
M5
G0 X61.293 Y26.180
M4 S300
G1 X61.782 Y26.180
M5
M5
G0 X62.512 Y26.180
M4 S300
G1 X63.000 Y26.180
M5
M5
G0 X64.365 Y26.180
M4 S300
G1 X64.856 Y26.180
M5
M5
G0 X65.493 Y26.180
M4 S300
G1 X66.035 Y26.180
M5
M5
G0 X67.141 Y26.180
M4 S300
G1 X67.860 Y26.180
M5
M5
G0 X70.310 Y26.180
M4 S300
G1 X70.712 Y26.180
M5
M5
G0 X70.806 Y26.180
M4 S300
G1 X71.205 Y26.180
M5
M5
G0 X72.134 Y26.180
M4 S300
G1 X72.525 Y26.180
M5
M5
G0 X72.624 Y26.180
M4 S300
G1 X73.030 Y26.180
M5
M5
G0 X73.972 Y26.180
M4 S300
G1 X74.460 Y26.180
M5
M5
G0 X75.825 Y26.180
M4 S300
G1 X76.316 Y26.180
M5
M5
G0 X77.001 Y26.180
M4 S300
G1 X77.542 Y26.180
M5
M5
G0 X78.865 Y26.180
M4 S300
G1 X79.357 Y26.180
M5
M5
G0 X80.007 Y26.180
M4 S300
G1 X80.495 Y26.180
M5
M5
G0 X81.859 Y26.180
M4 S300
G1 X82.350 Y26.180
M5
M5
G0 X84.570 Y26.180
M4 S300
G1 X85.063 Y26.180
M5
M5
G0 X86.039 Y26.180
M4 S300
G1 X86.527 Y26.180
M5
M5
G0 X87.891 Y26.180
M4 S300
G1 X88.382 Y26.180
M5
M5
G0 X89.068 Y26.180
M4 S300
G1 X89.608 Y26.180
M5
M5
G0 X90.931 Y26.180
M4 S300
G1 X91.423 Y26.180
M5
M5
G0 X18.503 Y26.360
M4 S300
G1 X18.988 Y26.360
M5
M5
G0 X20.201 Y26.360
M4 S300
G1 X20.683 Y26.360
M5
M5
G0 X21.896 Y26.360
M4 S300
G1 X22.379 Y26.360
M5
M5
G0 X23.502 Y26.360
M4 S300
G1 X23.969 Y26.360
M5
M5
G0 X24.150 Y26.360
M4 S300
G1 X24.581 Y26.360
M5
M5
G0 X27.451 Y26.360
M4 S300
G1 X27.926 Y26.360
M5
M5
G0 X28.485 Y26.360
M4 S300
G1 X28.974 Y26.360
M5
M5
G0 X29.899 Y26.360
M4 S300
G1 X30.412 Y26.360
M5
M5
G0 X32.972 Y26.360
M4 S300
G1 X33.460 Y26.360
M5
M5
G0 X34.765 Y26.360
M4 S300
G1 X35.253 Y26.360
M5
M5
G0 X35.922 Y26.360
M4 S300
G1 X36.439 Y26.360
M5
M5
G0 X37.853 Y26.360
M4 S300
G1 X38.368 Y26.360
M5
M5
G0 X38.985 Y26.360
M4 S300
G1 X39.485 Y26.360
M5
M5
G0 X40.762 Y26.360
M4 S300
G1 X41.321 Y26.360
M5
M5
G0 X43.735 Y26.360
M4 S300
G1 X44.210 Y26.360
M5
M5
G0 X44.721 Y26.360
M4 S300
G1 X45.209 Y26.360
M5
M5
G0 X46.417 Y26.360
M4 S300
G1 X46.883 Y26.360
M5
M5
G0 X47.064 Y26.360
M4 S300
G1 X47.496 Y26.360
M5
M5
G0 X50.157 Y26.360
M4 S300
G1 X50.642 Y26.360
M5
M5
G0 X51.855 Y26.360
M4 S300
G1 X52.338 Y26.360
M5
M5
G0 X53.550 Y26.360
M4 S300
G1 X54.033 Y26.360
M5
M5
G0 X54.663 Y26.360
M4 S300
G1 X55.151 Y26.360
M5
M5
G0 X57.597 Y26.360
M4 S300
G1 X58.072 Y26.360
M5
M5
G0 X60.310 Y26.360
M4 S300
G1 X60.785 Y26.360
M5
M5
G0 X61.293 Y26.360
M4 S300
G1 X61.782 Y26.360
M5
M5
G0 X62.512 Y26.360
M4 S300
G1 X63.000 Y26.360
M5
M5
G0 X64.365 Y26.360
M4 S300
G1 X64.856 Y26.360
M5
M5
G0 X65.443 Y26.360
M4 S300
G1 X65.959 Y26.360
M5
M5
G0 X67.248 Y26.360
M4 S300
G1 X67.860 Y26.360
M5
M5
G0 X70.260 Y26.360
M4 S300
G1 X70.674 Y26.360
M5
M5
G0 X70.853 Y26.360
M4 S300
G1 X71.251 Y26.360
M5
M5
G0 X72.090 Y26.360
M4 S300
G1 X72.482 Y26.360
M5
M5
G0 X72.665 Y26.360
M4 S300
G1 X73.082 Y26.360
M5
M5
G0 X73.972 Y26.360
M4 S300
G1 X74.460 Y26.360
M5
M5
G0 X75.825 Y26.360
M4 S300
G1 X76.316 Y26.360
M5
M5
G0 X76.933 Y26.360
M4 S300
G1 X77.446 Y26.360
M5
M5
G0 X80.007 Y26.360
M4 S300
G1 X80.495 Y26.360
M5
M5
G0 X81.859 Y26.360
M4 S300
G1 X82.350 Y26.360
M5
M5
G0 X84.569 Y26.360
M4 S300
G1 X85.058 Y26.360
M5
M5
G0 X86.039 Y26.360
M4 S300
G1 X86.527 Y26.360
M5
M5
G0 X87.891 Y26.360
M4 S300
G1 X88.382 Y26.360
M5
M5
G0 X89.000 Y26.360
M4 S300
G1 X89.513 Y26.360
M5
M5
G0 X18.503 Y26.540
M4 S300
G1 X18.988 Y26.540
M5
M5
G0 X20.201 Y26.540
M4 S300
G1 X20.683 Y26.540
M5
M5
G0 X21.896 Y26.540
M4 S300
G1 X22.379 Y26.540
M5
M5
G0 X23.431 Y26.540
M4 S300
G1 X23.907 Y26.540
M5
M5
G0 X24.213 Y26.540
M4 S300
G1 X24.651 Y26.540
M5
M5
G0 X27.398 Y26.540
M4 S300
G1 X27.911 Y26.540
M5
M5
G0 X28.485 Y26.540
M4 S300
G1 X28.974 Y26.540
M5
M5
G0 X29.853 Y26.540
M4 S300
G1 X30.356 Y26.540
M5
M5
G0 X32.972 Y26.540
M4 S300
G1 X33.460 Y26.540
M5
M5
G0 X34.765 Y26.540
M4 S300
G1 X35.253 Y26.540
M5
M5
G0 X35.878 Y26.540
M4 S300
G1 X36.390 Y26.540
M5
M5
G0 X37.900 Y26.540
M4 S300
G1 X38.411 Y26.540
M5
M5
G0 X38.977 Y26.540
M4 S300
G1 X39.470 Y26.540
M5
M5
G0 X40.810 Y26.540
M4 S300
G1 X41.321 Y26.540
M5
M5
G0 X43.682 Y26.540
M4 S300
G1 X44.195 Y26.540
M5
M5
G0 X44.721 Y26.540
M4 S300
G1 X45.209 Y26.540
M5
M5
G0 X46.345 Y26.540
M4 S300
G1 X46.822 Y26.540
M5
M5
G0 X47.128 Y26.540
M4 S300
G1 X47.565 Y26.540
M5
M5
G0 X50.157 Y26.540
M4 S300
G1 X50.642 Y26.540
M5
M5
G0 X51.855 Y26.540
M4 S300
G1 X52.338 Y26.540
M5
M5
G0 X53.550 Y26.540
M4 S300
G1 X54.033 Y26.540
M5
M5
G0 X54.663 Y26.540
M4 S300
G1 X55.151 Y26.540
M5
M5
G0 X57.544 Y26.540
M4 S300
G1 X58.058 Y26.540
M5
M5
G0 X60.257 Y26.540
M4 S300
G1 X60.771 Y26.540
M5
M5
G0 X61.293 Y26.540
M4 S300
G1 X61.782 Y26.540
M5
M5
G0 X62.512 Y26.540
M4 S300
G1 X63.000 Y26.540
M5
M5
G0 X64.365 Y26.540
M4 S300
G1 X64.856 Y26.540
M5
M5
G0 X65.410 Y26.540
M4 S300
G1 X65.918 Y26.540
M5
M5
G0 X67.313 Y26.540
M4 S300
G1 X67.860 Y26.540
M5
M5
G0 X70.209 Y26.540
M4 S300
G1 X70.631 Y26.540
M5
M5
G0 X70.901 Y26.540
M4 S300
G1 X71.297 Y26.540
M5
M5
G0 X72.045 Y26.540
M4 S300
G1 X72.438 Y26.540
M5
M5
G0 X72.711 Y26.540
M4 S300
G1 X73.133 Y26.540
M5
M5
G0 X73.972 Y26.540
M4 S300
G1 X74.460 Y26.540
M5
M5
G0 X75.825 Y26.540
M4 S300
G1 X76.316 Y26.540
M5
M5
G0 X76.888 Y26.540
M4 S300
G1 X77.391 Y26.540
M5
M5
G0 X80.007 Y26.540
M4 S300
G1 X80.495 Y26.540
M5
M5
G0 X81.859 Y26.540
M4 S300
G1 X82.350 Y26.540
M5
M5
G0 X84.569 Y26.540
M4 S300
G1 X85.058 Y26.540
M5
M5
G0 X86.039 Y26.540
M4 S300
G1 X86.527 Y26.540
M5
M5
G0 X87.891 Y26.540
M4 S300
G1 X88.382 Y26.540
M5
M5
G0 X88.955 Y26.540
M4 S300
G1 X89.458 Y26.540
M5
M5
G0 X18.503 Y26.720
M4 S300
G1 X18.988 Y26.720
M5
M5
G0 X20.201 Y26.720
M4 S300
G1 X20.683 Y26.720
M5
M5
G0 X21.896 Y26.720
M4 S300
G1 X22.379 Y26.720
M5
M5
G0 X23.359 Y26.720
M4 S300
G1 X23.845 Y26.720
M5
M5
G0 X24.276 Y26.720
M4 S300
G1 X24.720 Y26.720
M5
M5
G0 X27.171 Y26.720
M4 S300
G1 X27.851 Y26.720
M5
M5
G0 X28.485 Y26.720
M4 S300
G1 X28.974 Y26.720
M5
M5
G0 X29.825 Y26.720
M4 S300
G1 X30.329 Y26.720
M5
M5
G0 X32.972 Y26.720
M4 S300
G1 X33.460 Y26.720
M5
M5
G0 X34.765 Y26.720
M4 S300
G1 X35.253 Y26.720
M5
M5
G0 X35.850 Y26.720
M4 S300
G1 X36.361 Y26.720
M5
M5
G0 X37.927 Y26.720
M4 S300
G1 X38.437 Y26.720
M5
M5
G0 X38.977 Y26.720
M4 S300
G1 X39.468 Y26.720
M5
M5
G0 X40.830 Y26.720
M4 S300
G1 X41.321 Y26.720
M5
M5
G0 X43.455 Y26.720
M4 S300
G1 X44.135 Y26.720
M5
M5
G0 X44.721 Y26.720
M4 S300
G1 X45.209 Y26.720
M5
M5
G0 X46.274 Y26.720
M4 S300
G1 X46.760 Y26.720
M5
M5
G0 X47.191 Y26.720
M4 S300
G1 X47.634 Y26.720
M5
M5
G0 X50.157 Y26.720
M4 S300
G1 X50.642 Y26.720
M5
M5
G0 X51.855 Y26.720
M4 S300
G1 X52.338 Y26.720
M5
M5
G0 X53.550 Y26.720
M4 S300
G1 X54.033 Y26.720
M5
M5
G0 X54.663 Y26.720
M4 S300
G1 X55.151 Y26.720
M5
M5
G0 X57.318 Y26.720
M4 S300
G1 X57.998 Y26.720
M5
M5
G0 X60.030 Y26.720
M4 S300
G1 X60.711 Y26.720
M5
M5
G0 X61.293 Y26.720
M4 S300
G1 X61.782 Y26.720
M5
M5
G0 X62.512 Y26.720
M4 S300
G1 X63.000 Y26.720
M5
M5
G0 X64.365 Y26.720
M4 S300
G1 X64.856 Y26.720
M5
M5
G0 X65.390 Y26.720
M4 S300
G1 X65.895 Y26.720
M5
M5
G0 X67.351 Y26.720
M4 S300
G1 X67.860 Y26.720
M5
M5
G0 X70.159 Y26.720
M4 S300
G1 X70.587 Y26.720
M5
M5
G0 X70.948 Y26.720
M4 S300
G1 X71.343 Y26.720
M5
M5
G0 X72.001 Y26.720
M4 S300
G1 X72.392 Y26.720
M5
M5
G0 X72.758 Y26.720
M4 S300
G1 X73.185 Y26.720
M5
M5
G0 X73.972 Y26.720
M4 S300
G1 X74.460 Y26.720
M5
M5
G0 X75.825 Y26.720
M4 S300
G1 X76.316 Y26.720
M5
M5
G0 X76.860 Y26.720
M4 S300
G1 X77.364 Y26.720
M5
M5
G0 X80.007 Y26.720
M4 S300
G1 X80.495 Y26.720
M5
M5
G0 X81.859 Y26.720
M4 S300
G1 X82.350 Y26.720
M5
M5
G0 X84.569 Y26.720
M4 S300
G1 X85.058 Y26.720
M5
M5
G0 X86.039 Y26.720
M4 S300
G1 X86.527 Y26.720
M5
M5
G0 X87.891 Y26.720
M4 S300
G1 X88.382 Y26.720
M5
M5
G0 X88.927 Y26.720
M4 S300
G1 X89.431 Y26.720
M5
M5
G0 X18.503 Y26.900
M4 S300
G1 X18.988 Y26.900
M5
M5
G0 X20.201 Y26.900
M4 S300
G1 X20.683 Y26.900
M5
M5
G0 X21.896 Y26.900
M4 S300
G1 X22.379 Y26.900
M5
M5
G0 X23.287 Y26.900
M4 S300
G1 X23.781 Y26.900
M5
M5
G0 X24.338 Y26.900
M4 S300
G1 X24.789 Y26.900
M5
M5
G0 X26.560 Y26.900
M4 S300
G1 X27.725 Y26.900
M5
M5
G0 X28.485 Y26.900
M4 S300
G1 X28.974 Y26.900
M5
M5
G0 X29.811 Y26.900
M4 S300
G1 X30.319 Y26.900
M5
M5
G0 X32.972 Y26.900
M4 S300
G1 X33.460 Y26.900
M5
M5
G0 X34.765 Y26.900
M4 S300
G1 X35.253 Y26.900
M5
M5
G0 X35.837 Y26.900
M4 S300
G1 X36.348 Y26.900
M5
M5
G0 X37.939 Y26.900
M4 S300
G1 X38.451 Y26.900
M5
M5
G0 X38.977 Y26.900
M4 S300
G1 X39.468 Y26.900
M5
M5
G0 X40.832 Y26.900
M4 S300
G1 X41.321 Y26.900
M5
M5
G0 X42.844 Y26.900
M4 S300
G1 X44.009 Y26.900
M5
M5
G0 X44.721 Y26.900
M4 S300
G1 X45.209 Y26.900
M5
M5
G0 X46.202 Y26.900
M4 S300
G1 X46.695 Y26.900
M5
M5
G0 X47.253 Y26.900
M4 S300
G1 X47.704 Y26.900
M5
M5
G0 X50.157 Y26.900
M4 S300
G1 X50.642 Y26.900
M5
M5
G0 X51.855 Y26.900
M4 S300
G1 X52.338 Y26.900
M5
M5
G0 X53.550 Y26.900
M4 S300
G1 X54.033 Y26.900
M5
M5
G0 X54.663 Y26.900
M4 S300
G1 X55.151 Y26.900
M5
M5
G0 X56.707 Y26.900
M4 S300
G1 X57.872 Y26.900
M5
M5
G0 X59.420 Y26.900
M4 S300
G1 X60.584 Y26.900
M5
M5
G0 X61.293 Y26.900
M4 S300
G1 X61.782 Y26.900
M5
M5
G0 X62.512 Y26.900
M4 S300
G1 X63.000 Y26.900
M5
M5
G0 X64.365 Y26.900
M4 S300
G1 X64.856 Y26.900
M5
M5
G0 X65.381 Y26.900
M4 S300
G1 X65.885 Y26.900
M5
M5
G0 X67.370 Y26.900
M4 S300
G1 X67.860 Y26.900
M5
M5
G0 X70.109 Y26.900
M4 S300
G1 X70.542 Y26.900
M5
M5
G0 X70.995 Y26.900
M4 S300
G1 X71.389 Y26.900
M5
M5
G0 X71.956 Y26.900
M4 S300
G1 X72.346 Y26.900
M5
M5
G0 X72.804 Y26.900
M4 S300
G1 X73.236 Y26.900
M5
M5
G0 X73.972 Y26.900
M4 S300
G1 X74.460 Y26.900
M5
M5
G0 X75.825 Y26.900
M4 S300
G1 X76.316 Y26.900
M5
M5
G0 X76.845 Y26.900
M4 S300
G1 X77.354 Y26.900
M5
M5
G0 X80.007 Y26.900
M4 S300
G1 X80.495 Y26.900
M5
M5
G0 X81.859 Y26.900
M4 S300
G1 X82.350 Y26.900
M5
M5
G0 X84.569 Y26.900
M4 S300
G1 X85.058 Y26.900
M5
M5
G0 X86.039 Y26.900
M4 S300
G1 X86.527 Y26.900
M5
M5
G0 X87.891 Y26.900
M4 S300
G1 X88.382 Y26.900
M5
M5
G0 X88.912 Y26.900
M4 S300
G1 X89.420 Y26.900
M5
M5
G0 X18.503 Y27.080
M4 S300
G1 X18.988 Y27.080
M5
M5
G0 X20.201 Y27.080
M4 S300
G1 X20.683 Y27.080
M5
M5
G0 X21.896 Y27.080
M4 S300
G1 X22.379 Y27.080
M5
M5
G0 X23.215 Y27.080
M4 S300
G1 X23.712 Y27.080
M5
M5
G0 X24.400 Y27.080
M4 S300
G1 X24.858 Y27.080
M5
M5
G0 X26.042 Y27.080
M4 S300
G1 X27.468 Y27.080
M5
M5
G0 X28.485 Y27.080
M4 S300
G1 X28.974 Y27.080
M5
M5
G0 X29.807 Y27.080
M4 S300
G1 X32.407 Y27.080
M5
M5
G0 X32.972 Y27.080
M4 S300
G1 X33.460 Y27.080
M5
M5
G0 X34.765 Y27.080
M4 S300
G1 X35.253 Y27.080
M5
M5
G0 X35.835 Y27.080
M4 S300
G1 X36.346 Y27.080
M5
M5
G0 X37.941 Y27.080
M4 S300
G1 X38.454 Y27.080
M5
M5
G0 X38.977 Y27.080
M4 S300
G1 X39.468 Y27.080
M5
M5
G0 X40.832 Y27.080
M4 S300
G1 X41.321 Y27.080
M5
M5
G0 X42.326 Y27.080
M4 S300
G1 X43.752 Y27.080
M5
M5
G0 X44.721 Y27.080
M4 S300
G1 X45.209 Y27.080
M5
M5
G0 X46.130 Y27.080
M4 S300
G1 X46.627 Y27.080
M5
M5
G0 X47.315 Y27.080
M4 S300
G1 X47.773 Y27.080
M5
M5
G0 X50.157 Y27.080
M4 S300
G1 X50.642 Y27.080
M5
M5
G0 X51.855 Y27.080
M4 S300
G1 X52.338 Y27.080
M5
M5
G0 X53.550 Y27.080
M4 S300
G1 X54.033 Y27.080
M5
M5
G0 X54.663 Y27.080
M4 S300
G1 X55.151 Y27.080
M5
M5
G0 X56.189 Y27.080
M4 S300
G1 X57.615 Y27.080
M5
M5
G0 X58.902 Y27.080
M4 S300
G1 X60.327 Y27.080
M5
M5
G0 X61.293 Y27.080
M4 S300
G1 X61.782 Y27.080
M5
M5
G0 X62.512 Y27.080
M4 S300
G1 X63.000 Y27.080
M5
M5
G0 X64.365 Y27.080
M4 S300
G1 X64.856 Y27.080
M5
M5
G0 X65.379 Y27.080
M4 S300
G1 X65.883 Y27.080
M5
M5
G0 X67.373 Y27.080
M4 S300
G1 X67.860 Y27.080
M5
M5
G0 X70.058 Y27.080
M4 S300
G1 X70.497 Y27.080
M5
M5
G0 X71.043 Y27.080
M4 S300
G1 X71.435 Y27.080
M5
M5
G0 X71.912 Y27.080
M4 S300
G1 X72.300 Y27.080
M5
M5
G0 X72.851 Y27.080
M4 S300
G1 X73.288 Y27.080
M5
M5
G0 X73.972 Y27.080
M4 S300
G1 X74.460 Y27.080
M5
M5
G0 X75.825 Y27.080
M4 S300
G1 X76.316 Y27.080
M5
M5
G0 X76.841 Y27.080
M4 S300
G1 X79.442 Y27.080
M5
M5
G0 X80.007 Y27.080
M4 S300
G1 X80.495 Y27.080
M5
M5
G0 X81.859 Y27.080
M4 S300
G1 X82.350 Y27.080
M5
M5
G0 X84.569 Y27.080
M4 S300
G1 X85.058 Y27.080
M5
M5
G0 X86.039 Y27.080
M4 S300
G1 X86.527 Y27.080
M5
M5
G0 X87.891 Y27.080
M4 S300
G1 X88.382 Y27.080
M5
M5
G0 X88.908 Y27.080
M4 S300
G1 X91.508 Y27.080
M5
M5
G0 X18.503 Y27.260
M4 S300
G1 X18.988 Y27.260
M5
M5
G0 X20.201 Y27.260
M4 S300
G1 X20.683 Y27.260
M5
M5
G0 X21.896 Y27.260
M4 S300
G1 X22.379 Y27.260
M5
M5
G0 X23.144 Y27.260
M4 S300
G1 X23.643 Y27.260
M5
M5
G0 X24.462 Y27.260
M4 S300
G1 X24.927 Y27.260
M5
M5
G0 X25.799 Y27.260
M4 S300
G1 X26.928 Y27.260
M5
M5
G0 X28.485 Y27.260
M4 S300
G1 X28.974 Y27.260
M5
M5
G0 X29.814 Y27.260
M4 S300
G1 X32.395 Y27.260
M5
M5
G0 X32.972 Y27.260
M4 S300
G1 X33.466 Y27.260
M5
M5
G0 X34.765 Y27.260
M4 S300
G1 X35.253 Y27.260
M5
M5
G0 X35.847 Y27.260
M4 S300
G1 X36.354 Y27.260
M5
M5
G0 X37.935 Y27.260
M4 S300
G1 X38.447 Y27.260
M5
M5
G0 X38.977 Y27.260
M4 S300
G1 X39.468 Y27.260
M5
M5
G0 X40.832 Y27.260
M4 S300
G1 X41.321 Y27.260
M5
M5
G0 X42.083 Y27.260
M4 S300
G1 X43.212 Y27.260
M5
M5
G0 X44.721 Y27.260
M4 S300
G1 X45.209 Y27.260
M5
M5
G0 X46.059 Y27.260
M4 S300
G1 X46.558 Y27.260
M5
M5
G0 X47.377 Y27.260
M4 S300
G1 X47.842 Y27.260
M5
M5
G0 X50.157 Y27.260
M4 S300
G1 X50.642 Y27.260
M5
M5
G0 X51.855 Y27.260
M4 S300
G1 X52.338 Y27.260
M5
M5
G0 X53.550 Y27.260
M4 S300
G1 X54.033 Y27.260
M5
M5
G0 X54.663 Y27.260
M4 S300
G1 X55.151 Y27.260
M5
M5
G0 X55.946 Y27.260
M4 S300
G1 X57.075 Y27.260
M5
M5
G0 X58.659 Y27.260
M4 S300
G1 X59.788 Y27.260
M5
M5
G0 X61.293 Y27.260
M4 S300
G1 X61.782 Y27.260
M5
M5
G0 X62.512 Y27.260
M4 S300
G1 X63.000 Y27.260
M5
M5
G0 X64.365 Y27.260
M4 S300
G1 X64.856 Y27.260
M5
M5
G0 X65.385 Y27.260
M4 S300
G1 X65.890 Y27.260
M5
M5
G0 X67.363 Y27.260
M4 S300
G1 X67.860 Y27.260
M5
M5
G0 X70.008 Y27.260
M4 S300
G1 X70.452 Y27.260
M5
M5
G0 X71.090 Y27.260
M4 S300
G1 X71.480 Y27.260
M5
M5
G0 X71.868 Y27.260
M4 S300
G1 X72.254 Y27.260
M5
M5
G0 X72.897 Y27.260
M4 S300
G1 X73.339 Y27.260
M5
M5
G0 X73.972 Y27.260
M4 S300
G1 X74.460 Y27.260
M5
M5
G0 X75.825 Y27.260
M4 S300
G1 X76.316 Y27.260
M5
M5
G0 X76.848 Y27.260
M4 S300
G1 X79.430 Y27.260
M5
M5
G0 X80.007 Y27.260
M4 S300
G1 X80.495 Y27.260
M5
M5
G0 X81.859 Y27.260
M4 S300
G1 X82.350 Y27.260
M5
M5
G0 X84.569 Y27.260
M4 S300
G1 X85.058 Y27.260
M5
M5
G0 X86.039 Y27.260
M4 S300
G1 X86.527 Y27.260
M5
M5
G0 X87.891 Y27.260
M4 S300
G1 X88.382 Y27.260
M5
M5
G0 X88.915 Y27.260
M4 S300
G1 X91.497 Y27.260
M5
M5
G0 X18.503 Y27.440
M4 S300
G1 X18.997 Y27.440
M5
M5
G0 X20.200 Y27.440
M4 S300
G1 X20.692 Y27.440
M5
M5
G0 X21.896 Y27.440
M4 S300
G1 X22.379 Y27.440
M5
M5
G0 X23.072 Y27.440
M4 S300
G1 X23.575 Y27.440
M5
M5
G0 X24.524 Y27.440
M4 S300
G1 X24.997 Y27.440
M5
M5
G0 X25.676 Y27.440
M4 S300
G1 X26.326 Y27.440
M5
M5
G0 X28.485 Y27.440
M4 S300
G1 X28.974 Y27.440
M5
M5
G0 X29.834 Y27.440
M4 S300
G1 X30.336 Y27.440
M5
M5
G0 X31.891 Y27.440
M4 S300
G1 X32.378 Y27.440
M5
M5
G0 X32.972 Y27.440
M4 S300
G1 X33.485 Y27.440
M5
M5
G0 X34.765 Y27.440
M4 S300
G1 X35.253 Y27.440
M5
M5
G0 X35.860 Y27.440
M4 S300
G1 X36.373 Y27.440
M5
M5
G0 X37.916 Y27.440
M4 S300
G1 X38.430 Y27.440
M5
M5
G0 X38.977 Y27.440
M4 S300
G1 X39.468 Y27.440
M5
M5
G0 X40.832 Y27.440
M4 S300
G1 X41.321 Y27.440
M5
M5
G0 X41.960 Y27.440
M4 S300
G1 X42.610 Y27.440
M5
M5
G0 X44.721 Y27.440
M4 S300
G1 X45.209 Y27.440
M5
M5
G0 X45.987 Y27.440
M4 S300
G1 X46.490 Y27.440
M5
M5
G0 X47.439 Y27.440
M4 S300
G1 X47.911 Y27.440
M5
M5
G0 X50.157 Y27.440
M4 S300
G1 X50.652 Y27.440
M5
M5
G0 X51.854 Y27.440
M4 S300
G1 X52.347 Y27.440
M5
M5
G0 X53.550 Y27.440
M4 S300
G1 X54.033 Y27.440
M5
M5
G0 X54.663 Y27.440
M4 S300
G1 X55.151 Y27.440
M5
M5
G0 X55.822 Y27.440
M4 S300
G1 X56.473 Y27.440
M5
M5
G0 X58.535 Y27.440
M4 S300
G1 X59.186 Y27.440
M5
M5
G0 X61.293 Y27.440
M4 S300
G1 X61.782 Y27.440
M5
M5
G0 X62.512 Y27.440
M4 S300
G1 X63.011 Y27.440
M5
M5
G0 X64.365 Y27.440
M4 S300
G1 X64.856 Y27.440
M5
M5
G0 X65.400 Y27.440
M4 S300
G1 X65.907 Y27.440
M5
M5
G0 X67.335 Y27.440
M4 S300
G1 X67.860 Y27.440
M5
M5
G0 X69.957 Y27.440
M4 S300
G1 X70.407 Y27.440
M5
M5
G0 X71.137 Y27.440
M4 S300
G1 X71.525 Y27.440
M5
M5
G0 X71.823 Y27.440
M4 S300
G1 X72.209 Y27.440
M5
M5
G0 X72.944 Y27.440
M4 S300
G1 X73.391 Y27.440
M5
M5
G0 X73.972 Y27.440
M4 S300
G1 X74.469 Y27.440
M5
M5
G0 X75.825 Y27.440
M4 S300
G1 X76.316 Y27.440
M5
M5
G0 X76.869 Y27.440
M4 S300
G1 X77.370 Y27.440
M5
M5
G0 X78.926 Y27.440
M4 S300
G1 X79.413 Y27.440
M5
M5
G0 X80.007 Y27.440
M4 S300
G1 X80.506 Y27.440
M5
M5
G0 X81.859 Y27.440
M4 S300
G1 X82.350 Y27.440
M5
M5
G0 X84.569 Y27.440
M4 S300
G1 X85.058 Y27.440
M5
M5
G0 X86.039 Y27.440
M4 S300
G1 X86.535 Y27.440
M5
M5
G0 X87.891 Y27.440
M4 S300
G1 X88.382 Y27.440
M5
M5
G0 X88.935 Y27.440
M4 S300
G1 X89.437 Y27.440
M5
M5
G0 X90.992 Y27.440
M4 S300
G1 X91.480 Y27.440
M5
M5
G0 X18.503 Y27.620
M4 S300
G1 X19.027 Y27.620
M5
M5
G0 X20.193 Y27.620
M4 S300
G1 X20.721 Y27.620
M5
M5
G0 X21.888 Y27.620
M4 S300
G1 X22.376 Y27.620
M5
M5
G0 X23.000 Y27.620
M4 S300
G1 X23.506 Y27.620
M5
M5
G0 X24.586 Y27.620
M4 S300
G1 X25.066 Y27.620
M5
M5
G0 X25.627 Y27.620
M4 S300
G1 X26.127 Y27.620
M5
M5
G0 X28.485 Y27.620
M4 S300
G1 X28.974 Y27.620
M5
M5
G0 X29.871 Y27.620
M4 S300
G1 X30.371 Y27.620
M5
M5
G0 X31.853 Y27.620
M4 S300
G1 X32.338 Y27.620
M5
M5
G0 X32.972 Y27.620
M4 S300
G1 X33.525 Y27.620
M5
M5
G0 X34.765 Y27.620
M4 S300
G1 X35.253 Y27.620
M5
M5
G0 X35.902 Y27.620
M4 S300
G1 X36.410 Y27.620
M5
M5
G0 X37.884 Y27.620
M4 S300
G1 X38.398 Y27.620
M5
M5
G0 X38.977 Y27.620
M4 S300
G1 X39.468 Y27.620
M5
M5
G0 X40.832 Y27.620
M4 S300
G1 X41.321 Y27.620
M5
M5
G0 X41.911 Y27.620
M4 S300
G1 X42.411 Y27.620
M5
M5
G0 X44.721 Y27.620
M4 S300
G1 X45.209 Y27.620
M5
M5
G0 X45.915 Y27.620
M4 S300
G1 X46.421 Y27.620
M5
M5
G0 X47.501 Y27.620
M4 S300
G1 X47.981 Y27.620
M5
M5
G0 X50.157 Y27.620
M4 S300
G1 X50.681 Y27.620
M5
M5
G0 X51.847 Y27.620
M4 S300
G1 X52.375 Y27.620
M5
M5
G0 X53.542 Y27.620
M4 S300
G1 X54.030 Y27.620
M5
M5
G0 X54.663 Y27.620
M4 S300
G1 X55.151 Y27.620
M5
M5
G0 X55.774 Y27.620
M4 S300
G1 X56.274 Y27.620
M5
M5
G0 X58.487 Y27.620
M4 S300
G1 X58.986 Y27.620
M5
M5
G0 X61.293 Y27.620
M4 S300
G1 X61.782 Y27.620
M5
M5
G0 X62.512 Y27.620
M4 S300
G1 X63.045 Y27.620
M5
M5
G0 X64.357 Y27.620
M4 S300
G1 X64.853 Y27.620
M5
M5
G0 X65.428 Y27.620
M4 S300
G1 X65.939 Y27.620
M5
M5
G0 X67.286 Y27.620
M4 S300
G1 X67.860 Y27.620
M5
M5
G0 X69.907 Y27.620
M4 S300
G1 X70.362 Y27.620
M5
M5
G0 X71.185 Y27.620
M4 S300
G1 X71.570 Y27.620
M5
M5
G0 X71.779 Y27.620
M4 S300
G1 X72.163 Y27.620
M5
M5
G0 X72.990 Y27.620
M4 S300
G1 X73.443 Y27.620
M5
M5
G0 X73.972 Y27.620
M4 S300
G1 X74.502 Y27.620
M5
M5
G0 X75.818 Y27.620
M4 S300
G1 X76.313 Y27.620
M5
M5
G0 X76.906 Y27.620
M4 S300
G1 X77.406 Y27.620
M5
M5
G0 X78.888 Y27.620
M4 S300
G1 X79.372 Y27.620
M5
M5
G0 X80.007 Y27.620
M4 S300
G1 X80.539 Y27.620
M5
M5
G0 X81.851 Y27.620
M4 S300
G1 X82.347 Y27.620
M5
M5
G0 X84.569 Y27.620
M4 S300
G1 X85.058 Y27.620
M5
M5
G0 X86.039 Y27.620
M4 S300
G1 X86.568 Y27.620
M5
M5
G0 X87.884 Y27.620
M4 S300
G1 X88.379 Y27.620
M5
M5
G0 X88.972 Y27.620
M4 S300
G1 X89.473 Y27.620
M5
M5
G0 X90.954 Y27.620
M4 S300
G1 X91.439 Y27.620
M5
M5
G0 X18.503 Y27.800
M4 S300
G1 X19.089 Y27.800
M5
M5
G0 X20.168 Y27.800
M4 S300
G1 X20.781 Y27.800
M5
M5
G0 X21.863 Y27.800
M4 S300
G1 X22.363 Y27.800
M5
M5
G0 X22.929 Y27.800
M4 S300
G1 X23.438 Y27.800
M5
M5
G0 X24.648 Y27.800
M4 S300
G1 X25.135 Y27.800
M5
M5
G0 X25.625 Y27.800
M4 S300
G1 X26.097 Y27.800
M5
M5
G0 X27.428 Y27.800
M4 S300
G1 X27.665 Y27.800
M5
M5
G0 X28.485 Y27.800
M4 S300
G1 X28.974 Y27.800
M5
M5
G0 X29.930 Y27.800
M4 S300
G1 X30.442 Y27.800
M5
M5
G0 X31.788 Y27.800
M4 S300
G1 X32.287 Y27.800
M5
M5
G0 X32.972 Y27.800
M4 S300
G1 X33.597 Y27.800
M5
M5
G0 X34.765 Y27.800
M4 S300
G1 X35.253 Y27.800
M5
M5
G0 X35.950 Y27.800
M4 S300
G1 X36.475 Y27.800
M5
M5
G0 X37.823 Y27.800
M4 S300
G1 X38.348 Y27.800
M5
M5
G0 X38.977 Y27.800
M4 S300
G1 X39.468 Y27.800
M5
M5
G0 X40.832 Y27.800
M4 S300
G1 X41.321 Y27.800
M5
M5
G0 X41.909 Y27.800
M4 S300
G1 X42.381 Y27.800
M5
M5
G0 X43.712 Y27.800
M4 S300
G1 X43.949 Y27.800
M5
M5
G0 X44.721 Y27.800
M4 S300
G1 X45.209 Y27.800
M5
M5
G0 X45.843 Y27.800
M4 S300
G1 X46.352 Y27.800
M5
M5
G0 X47.563 Y27.800
M4 S300
G1 X48.050 Y27.800
M5
M5
G0 X50.157 Y27.800
M4 S300
G1 X50.743 Y27.800
M5
M5
G0 X51.822 Y27.800
M4 S300
G1 X52.435 Y27.800
M5
M5
G0 X53.517 Y27.800
M4 S300
G1 X54.017 Y27.800
M5
M5
G0 X54.663 Y27.800
M4 S300
G1 X55.151 Y27.800
M5
M5
G0 X55.772 Y27.800
M4 S300
G1 X56.244 Y27.800
M5
M5
G0 X57.575 Y27.800
M4 S300
G1 X57.811 Y27.800
M5
M5
G0 X58.484 Y27.800
M4 S300
G1 X58.957 Y27.800
M5
M5
G0 X60.287 Y27.800
M4 S300
G1 X60.524 Y27.800
M5
M5
G0 X61.293 Y27.800
M4 S300
G1 X61.782 Y27.800
M5
M5
G0 X62.512 Y27.800
M4 S300
G1 X63.115 Y27.800
M5
M5
G0 X64.329 Y27.800
M4 S300
G1 X64.839 Y27.800
M5
M5
G0 X65.473 Y27.800
M4 S300
G1 X65.998 Y27.800
M5
M5
G0 X67.206 Y27.800
M4 S300
G1 X67.860 Y27.800
M5
M5
G0 X69.857 Y27.800
M4 S300
G1 X70.318 Y27.800
M5
M5
G0 X71.232 Y27.800
M4 S300
G1 X71.612 Y27.800
M5
M5
G0 X71.740 Y27.800
M4 S300
G1 X72.117 Y27.800
M5
M5
G0 X73.037 Y27.800
M4 S300
G1 X73.494 Y27.800
M5
M5
G0 X73.972 Y27.800
M4 S300
G1 X74.574 Y27.800
M5
M5
G0 X75.792 Y27.800
M4 S300
G1 X76.299 Y27.800
M5
M5
G0 X76.964 Y27.800
M4 S300
G1 X77.477 Y27.800
M5
M5
G0 X78.823 Y27.800
M4 S300
G1 X79.322 Y27.800
M5
M5
G0 X80.007 Y27.800
M4 S300
G1 X80.610 Y27.800
M5
M5
G0 X81.824 Y27.800
M4 S300
G1 X82.333 Y27.800
M5
M5
G0 X84.569 Y27.800
M4 S300
G1 X85.058 Y27.800
M5
M5
G0 X86.039 Y27.800
M4 S300
G1 X86.641 Y27.800
M5
M5
G0 X87.859 Y27.800
M4 S300
G1 X88.365 Y27.800
M5
M5
G0 X89.031 Y27.800
M4 S300
G1 X89.544 Y27.800
M5
M5
G0 X90.889 Y27.800
M4 S300
G1 X91.388 Y27.800
M5
M5
G0 X18.502 Y27.980
M4 S300
G1 X19.207 Y27.980
M5
M5
G0 X20.104 Y27.980
M4 S300
G1 X20.897 Y27.980
M5
M5
G0 X21.799 Y27.980
M4 S300
G1 X22.330 Y27.980
M5
M5
G0 X22.857 Y27.980
M4 S300
G1 X23.369 Y27.980
M5
M5
G0 X24.710 Y27.980
M4 S300
G1 X25.204 Y27.980
M5
M5
G0 X25.657 Y27.980
M4 S300
G1 X26.154 Y27.980
M5
M5
G0 X27.330 Y27.980
M4 S300
G1 X27.830 Y27.980
M5
M5
G0 X28.485 Y27.980
M4 S300
G1 X28.974 Y27.980
M5
M5
G0 X30.017 Y27.980
M4 S300
G1 X30.572 Y27.980
M5
M5
G0 X31.671 Y27.980
M4 S300
G1 X32.204 Y27.980
M5
M5
G0 X32.971 Y27.980
M4 S300
G1 X33.437 Y27.980
M5
M5
G0 X33.476 Y27.980
M4 S300
G1 X33.734 Y27.980
M5
M5
G0 X34.765 Y27.980
M4 S300
G1 X35.253 Y27.980
M5
M5
G0 X36.037 Y27.980
M4 S300
G1 X36.591 Y27.980
M5
M5
G0 X37.713 Y27.980
M4 S300
G1 X38.270 Y27.980
M5
M5
G0 X38.977 Y27.980
M4 S300
G1 X39.468 Y27.980
M5
M5
G0 X40.832 Y27.980
M4 S300
G1 X41.321 Y27.980
M5
M5
G0 X41.941 Y27.980
M4 S300
G1 X42.438 Y27.980
M5
M5
G0 X43.614 Y27.980
M4 S300
G1 X44.114 Y27.980
M5
M5
G0 X44.721 Y27.980
M4 S300
G1 X45.209 Y27.980
M5
M5
G0 X45.772 Y27.980
M4 S300
G1 X46.284 Y27.980
M5
M5
G0 X47.625 Y27.980
M4 S300
G1 X48.119 Y27.980
M5
M5
G0 X50.156 Y27.980
M4 S300
G1 X50.861 Y27.980
M5
M5
G0 X51.758 Y27.980
M4 S300
G1 X52.551 Y27.980
M5
M5
G0 X53.453 Y27.980
M4 S300
G1 X53.984 Y27.980
M5
M5
G0 X54.663 Y27.980
M4 S300
G1 X55.151 Y27.980
M5
M5
G0 X55.804 Y27.980
M4 S300
G1 X56.301 Y27.980
M5
M5
G0 X57.477 Y27.980
M4 S300
G1 X57.977 Y27.980
M5
M5
G0 X58.517 Y27.980
M4 S300
G1 X59.013 Y27.980
M5
M5
G0 X60.190 Y27.980
M4 S300
G1 X60.690 Y27.980
M5
M5
G0 X61.293 Y27.980
M4 S300
G1 X61.782 Y27.980
M5
M5
G0 X62.512 Y27.980
M4 S300
G1 X63.247 Y27.980
M5
M5
G0 X64.256 Y27.980
M4 S300
G1 X64.802 Y27.980
M5
M5
G0 X65.540 Y27.980
M4 S300
G1 X66.105 Y27.980
M5
M5
G0 X67.072 Y27.980
M4 S300
G1 X67.860 Y27.980
M5
M5
G0 X69.806 Y27.980
M4 S300
G1 X70.273 Y27.980
M5
M5
G0 X71.279 Y27.980
M4 S300
G1 X71.652 Y27.980
M5
M5
G0 X71.701 Y27.980
M4 S300
G1 X72.071 Y27.980
M5
M5
G0 X73.083 Y27.980
M4 S300
G1 X73.546 Y27.980
M5
M5
G0 X73.972 Y27.980
M4 S300
G1 X74.710 Y27.980
M5
M5
G0 X75.718 Y27.980
M4 S300
G1 X76.263 Y27.980
M5
M5
G0 X77.051 Y27.980
M4 S300
G1 X77.607 Y27.980
M5
M5
G0 X78.706 Y27.980
M4 S300
G1 X79.239 Y27.980
M5
M5
G0 X80.007 Y27.980
M4 S300
G1 X80.742 Y27.980
M5
M5
G0 X81.751 Y27.980
M4 S300
G1 X82.297 Y27.980
M5
M5
G0 X84.569 Y27.980
M4 S300
G1 X85.058 Y27.980
M5
M5
G0 X86.039 Y27.980
M4 S300
G1 X86.777 Y27.980
M5
M5
G0 X87.785 Y27.980
M4 S300
G1 X88.329 Y27.980
M5
M5
G0 X89.118 Y27.980
M4 S300
G1 X89.674 Y27.980
M5
M5
G0 X90.772 Y27.980
M4 S300
G1 X91.305 Y27.980
M5
M5
G0 X18.501 Y28.160
M4 S300
G1 X18.965 Y28.160
M5
M5
G0 X19.071 Y28.160
M4 S300
G1 X19.516 Y28.160
M5
M5
G0 X19.832 Y28.160
M4 S300
G1 X20.574 Y28.160
M5
M5
G0 X20.738 Y28.160
M4 S300
G1 X21.208 Y28.160
M5
M5
G0 X21.528 Y28.160
M4 S300
G1 X22.270 Y28.160
M5
M5
G0 X22.785 Y28.160
M4 S300
G1 X23.300 Y28.160
M5
M5
G0 X24.772 Y28.160
M4 S300
G1 X25.273 Y28.160
M5
M5
G0 X25.741 Y28.160
M4 S300
G1 X26.509 Y28.160
M5
M5
G0 X26.952 Y28.160
M4 S300
G1 X27.739 Y28.160
M5
M5
G0 X28.146 Y28.160
M4 S300
G1 X29.516 Y28.160
M5
M5
G0 X30.142 Y28.160
M4 S300
G1 X30.874 Y28.160
M5
M5
G0 X31.365 Y28.160
M4 S300
G1 X32.078 Y28.160
M5
M5
G0 X32.967 Y28.160
M4 S300
G1 X33.431 Y28.160
M5
M5
G0 X33.548 Y28.160
M4 S300
G1 X34.345 Y28.160
M5
M5
G0 X34.765 Y28.160
M4 S300
G1 X35.253 Y28.160
M5
M5
G0 X36.163 Y28.160
M4 S300
G1 X36.899 Y28.160
M5
M5
G0 X37.412 Y28.160
M4 S300
G1 X38.154 Y28.160
M5
M5
G0 X38.977 Y28.160
M4 S300
G1 X39.468 Y28.160
M5
M5
G0 X40.832 Y28.160
M4 S300
G1 X41.321 Y28.160
M5
M5
G0 X42.025 Y28.160
M4 S300
G1 X42.793 Y28.160
M5
M5
G0 X43.236 Y28.160
M4 S300
G1 X44.023 Y28.160
M5
M5
G0 X44.721 Y28.160
M4 S300
G1 X45.209 Y28.160
M5
M5
G0 X45.700 Y28.160
M4 S300
G1 X46.215 Y28.160
M5
M5
G0 X47.686 Y28.160
M4 S300
G1 X48.188 Y28.160
M5
M5
G0 X50.155 Y28.160
M4 S300
G1 X50.619 Y28.160
M5
M5
G0 X50.725 Y28.160
M4 S300
G1 X51.170 Y28.160
M5
M5
G0 X51.486 Y28.160
M4 S300
G1 X52.228 Y28.160
M5
M5
G0 X52.392 Y28.160
M4 S300
G1 X52.862 Y28.160
M5
M5
G0 X53.182 Y28.160
M4 S300
G1 X53.924 Y28.160
M5
M5
G0 X54.663 Y28.160
M4 S300
G1 X55.151 Y28.160
M5
M5
G0 X55.888 Y28.160
M4 S300
G1 X56.656 Y28.160
M5
M5
G0 X57.099 Y28.160
M4 S300
G1 X57.886 Y28.160
M5
M5
G0 X58.601 Y28.160
M4 S300
G1 X59.368 Y28.160
M5
M5
G0 X59.811 Y28.160
M4 S300
G1 X60.598 Y28.160
M5
M5
G0 X61.293 Y28.160
M4 S300
G1 X61.782 Y28.160
M5
M5
G0 X62.510 Y28.160
M4 S300
G1 X62.974 Y28.160
M5
M5
G0 X63.091 Y28.160
M4 S300
G1 X63.595 Y28.160
M5
M5
G0 X63.960 Y28.160
M4 S300
G1 X64.736 Y28.160
M5
M5
G0 X65.641 Y28.160
M4 S300
G1 X66.406 Y28.160
M5
M5
G0 X66.766 Y28.160
M4 S300
G1 X67.278 Y28.160
M5
M5
G0 X67.384 Y28.160
M4 S300
G1 X67.861 Y28.160
M5
M5
G0 X69.756 Y28.160
M4 S300
G1 X70.228 Y28.160
M5
M5
G0 X71.327 Y28.160
M4 S300
G1 X72.026 Y28.160
M5
M5
G0 X73.130 Y28.160
M4 S300
G1 X73.597 Y28.160
M5
M5
G0 X73.972 Y28.160
M4 S300
G1 X74.449 Y28.160
M5
M5
G0 X74.551 Y28.160
M4 S300
G1 X75.057 Y28.160
M5
M5
G0 X75.414 Y28.160
M4 S300
G1 X76.197 Y28.160
M5
M5
G0 X77.177 Y28.160
M4 S300
G1 X77.909 Y28.160
M5
M5
G0 X78.399 Y28.160
M4 S300
G1 X79.113 Y28.160
M5
M5
G0 X80.005 Y28.160
M4 S300
G1 X80.469 Y28.160
M5
M5
G0 X80.585 Y28.160
M4 S300
G1 X81.089 Y28.160
M5
M5
G0 X81.455 Y28.160
M4 S300
G1 X82.231 Y28.160
M5
M5
G0 X84.230 Y28.160
M4 S300
G1 X85.600 Y28.160
M5
M5
G0 X86.039 Y28.160
M4 S300
G1 X86.515 Y28.160
M5
M5
G0 X86.617 Y28.160
M4 S300
G1 X87.123 Y28.160
M5
M5
G0 X87.480 Y28.160
M4 S300
G1 X88.263 Y28.160
M5
M5
G0 X89.243 Y28.160
M4 S300
G1 X89.975 Y28.160
M5
M5
G0 X90.466 Y28.160
M4 S300
G1 X91.179 Y28.160
M5
M5
G0 X18.497 Y28.340
M4 S300
G1 X18.957 Y28.340
M5
M5
G0 X19.220 Y28.340
M4 S300
G1 X20.454 Y28.340
M5
M5
G0 X20.896 Y28.340
M4 S300
G1 X22.149 Y28.340
M5
M5
G0 X22.714 Y28.340
M4 S300
G1 X23.232 Y28.340
M5
M5
G0 X24.834 Y28.340
M4 S300
G1 X25.343 Y28.340
M5
M5
G0 X25.915 Y28.340
M4 S300
G1 X27.562 Y28.340
M5
M5
G0 X28.146 Y28.340
M4 S300
G1 X29.516 Y28.340
M5
M5
G0 X30.344 Y28.340
M4 S300
G1 X31.880 Y28.340
M5
M5
G0 X32.962 Y28.340
M4 S300
G1 X33.424 Y28.340
M5
M5
G0 X33.652 Y28.340
M4 S300
G1 X34.345 Y28.340
M5
M5
G0 X34.765 Y28.340
M4 S300
G1 X35.253 Y28.340
M5
M5
G0 X36.365 Y28.340
M4 S300
G1 X37.960 Y28.340
M5
M5
G0 X38.977 Y28.340
M4 S300
G1 X39.468 Y28.340
M5
M5
G0 X40.832 Y28.340
M4 S300
G1 X41.321 Y28.340
M5
M5
G0 X42.199 Y28.340
M4 S300
G1 X43.846 Y28.340
M5
M5
G0 X44.721 Y28.340
M4 S300
G1 X45.209 Y28.340
M5
M5
G0 X45.628 Y28.340
M4 S300
G1 X46.146 Y28.340
M5
M5
G0 X47.748 Y28.340
M4 S300
G1 X48.257 Y28.340
M5
M5
G0 X50.151 Y28.340
M4 S300
G1 X50.611 Y28.340
M5
M5
G0 X50.874 Y28.340
M4 S300
G1 X52.108 Y28.340
M5
M5
G0 X52.550 Y28.340
M4 S300
G1 X53.803 Y28.340
M5
M5
G0 X54.663 Y28.340
M4 S300
G1 X55.151 Y28.340
M5
M5
G0 X56.062 Y28.340
M4 S300
G1 X57.709 Y28.340
M5
M5
G0 X58.775 Y28.340
M4 S300
G1 X60.422 Y28.340
M5
M5
G0 X61.293 Y28.340
M4 S300
G1 X61.782 Y28.340
M5
M5
G0 X62.506 Y28.340
M4 S300
G1 X62.967 Y28.340
M5
M5
G0 X63.254 Y28.340
M4 S300
G1 X64.602 Y28.340
M5
M5
G0 X65.811 Y28.340
M4 S300
G1 X67.107 Y28.340
M5
M5
G0 X67.394 Y28.340
M4 S300
G1 X67.866 Y28.340
M5
M5
G0 X69.705 Y28.340
M4 S300
G1 X70.183 Y28.340
M5
M5
G0 X71.374 Y28.340
M4 S300
G1 X71.980 Y28.340
M5
M5
G0 X73.176 Y28.340
M4 S300
G1 X73.649 Y28.340
M5
M5
G0 X73.972 Y28.340
M4 S300
G1 X74.457 Y28.340
M5
M5
G0 X74.717 Y28.340
M4 S300
G1 X76.062 Y28.340
M5
M5
G0 X77.379 Y28.340
M4 S300
G1 X78.915 Y28.340
M5
M5
G0 X80.001 Y28.340
M4 S300
G1 X80.461 Y28.340
M5
M5
G0 X80.749 Y28.340
M4 S300
G1 X82.097 Y28.340
M5
M5
G0 X84.230 Y28.340
M4 S300
G1 X85.600 Y28.340
M5
M5
G0 X86.039 Y28.340
M4 S300
G1 X86.524 Y28.340
M5
M5
G0 X86.784 Y28.340
M4 S300
G1 X88.129 Y28.340
M5
M5
G0 X89.446 Y28.340
M4 S300
G1 X90.981 Y28.340
M5
M5
G0 X19.557 Y28.520
M4 S300
G1 X20.128 Y28.520
M5
M5
G0 X21.248 Y28.520
M4 S300
G1 X21.819 Y28.520
M5
M5
G0 X26.403 Y28.520
M4 S300
G1 X27.076 Y28.520
M5
M5
G0 X28.509 Y28.520
M4 S300
G1 X28.974 Y28.520
M5
M5
G0 X30.776 Y28.520
M4 S300
G1 X31.465 Y28.520
M5
M5
G0 X33.909 Y28.520
M4 S300
G1 X34.345 Y28.520
M5
M5
G0 X36.793 Y28.520
M4 S300
G1 X37.514 Y28.520
M5
M5
G0 X42.687 Y28.520
M4 S300
G1 X43.360 Y28.520
M5
M5
G0 X44.721 Y28.520
M4 S300
G1 X45.209 Y28.520
M5
M5
G0 X51.211 Y28.520
M4 S300
G1 X51.783 Y28.520
M5
M5
G0 X52.902 Y28.520
M4 S300
G1 X53.473 Y28.520
M5
M5
G0 X56.550 Y28.520
M4 S300
G1 X57.222 Y28.520
M5
M5
G0 X59.263 Y28.520
M4 S300
G1 X59.935 Y28.520
M5
M5
G0 X63.621 Y28.520
M4 S300
G1 X64.241 Y28.520
M5
M5
G0 X66.218 Y28.520
M4 S300
G1 X66.723 Y28.520
M5
M5
G0 X73.972 Y28.520
M4 S300
G1 X74.460 Y28.520
M5
M5
G0 X75.082 Y28.520
M4 S300
G1 X75.699 Y28.520
M5
M5
G0 X77.811 Y28.520
M4 S300
G1 X78.500 Y28.520
M5
M5
G0 X81.116 Y28.520
M4 S300
G1 X81.735 Y28.520
M5
M5
G0 X84.593 Y28.520
M4 S300
G1 X85.058 Y28.520
M5
M5
G0 X86.039 Y28.520
M4 S300
G1 X86.527 Y28.520
M5
M5
G0 X87.149 Y28.520
M4 S300
G1 X87.766 Y28.520
M5
M5
G0 X89.878 Y28.520
M4 S300
G1 X90.566 Y28.520
M5
M5
G0 X28.548 Y28.700
M4 S300
G1 X28.974 Y28.700
M5
M5
G0 X44.721 Y28.700
M4 S300
G1 X45.209 Y28.700
M5
M5
G0 X73.972 Y28.700
M4 S300
G1 X74.460 Y28.700
M5
M5
G0 X84.633 Y28.700
M4 S300
G1 X85.058 Y28.700
M5
M5
G0 X86.039 Y28.700
M4 S300
G1 X86.527 Y28.700
M5
M5
G0 X28.588 Y28.880
M4 S300
G1 X28.974 Y28.880
M5
M5
G0 X44.721 Y28.880
M4 S300
G1 X45.209 Y28.880
M5
M5
G0 X73.972 Y28.880
M4 S300
G1 X74.460 Y28.880
M5
M5
G0 X84.672 Y28.880
M4 S300
G1 X85.058 Y28.880
M5
M5
G0 X86.039 Y28.880
M4 S300
G1 X86.527 Y28.880
M5
M5
G0 X28.627 Y29.060
M4 S300
G1 X28.974 Y29.060
M5
M5
G0 X44.721 Y29.060
M4 S300
G1 X45.209 Y29.060
M5
M5
G0 X73.972 Y29.060
M4 S300
G1 X74.460 Y29.060
M5
M5
G0 X84.711 Y29.060
M4 S300
G1 X85.058 Y29.060
M5
M5
G0 X86.039 Y29.060
M4 S300
G1 X86.527 Y29.060
M5
M5
G0 X34.765 Y29.240
M4 S300
G1 X35.253 Y29.240
M5
M5
G0 X44.721 Y29.240
M4 S300
G1 X45.209 Y29.240
M5
M5
G0 X54.663 Y29.240
M4 S300
G1 X55.151 Y29.240
M5
M5
G0 X61.293 Y29.240
M4 S300
G1 X61.782 Y29.240
M5
M5
G0 X73.972 Y29.240
M4 S300
G1 X74.460 Y29.240
M5
M5
G0 X86.039 Y29.240
M4 S300
G1 X86.527 Y29.240
M5
M5
G0 X34.765 Y29.420
M4 S300
G1 X35.253 Y29.420
M5
M5
G0 X44.721 Y29.420
M4 S300
G1 X45.209 Y29.420
M5
M5
G0 X54.663 Y29.420
M4 S300
G1 X55.151 Y29.420
M5
M5
G0 X61.293 Y29.420
M4 S300
G1 X61.782 Y29.420
M5
M5
G0 X73.972 Y29.420
M4 S300
G1 X74.460 Y29.420
M5
M5
G0 X86.039 Y29.420
M4 S300
G1 X86.527 Y29.420
M5
M5
G0 X26.154 Y30.500
M4 S300
G1 X26.643 Y30.500
M5
M5
G0 X26.154 Y30.680
M4 S300
G1 X26.643 Y30.680
M5
M5
G0 X26.154 Y30.860
M4 S300
G1 X26.643 Y30.860
M5
M5
G0 X44.380 Y30.860
M4 S300
G1 X44.713 Y30.860
M5
M5
G0 X72.725 Y30.860
M4 S300
G1 X73.058 Y30.860
M5
M5
G0 X26.154 Y31.040
M4 S300
G1 X26.643 Y31.040
M5
M5
G0 X44.488 Y31.040
M4 S300
G1 X44.805 Y31.040
M5
M5
G0 X72.833 Y31.040
M4 S300
G1 X73.151 Y31.040
M5
M5
G0 X26.154 Y31.220
M4 S300
G1 X26.643 Y31.220
M5
M5
G0 X44.567 Y31.220
M4 S300
G1 X44.868 Y31.220
M5
M5
G0 X72.912 Y31.220
M4 S300
G1 X73.214 Y31.220
M5
M5
G0 X26.154 Y31.400
M4 S300
G1 X26.643 Y31.400
M5
M5
G0 X44.615 Y31.400
M4 S300
G1 X44.903 Y31.400
M5
M5
G0 X72.960 Y31.400
M4 S300
G1 X73.248 Y31.400
M5
M5
G0 X17.137 Y31.580
M4 S300
G1 X18.005 Y31.580
M5
M5
G0 X18.891 Y31.580
M4 S300
G1 X19.521 Y31.580
M5
M5
G0 X19.834 Y31.580
M4 S300
G1 X20.322 Y31.580
M5
M5
G0 X22.325 Y31.580
M4 S300
G1 X23.340 Y31.580
M5
M5
G0 X26.154 Y31.580
M4 S300
G1 X26.643 Y31.580
M5
M5
G0 X27.123 Y31.580
M4 S300
G1 X27.944 Y31.580
M5
M5
G0 X29.182 Y31.580
M4 S300
G1 X29.671 Y31.580
M5
M5
G0 X31.674 Y31.580
M4 S300
G1 X32.689 Y31.580
M5
M5
G0 X34.424 Y31.580
M4 S300
G1 X35.559 Y31.580
M5
M5
G0 X37.404 Y31.580
M4 S300
G1 X38.419 Y31.580
M5
M5
G0 X39.736 Y31.580
M4 S300
G1 X40.225 Y31.580
M5
M5
G0 X41.589 Y31.580
M4 S300
G1 X42.080 Y31.580
M5
M5
G0 X43.082 Y31.580
M4 S300
G1 X43.850 Y31.580
M5
M5
G0 X44.391 Y31.580
M4 S300
G1 X44.917 Y31.580
M5
M5
G0 X47.596 Y31.580
M4 S300
G1 X48.464 Y31.580
M5
M5
G0 X49.350 Y31.580
M4 S300
G1 X49.980 Y31.580
M5
M5
G0 X50.937 Y31.580
M4 S300
G1 X51.852 Y31.580
M5
M5
G0 X53.650 Y31.580
M4 S300
G1 X54.565 Y31.580
M5
M5
G0 X56.403 Y31.580
M4 S300
G1 X57.418 Y31.580
M5
M5
G0 X59.154 Y31.580
M4 S300
G1 X60.288 Y31.580
M5
M5
G0 X61.866 Y31.580
M4 S300
G1 X63.001 Y31.580
M5
M5
G0 X64.148 Y31.580
M4 S300
G1 X64.636 Y31.580
M5
M5
G0 X65.341 Y31.580
M4 S300
G1 X65.814 Y31.580
M5
M5
G0 X66.316 Y31.580
M4 S300
G1 X67.146 Y31.580
M5
M5
G0 X68.373 Y31.580
M4 S300
G1 X68.861 Y31.580
M5
M5
G0 X70.274 Y31.580
M4 S300
G1 X71.289 Y31.580
M5
M5
G0 X72.737 Y31.580
M4 S300
G1 X73.263 Y31.580
M5
M5
G0 X75.942 Y31.580
M4 S300
G1 X76.810 Y31.580
M5
M5
G0 X77.695 Y31.580
M4 S300
G1 X78.326 Y31.580
M5
M5
G0 X78.639 Y31.580
M4 S300
G1 X79.127 Y31.580
M5
M5
G0 X80.491 Y31.580
M4 S300
G1 X80.982 Y31.580
M5
M5
G0 X82.157 Y31.580
M4 S300
G1 X83.023 Y31.580
M5
M5
G0 X83.533 Y31.580
M4 S300
G1 X84.001 Y31.580
M5
M5
G0 X86.180 Y31.580
M4 S300
G1 X86.669 Y31.580
M5
M5
G0 X88.033 Y31.580
M4 S300
G1 X88.524 Y31.580
M5
M5
G0 X89.857 Y31.580
M4 S300
G1 X90.845 Y31.580
M5
M5
G0 X92.543 Y31.580
M4 S300
G1 X93.311 Y31.580
M5
M5
G0 X16.875 Y31.760
M4 S300
G1 X18.311 Y31.760
M5
M5
G0 X18.695 Y31.760
M4 S300
G1 X19.521 Y31.760
M5
M5
G0 X19.834 Y31.760
M4 S300
G1 X20.322 Y31.760
M5
M5
G0 X21.981 Y31.760
M4 S300
G1 X23.698 Y31.760
M5
M5
G0 X26.154 Y31.760
M4 S300
G1 X26.642 Y31.760
M5
M5
G0 X26.826 Y31.760
M4 S300
G1 X28.244 Y31.760
M5
M5
G0 X29.182 Y31.760
M4 S300
G1 X29.671 Y31.760
M5
M5
G0 X31.330 Y31.760
M4 S300
G1 X33.046 Y31.760
M5
M5
G0 X34.065 Y31.760
M4 S300
G1 X35.916 Y31.760
M5
M5
G0 X37.060 Y31.760
M4 S300
G1 X38.776 Y31.760
M5
M5
G0 X39.736 Y31.760
M4 S300
G1 X40.225 Y31.760
M5
M5
G0 X41.589 Y31.760
M4 S300
G1 X42.080 Y31.760
M5
M5
G0 X42.888 Y31.760
M4 S300
G1 X43.871 Y31.760
M5
M5
G0 X44.391 Y31.760
M4 S300
G1 X44.920 Y31.760
M5
M5
G0 X47.335 Y31.760
M4 S300
G1 X48.770 Y31.760
M5
M5
G0 X49.154 Y31.760
M4 S300
G1 X49.980 Y31.760
M5
M5
G0 X50.611 Y31.760
M4 S300
G1 X52.176 Y31.760
M5
M5
G0 X53.324 Y31.760
M4 S300
G1 X54.889 Y31.760
M5
M5
G0 X56.059 Y31.760
M4 S300
G1 X57.776 Y31.760
M5
M5
G0 X58.795 Y31.760
M4 S300
G1 X60.645 Y31.760
M5
M5
G0 X61.507 Y31.760
M4 S300
G1 X63.358 Y31.760
M5
M5
G0 X64.148 Y31.760
M4 S300
G1 X64.636 Y31.760
M5
M5
G0 X65.351 Y31.760
M4 S300
G1 X65.827 Y31.760
M5
M5
G0 X66.030 Y31.760
M4 S300
G1 X67.445 Y31.760
M5
M5
G0 X68.373 Y31.760
M4 S300
G1 X68.861 Y31.760
M5
M5
G0 X69.930 Y31.760
M4 S300
G1 X71.646 Y31.760
M5
M5
G0 X72.737 Y31.760
M4 S300
G1 X73.266 Y31.760
M5
M5
G0 X75.680 Y31.760
M4 S300
G1 X77.116 Y31.760
M5
M5
G0 X77.500 Y31.760
M4 S300
G1 X78.326 Y31.760
M5
M5
G0 X78.639 Y31.760
M4 S300
G1 X79.127 Y31.760
M5
M5
G0 X80.491 Y31.760
M4 S300
G1 X80.982 Y31.760
M5
M5
G0 X81.874 Y31.760
M4 S300
G1 X83.308 Y31.760
M5
M5
G0 X83.518 Y31.760
M4 S300
G1 X83.991 Y31.760
M5
M5
G0 X86.180 Y31.760
M4 S300
G1 X86.669 Y31.760
M5
M5
G0 X88.033 Y31.760
M4 S300
G1 X88.524 Y31.760
M5
M5
G0 X89.522 Y31.760
M4 S300
G1 X91.190 Y31.760
M5
M5
G0 X92.350 Y31.760
M4 S300
G1 X93.333 Y31.760
M5
M5
