; vibe-cutting deterministic GRBL artifact
G21
G90
M5
; vector_engrave
; material=basswood_3mm thickness_mm=3.0
; passes=1 speed_mm_per_min=5000 power_percent=30 air_assist=low
; pass 1 of 1
F5000
M5
G0 X31.715 Y11.400
M4 S300
G1 X32.945 Y11.400
M5
M5
G0 X33.725 Y11.400
M4 S300
G1 X34.091 Y11.400
M5
M5
G0 X35.114 Y11.400
M4 S300
G1 X35.482 Y11.400
M5
M5
G0 X37.223 Y11.400
M4 S300
G1 X37.956 Y11.400
M5
M5
G0 X38.249 Y11.400
M4 S300
G1 X38.615 Y11.400
M5
M5
G0 X39.638 Y11.400
M4 S300
G1 X40.006 Y11.400
M5
M5
G0 X40.778 Y11.400
M4 S300
G1 X42.045 Y11.400
M5
M5
G0 X42.775 Y11.400
M4 S300
G1 X43.139 Y11.400
M5
M5
G0 X44.048 Y11.400
M4 S300
G1 X44.410 Y11.400
M5
M5
G0 X45.320 Y11.400
M4 S300
G1 X45.682 Y11.400
M5
M5
G0 X46.256 Y11.400
M4 S300
G1 X46.652 Y11.400
M5
M5
G0 X31.546 Y11.580
M4 S300
G1 X31.999 Y11.580
M5
M5
G0 X32.664 Y11.580
M4 S300
G1 X33.121 Y11.580
M5
M5
G0 X33.725 Y11.580
M4 S300
G1 X34.091 Y11.580
M5
M5
G0 X35.114 Y11.580
M4 S300
G1 X35.482 Y11.580
M5
M5
G0 X37.159 Y11.580
M4 S300
G1 X37.568 Y11.580
M5
M5
G0 X38.249 Y11.580
M4 S300
G1 X38.615 Y11.580
M5
M5
G0 X39.638 Y11.580
M4 S300
G1 X40.006 Y11.580
M5
M5
G0 X40.602 Y11.580
M4 S300
G1 X41.073 Y11.580
M5
M5
G0 X41.762 Y11.580
M4 S300
G1 X42.212 Y11.580
M5
M5
G0 X42.775 Y11.580
M4 S300
G1 X43.139 Y11.580
M5
M5
G0 X44.048 Y11.580
M4 S300
G1 X44.410 Y11.580
M5
M5
G0 X45.320 Y11.580
M4 S300
G1 X45.682 Y11.580
M5
M5
G0 X46.256 Y11.580
M4 S300
G1 X46.652 Y11.580
M5
M5
G0 X31.450 Y11.760
M4 S300
G1 X31.845 Y11.760
M5
M5
G0 X32.822 Y11.760
M4 S300
G1 X33.215 Y11.760
M5
M5
G0 X33.725 Y11.760
M4 S300
G1 X34.091 Y11.760
M5
M5
G0 X35.114 Y11.760
M4 S300
G1 X35.482 Y11.760
M5
M5
G0 X37.147 Y11.760
M4 S300
G1 X37.514 Y11.760
M5
M5
G0 X38.249 Y11.760
M4 S300
G1 X38.615 Y11.760
M5
M5
G0 X39.638 Y11.760
M4 S300
G1 X40.006 Y11.760
M5
M5
G0 X40.505 Y11.760
M4 S300
G1 X40.901 Y11.760
M5
M5
G0 X41.941 Y11.760
M4 S300
G1 X42.229 Y11.760
M5
M5
G0 X42.775 Y11.760
M4 S300
G1 X43.139 Y11.760
M5
M5
G0 X44.048 Y11.760
M4 S300
G1 X44.410 Y11.760
M5
M5
G0 X45.320 Y11.760
M4 S300
G1 X45.682 Y11.760
M5
M5
G0 X31.392 Y11.940
M4 S300
G1 X31.778 Y11.940
M5
M5
G0 X32.887 Y11.940
M4 S300
G1 X33.272 Y11.940
M5
M5
G0 X33.725 Y11.940
M4 S300
G1 X34.091 Y11.940
M5
M5
G0 X35.114 Y11.940
M4 S300
G1 X35.482 Y11.940
M5
M5
G0 X37.147 Y11.940
M4 S300
G1 X37.513 Y11.940
M5
M5
G0 X38.249 Y11.940
M4 S300
G1 X38.615 Y11.940
M5
M5
G0 X39.638 Y11.940
M4 S300
G1 X40.006 Y11.940
M5
M5
G0 X40.446 Y11.940
M4 S300
G1 X40.827 Y11.940
M5
M5
G0 X42.775 Y11.940
M4 S300
G1 X43.139 Y11.940
M5
M5
G0 X44.048 Y11.940
M4 S300
G1 X44.410 Y11.940
M5
M5
G0 X45.320 Y11.940
M4 S300
G1 X45.682 Y11.940
M5
M5
G0 X31.362 Y12.120
M4 S300
G1 X31.745 Y12.120
M5
M5
G0 X32.918 Y12.120
M4 S300
G1 X33.301 Y12.120
M5
M5
G0 X33.725 Y12.120
M4 S300
G1 X34.091 Y12.120
M5
M5
G0 X35.114 Y12.120
M4 S300
G1 X35.482 Y12.120
M5
M5
G0 X37.147 Y12.120
M4 S300
G1 X37.513 Y12.120
M5
M5
G0 X38.249 Y12.120
M4 S300
G1 X38.615 Y12.120
M5
M5
G0 X39.638 Y12.120
M4 S300
G1 X40.006 Y12.120
M5
M5
G0 X40.415 Y12.120
M4 S300
G1 X40.793 Y12.120
M5
M5
G0 X42.775 Y12.120
M4 S300
G1 X43.139 Y12.120
M5
M5
G0 X44.048 Y12.120
M4 S300
G1 X44.410 Y12.120
M5
M5
G0 X45.320 Y12.120
M4 S300
G1 X45.682 Y12.120
M5
M5
G0 X31.350 Y12.300
M4 S300
G1 X31.734 Y12.300
M5
M5
G0 X32.929 Y12.300
M4 S300
G1 X33.313 Y12.300
M5
M5
G0 X33.725 Y12.300
M4 S300
G1 X34.091 Y12.300
M5
M5
G0 X35.114 Y12.300
M4 S300
G1 X35.482 Y12.300
M5
M5
G0 X37.147 Y12.300
M4 S300
G1 X37.513 Y12.300
M5
M5
G0 X38.249 Y12.300
M4 S300
G1 X38.615 Y12.300
M5
M5
G0 X39.638 Y12.300
M4 S300
G1 X40.006 Y12.300
M5
M5
G0 X40.402 Y12.300
M4 S300
G1 X42.355 Y12.300
M5
M5
G0 X42.775 Y12.300
M4 S300
G1 X43.139 Y12.300
M5
M5
G0 X44.048 Y12.300
M4 S300
G1 X44.410 Y12.300
M5
M5
G0 X45.320 Y12.300
M4 S300
G1 X45.682 Y12.300
M5
M5
G0 X31.355 Y12.480
M4 S300
G1 X31.735 Y12.480
M5
M5
G0 X32.928 Y12.480
M4 S300
G1 X33.311 Y12.480
M5
M5
G0 X33.725 Y12.480
M4 S300
G1 X34.091 Y12.480
M5
M5
G0 X35.114 Y12.480
M4 S300
G1 X35.482 Y12.480
M5
M5
G0 X37.147 Y12.480
M4 S300
G1 X37.513 Y12.480
M5
M5
G0 X38.249 Y12.480
M4 S300
G1 X38.615 Y12.480
M5
M5
G0 X39.638 Y12.480
M4 S300
G1 X40.006 Y12.480
M5
M5
G0 X40.403 Y12.480
M4 S300
G1 X42.345 Y12.480
M5
M5
G0 X42.775 Y12.480
M4 S300
G1 X43.139 Y12.480
M5
M5
G0 X44.048 Y12.480
M4 S300
G1 X44.410 Y12.480
M5
M5
G0 X45.320 Y12.480
M4 S300
G1 X45.682 Y12.480
M5
M5
G0 X31.367 Y12.660
M4 S300
G1 X31.752 Y12.660
M5
M5
G0 X32.912 Y12.660
M4 S300
G1 X33.297 Y12.660
M5
M5
G0 X33.725 Y12.660
M4 S300
G1 X34.098 Y12.660
M5
M5
G0 X35.114 Y12.660
M4 S300
G1 X35.482 Y12.660
M5
M5
G0 X37.147 Y12.660
M4 S300
G1 X37.513 Y12.660
M5
M5
G0 X38.249 Y12.660
M4 S300
G1 X38.620 Y12.660
M5
M5
G0 X39.638 Y12.660
M4 S300
G1 X40.006 Y12.660
M5
M5
G0 X40.420 Y12.660
M4 S300
G1 X40.796 Y12.660
M5
M5
G0 X41.965 Y12.660
M4 S300
G1 X42.331 Y12.660
M5
M5
G0 X42.775 Y12.660
M4 S300
G1 X43.145 Y12.660
M5
M5
G0 X44.048 Y12.660
M4 S300
G1 X44.416 Y12.660
M5
M5
G0 X45.319 Y12.660
M4 S300
G1 X45.682 Y12.660
M5
M5
G0 X31.409 Y12.840
M4 S300
G1 X31.792 Y12.840
M5
M5
G0 X32.875 Y12.840
M4 S300
G1 X33.262 Y12.840
M5
M5
G0 X33.725 Y12.840
M4 S300
G1 X34.135 Y12.840
M5
M5
G0 X35.104 Y12.840
M4 S300
G1 X35.479 Y12.840
M5
M5
G0 X37.147 Y12.840
M4 S300
G1 X37.513 Y12.840
M5
M5
G0 X38.249 Y12.840
M4 S300
G1 X38.658 Y12.840
M5
M5
G0 X39.629 Y12.840
M4 S300
G1 X40.003 Y12.840
M5
M5
G0 X40.460 Y12.840
M4 S300
G1 X40.836 Y12.840
M5
M5
G0 X41.925 Y12.840
M4 S300
G1 X42.290 Y12.840
M5
M5
G0 X42.775 Y12.840
M4 S300
G1 X43.178 Y12.840
M5
M5
G0 X44.039 Y12.840
M4 S300
G1 X44.448 Y12.840
M5
M5
G0 X45.310 Y12.840
M4 S300
G1 X45.679 Y12.840
M5
M5
G0 X31.476 Y13.020
M4 S300
G1 X31.875 Y13.020
M5
M5
G0 X32.798 Y13.020
M4 S300
G1 X33.202 Y13.020
M5
M5
G0 X33.725 Y13.020
M4 S300
G1 X34.229 Y13.020
M5
M5
G0 X35.061 Y13.020
M4 S300
G1 X35.455 Y13.020
M5
M5
G0 X37.147 Y13.020
M4 S300
G1 X37.513 Y13.020
M5
M5
G0 X38.249 Y13.020
M4 S300
G1 X38.754 Y13.020
M5
M5
G0 X39.587 Y13.020
M4 S300
G1 X39.979 Y13.020
M5
M5
G0 X40.528 Y13.020
M4 S300
G1 X40.930 Y13.020
M5
M5
G0 X41.841 Y13.020
M4 S300
G1 X42.223 Y13.020
M5
M5
G0 X42.774 Y13.020
M4 S300
G1 X43.261 Y13.020
M5
M5
G0 X44.000 Y13.020
M4 S300
G1 X44.529 Y13.020
M5
M5
G0 X45.272 Y13.020
M4 S300
G1 X45.657 Y13.020
M5
M5
G0 X31.589 Y13.200
M4 S300
G1 X32.120 Y13.200
M5
M5
G0 X32.560 Y13.200
M4 S300
G1 X33.095 Y13.200
M5
M5
G0 X33.723 Y13.200
M4 S300
G1 X34.071 Y13.200
M5
M5
G0 X34.153 Y13.200
M4 S300
G1 X34.501 Y13.200
M5
M5
G0 X34.848 Y13.200
M4 S300
G1 X35.397 Y13.200
M5
M5
G0 X36.892 Y13.200
M4 S300
G1 X37.920 Y13.200
M5
M5
G0 X38.249 Y13.200
M4 S300
G1 X38.606 Y13.200
M5
M5
G0 X38.676 Y13.200
M4 S300
G1 X39.027 Y13.200
M5
M5
G0 X39.367 Y13.200
M4 S300
G1 X39.921 Y13.200
M5
M5
G0 X40.646 Y13.200
M4 S300
G1 X41.172 Y13.200
M5
M5
G0 X41.597 Y13.200
M4 S300
G1 X42.111 Y13.200
M5
M5
G0 X42.773 Y13.200
M4 S300
G1 X43.121 Y13.200
M5
M5
G0 X43.196 Y13.200
M4 S300
G1 X43.503 Y13.200
M5
M5
G0 X43.805 Y13.200
M4 S300
G1 X44.332 Y13.200
M5
M5
G0 X44.445 Y13.200
M4 S300
G1 X44.771 Y13.200
M5
M5
G0 X45.076 Y13.200
M4 S300
G1 X45.604 Y13.200
M5
M5
G0 X31.805 Y13.380
M4 S300
G1 X32.884 Y13.380
M5
M5
G0 X33.719 Y13.380
M4 S300
G1 X34.064 Y13.380
M5
M5
G0 X34.329 Y13.380
M4 S300
G1 X35.248 Y13.380
M5
M5
G0 X36.892 Y13.380
M4 S300
G1 X37.920 Y13.380
M5
M5
G0 X38.249 Y13.380
M4 S300
G1 X38.613 Y13.380
M5
M5
G0 X38.856 Y13.380
M4 S300
G1 X39.772 Y13.380
M5
M5
G0 X40.865 Y13.380
M4 S300
G1 X41.900 Y13.380
M5
M5
G0 X42.769 Y13.380
M4 S300
G1 X43.114 Y13.380
M5
M5
G0 X43.356 Y13.380
M4 S300
G1 X44.199 Y13.380
M5
M5
G0 X44.616 Y13.380
M4 S300
G1 X45.469 Y13.380
M5
M5
G0 X37.182 Y13.560
M4 S300
G1 X37.513 Y13.560
M5
M5
G0 X38.249 Y13.560
M4 S300
G1 X38.615 Y13.560
M5
M5
G0 X37.222 Y13.740
M4 S300
G1 X37.513 Y13.740
M5
M5
G0 X38.249 Y13.740
M4 S300
G1 X38.615 Y13.740
M5
M5
G0 X37.261 Y13.920
M4 S300
G1 X37.513 Y13.920
M5
M5
G0 X38.249 Y13.920
M4 S300
G1 X38.615 Y13.920
M5
M5
G0 X38.249 Y14.100
M4 S300
G1 X38.615 Y14.100
M5
M5
G0 X37.716 Y14.820
M4 S300
G1 X38.082 Y14.820
M5
M5
G0 X58.981 Y14.820
M4 S300
G1 X59.347 Y14.820
M5
M5
G0 X37.716 Y15.000
M4 S300
G1 X38.082 Y15.000
M5
M5
G0 X58.981 Y15.000
M4 S300
G1 X59.347 Y15.000
M5
M5
G0 X37.716 Y15.180
M4 S300
G1 X38.082 Y15.180
M5
M5
G0 X58.981 Y15.180
M4 S300
G1 X59.347 Y15.180
M5
M5
G0 X37.716 Y15.360
M4 S300
G1 X38.082 Y15.360
M5
M5
G0 X58.981 Y15.360
M4 S300
G1 X59.347 Y15.360
M5
M5
G0 X37.716 Y15.540
M4 S300
G1 X38.082 Y15.540
M5
M5
G0 X58.981 Y15.540
M4 S300
G1 X59.347 Y15.540
M5
M5
G0 X8.315 Y15.720
M4 S300
G1 X8.681 Y15.720
M5
M5
G0 X9.229 Y15.720
M4 S300
G1 X9.595 Y15.720
M5
M5
G0 X10.619 Y15.720
M4 S300
G1 X10.987 Y15.720
M5
M5
G0 X11.572 Y15.720
M4 S300
G1 X11.938 Y15.720
M5
M5
G0 X12.623 Y15.720
M4 S300
G1 X12.989 Y15.720
M5
M5
G0 X14.144 Y15.720
M4 S300
G1 X14.950 Y15.720
M5
M5
G0 X15.471 Y15.720
M4 S300
G1 X16.006 Y15.720
M5
M5
G0 X16.454 Y15.720
M4 S300
G1 X17.503 Y15.720
M5
M5
G0 X18.466 Y15.720
M4 S300
G1 X19.113 Y15.720
M5
M5
G0 X19.406 Y15.720
M4 S300
G1 X19.772 Y15.720
M5
M5
G0 X21.030 Y15.720
M4 S300
G1 X21.839 Y15.720
M5
M5
G0 X22.163 Y15.720
M4 S300
G1 X22.508 Y15.720
M5
M5
G0 X23.421 Y15.720
M4 S300
G1 X24.278 Y15.720
M5
M5
G0 X25.249 Y15.720
M4 S300
G1 X25.896 Y15.720
M5
M5
G0 X26.458 Y15.720
M4 S300
G1 X27.267 Y15.720
M5
M5
G0 X27.591 Y15.720
M4 S300
G1 X27.936 Y15.720
M5
M5
G0 X28.452 Y15.720
M4 S300
G1 X28.818 Y15.720
M5
M5
G0 X30.230 Y15.720
M4 S300
G1 X31.180 Y15.720
M5
M5
G0 X33.607 Y15.720
M4 S300
G1 X34.527 Y15.720
M5
M5
G0 X35.543 Y15.720
M4 S300
G1 X35.909 Y15.720
M5
M5
G0 X37.716 Y15.720
M4 S300
G1 X38.082 Y15.720
M5
M5
G0 X38.362 Y15.720
M4 S300
G1 X39.149 Y15.720
M5
M5
G0 X39.979 Y15.720
M4 S300
G1 X40.345 Y15.720
M5
M5
G0 X41.314 Y15.720
M4 S300
G1 X42.264 Y15.720
M5
M5
G0 X43.321 Y15.720
M4 S300
G1 X44.127 Y15.720
M5
M5
G0 X44.648 Y15.720
M4 S300
G1 X45.182 Y15.720
M5
M5
G0 X45.630 Y15.720
M4 S300
G1 X46.680 Y15.720
M5
M5
G0 X47.721 Y15.720
M4 S300
G1 X48.530 Y15.720
M5
M5
G0 X48.854 Y15.720
M4 S300
G1 X49.199 Y15.720
M5
M5
G0 X49.715 Y15.720
M4 S300
G1 X50.081 Y15.720
M5
M5
G0 X51.493 Y15.720
M4 S300
G1 X52.442 Y15.720
M5
M5
G0 X54.763 Y15.720
M4 S300
G1 X55.567 Y15.720
M5
M5
G0 X55.867 Y15.720
M4 S300
G1 X56.219 Y15.720
M5
M5
G0 X57.149 Y15.720
M4 S300
G1 X58.099 Y15.720
M5
M5
G0 X58.981 Y15.720
M4 S300
G1 X59.347 Y15.720
M5
M5
G0 X59.627 Y15.720
M4 S300
G1 X60.414 Y15.720
M5
M5
G0 X61.675 Y15.720
M4 S300
G1 X62.625 Y15.720
M5
M5
G0 X63.515 Y15.720
M4 S300
G1 X63.881 Y15.720
M5
M5
G0 X64.905 Y15.720
M4 S300
G1 X65.273 Y15.720
M5
M5
G0 X66.078 Y15.720
M4 S300
G1 X66.882 Y15.720
M5
M5
G0 X67.182 Y15.720
M4 S300
G1 X67.534 Y15.720
M5
M5
G0 X68.254 Y15.720
M4 S300
G1 X69.304 Y15.720
M5
M5
G0 X8.315 Y15.900
M4 S300
G1 X8.681 Y15.900
M5
M5
G0 X9.229 Y15.900
M4 S300
G1 X9.595 Y15.900
M5
M5
G0 X10.619 Y15.900
M4 S300
G1 X10.987 Y15.900
M5
M5
G0 X11.572 Y15.900
M4 S300
G1 X11.938 Y15.900
M5
M5
G0 X12.623 Y15.900
M4 S300
G1 X12.989 Y15.900
M5
M5
G0 X13.962 Y15.900
M4 S300
G1 X15.177 Y15.900
M5
M5
G0 X15.354 Y15.900
M4 S300
G1 X15.859 Y15.900
M5
M5
G0 X15.920 Y15.900
M4 S300
G1 X16.006 Y15.900
M5
M5
G0 X16.205 Y15.900
M4 S300
G1 X17.756 Y15.900
M5
M5
G0 X18.338 Y15.900
M4 S300
G1 X19.113 Y15.900
M5
M5
G0 X19.406 Y15.900
M4 S300
G1 X19.772 Y15.900
M5
M5
G0 X20.848 Y15.900
M4 S300
G1 X22.046 Y15.900
M5
M5
G0 X22.154 Y15.900
M4 S300
G1 X22.502 Y15.900
M5
M5
G0 X23.178 Y15.900
M4 S300
G1 X24.518 Y15.900
M5
M5
G0 X25.121 Y15.900
M4 S300
G1 X25.896 Y15.900
M5
M5
G0 X26.276 Y15.900
M4 S300
G1 X27.474 Y15.900
M5
M5
G0 X27.583 Y15.900
M4 S300
G1 X27.930 Y15.900
M5
M5
G0 X28.452 Y15.900
M4 S300
G1 X28.818 Y15.900
M5
M5
G0 X29.973 Y15.900
M4 S300
G1 X31.439 Y15.900
M5
M5
G0 X33.358 Y15.900
M4 S300
G1 X34.784 Y15.900
M5
M5
G0 X35.543 Y15.900
M4 S300
G1 X35.909 Y15.900
M5
M5
G0 X37.716 Y15.900
M4 S300
G1 X38.081 Y15.900
M5
M5
G0 X38.152 Y15.900
M4 S300
G1 X39.353 Y15.900
M5
M5
G0 X39.979 Y15.900
M4 S300
G1 X40.345 Y15.900
M5
M5
G0 X41.058 Y15.900
M4 S300
G1 X42.523 Y15.900
M5
M5
G0 X43.139 Y15.900
M4 S300
G1 X44.354 Y15.900
M5
M5
G0 X44.531 Y15.900
M4 S300
G1 X45.035 Y15.900
M5
M5
G0 X45.097 Y15.900
M4 S300
G1 X45.182 Y15.900
M5
M5
G0 X45.382 Y15.900
M4 S300
G1 X46.933 Y15.900
M5
M5
G0 X47.539 Y15.900
M4 S300
G1 X48.737 Y15.900
M5
M5
G0 X48.845 Y15.900
M4 S300
G1 X49.193 Y15.900
M5
M5
G0 X49.715 Y15.900
M4 S300
G1 X50.081 Y15.900
M5
M5
G0 X51.236 Y15.900
M4 S300
G1 X52.702 Y15.900
M5
M5
G0 X54.556 Y15.900
M4 S300
G1 X55.769 Y15.900
M5
M5
G0 X55.856 Y15.900
M4 S300
G1 X56.213 Y15.900
M5
M5
G0 X56.893 Y15.900
M4 S300
G1 X58.358 Y15.900
M5
M5
G0 X58.981 Y15.900
M4 S300
G1 X59.346 Y15.900
M5
M5
G0 X59.417 Y15.900
M4 S300
G1 X60.618 Y15.900
M5
M5
G0 X61.419 Y15.900
M4 S300
G1 X62.884 Y15.900
M5
M5
G0 X63.515 Y15.900
M4 S300
G1 X63.881 Y15.900
M5
M5
G0 X64.905 Y15.900
M4 S300
G1 X65.273 Y15.900
M5
M5
G0 X65.871 Y15.900
M4 S300
G1 X67.084 Y15.900
M5
M5
G0 X67.171 Y15.900
M4 S300
G1 X67.527 Y15.900
M5
M5
G0 X68.006 Y15.900
M4 S300
G1 X69.556 Y15.900
M5
M5
G0 X8.315 Y16.080
M4 S300
G1 X8.681 Y16.080
M5
M5
G0 X9.229 Y16.080
M4 S300
G1 X9.595 Y16.080
M5
M5
G0 X10.619 Y16.080
M4 S300
G1 X10.987 Y16.080
M5
M5
G0 X11.572 Y16.080
M4 S300
G1 X11.938 Y16.080
M5
M5
G0 X12.623 Y16.080
M4 S300
G1 X12.989 Y16.080
M5
M5
G0 X13.889 Y16.080
M4 S300
G1 X14.285 Y16.080
M5
M5
G0 X15.084 Y16.080
M4 S300
G1 X15.302 Y16.080
M5
M5
G0 X15.324 Y16.080
M4 S300
G1 X15.692 Y16.080
M5
M5
G0 X16.102 Y16.080
M4 S300
G1 X16.478 Y16.080
M5
M5
G0 X17.483 Y16.080
M4 S300
G1 X17.854 Y16.080
M5
M5
G0 X18.308 Y16.080
M4 S300
G1 X18.684 Y16.080
M5
M5
G0 X19.406 Y16.080
M4 S300
G1 X19.772 Y16.080
M5
M5
G0 X20.777 Y16.080
M4 S300
G1 X21.181 Y16.080
M5
M5
G0 X21.966 Y16.080
M4 S300
G1 X22.500 Y16.080
M5
M5
G0 X23.054 Y16.080
M4 S300
G1 X23.472 Y16.080
M5
M5
G0 X24.229 Y16.080
M4 S300
G1 X24.638 Y16.080
M5
M5
G0 X25.091 Y16.080
M4 S300
G1 X25.467 Y16.080
M5
M5
G0 X26.205 Y16.080
M4 S300
G1 X26.609 Y16.080
M5
M5
G0 X27.394 Y16.080
M4 S300
G1 X27.928 Y16.080
M5
M5
G0 X28.452 Y16.080
M4 S300
G1 X28.818 Y16.080
M5
M5
G0 X29.844 Y16.080
M4 S300
G1 X30.264 Y16.080
M5
M5
G0 X31.168 Y16.080
M4 S300
G1 X31.556 Y16.080
M5
M5
G0 X33.231 Y16.080
M4 S300
G1 X33.643 Y16.080
M5
M5
G0 X34.501 Y16.080
M4 S300
G1 X34.912 Y16.080
M5
M5
G0 X35.543 Y16.080
M4 S300
G1 X35.909 Y16.080
M5
M5
G0 X37.716 Y16.080
M4 S300
G1 X38.243 Y16.080
M5
M5
G0 X39.051 Y16.080
M4 S300
G1 X39.457 Y16.080
M5
M5
G0 X39.979 Y16.080
M4 S300
G1 X40.345 Y16.080
M5
M5
G0 X40.928 Y16.080
M4 S300
G1 X41.349 Y16.080
M5
M5
G0 X42.252 Y16.080
M4 S300
G1 X42.640 Y16.080
M5
M5
G0 X43.066 Y16.080
M4 S300
G1 X43.461 Y16.080
M5
M5
G0 X44.260 Y16.080
M4 S300
G1 X44.478 Y16.080
M5
M5
G0 X44.500 Y16.080
M4 S300
G1 X44.869 Y16.080
M5
M5
G0 X45.279 Y16.080
M4 S300
G1 X45.655 Y16.080
M5
M5
G0 X46.659 Y16.080
M4 S300
G1 X47.031 Y16.080
M5
M5
G0 X47.468 Y16.080
M4 S300
G1 X47.872 Y16.080
M5
M5
G0 X48.657 Y16.080
M4 S300
G1 X49.191 Y16.080
M5
M5
G0 X49.715 Y16.080
M4 S300
G1 X50.081 Y16.080
M5
M5
G0 X51.107 Y16.080
M4 S300
G1 X51.527 Y16.080
M5
M5
G0 X52.431 Y16.080
M4 S300
G1 X52.819 Y16.080
M5
M5
G0 X54.457 Y16.080
M4 S300
G1 X54.880 Y16.080
M5
M5
G0 X55.666 Y16.080
M4 S300
G1 X56.211 Y16.080
M5
M5
G0 X56.763 Y16.080
M4 S300
G1 X57.184 Y16.080
M5
M5
G0 X58.087 Y16.080
M4 S300
G1 X58.475 Y16.080
M5
M5
G0 X58.981 Y16.080
M4 S300
G1 X59.508 Y16.080
M5
M5
G0 X60.316 Y16.080
M4 S300
G1 X60.722 Y16.080
M5
M5
G0 X61.289 Y16.080
M4 S300
G1 X61.709 Y16.080
M5
M5
G0 X62.613 Y16.080
M4 S300
G1 X63.001 Y16.080
M5
M5
G0 X63.515 Y16.080
M4 S300
G1 X63.881 Y16.080
M5
M5
G0 X64.905 Y16.080
M4 S300
G1 X65.273 Y16.080
M5
M5
G0 X65.772 Y16.080
M4 S300
G1 X66.195 Y16.080
M5
M5
G0 X66.981 Y16.080
M4 S300
G1 X67.526 Y16.080
M5
M5
G0 X67.903 Y16.080
M4 S300
G1 X68.279 Y16.080
M5
M5
G0 X69.283 Y16.080
M4 S300
G1 X69.654 Y16.080
M5
M5
G0 X8.315 Y16.260
M4 S300
G1 X8.681 Y16.260
M5
M5
G0 X9.229 Y16.260
M4 S300
G1 X9.595 Y16.260
M5
M5
G0 X10.619 Y16.260
M4 S300
G1 X10.987 Y16.260
M5
M5
G0 X11.572 Y16.260
M4 S300
G1 X11.938 Y16.260
M5
M5
G0 X12.623 Y16.260
M4 S300
G1 X12.989 Y16.260
M5
M5
G0 X13.867 Y16.260
M4 S300
G1 X14.243 Y16.260
M5
M5
G0 X15.225 Y16.260
M4 S300
G1 X15.680 Y16.260
M5
M5
G0 X17.528 Y16.260
M4 S300
G1 X17.883 Y16.260
M5
M5
G0 X18.304 Y16.260
M4 S300
G1 X18.670 Y16.260
M5
M5
G0 X19.406 Y16.260
M4 S300
G1 X19.772 Y16.260
M5
M5
G0 X20.749 Y16.260
M4 S300
G1 X21.125 Y16.260
M5
M5
G0 X22.077 Y16.260
M4 S300
G1 X22.500 Y16.260
M5
M5
G0 X22.981 Y16.260
M4 S300
G1 X23.370 Y16.260
M5
M5
G0 X24.319 Y16.260
M4 S300
G1 X24.696 Y16.260
M5
M5
G0 X25.087 Y16.260
M4 S300
G1 X25.453 Y16.260
M5
M5
G0 X26.177 Y16.260
M4 S300
G1 X26.553 Y16.260
M5
M5
G0 X27.505 Y16.260
M4 S300
G1 X27.928 Y16.260
M5
M5
G0 X28.452 Y16.260
M4 S300
G1 X28.818 Y16.260
M5
M5
G0 X29.768 Y16.260
M4 S300
G1 X30.153 Y16.260
M5
M5
G0 X33.157 Y16.260
M4 S300
G1 X33.545 Y16.260
M5
M5
G0 X34.599 Y16.260
M4 S300
G1 X34.985 Y16.260
M5
M5
G0 X35.543 Y16.260
M4 S300
G1 X35.909 Y16.260
M5
M5
G0 X37.716 Y16.260
M4 S300
G1 X38.148 Y16.260
M5
M5
G0 X39.135 Y16.260
M4 S300
G1 X39.519 Y16.260
M5
M5
G0 X39.979 Y16.260
M4 S300
G1 X40.345 Y16.260
M5
M5
G0 X40.852 Y16.260
M4 S300
G1 X41.238 Y16.260
M5
M5
G0 X43.043 Y16.260
M4 S300
G1 X43.419 Y16.260
M5
M5
G0 X44.402 Y16.260
M4 S300
G1 X44.857 Y16.260
M5
M5
G0 X46.705 Y16.260
M4 S300
G1 X47.060 Y16.260
M5
M5
G0 X47.440 Y16.260
M4 S300
G1 X47.816 Y16.260
M5
M5
G0 X48.768 Y16.260
M4 S300
G1 X49.191 Y16.260
M5
M5
G0 X49.715 Y16.260
M4 S300
G1 X50.081 Y16.260
M5
M5
G0 X51.031 Y16.260
M4 S300
G1 X51.416 Y16.260
M5
M5
G0 X54.401 Y16.260
M4 S300
G1 X54.793 Y16.260
M5
M5
G0 X55.767 Y16.260
M4 S300
G1 X56.211 Y16.260
M5
M5
G0 X56.687 Y16.260
M4 S300
G1 X57.073 Y16.260
M5
M5
G0 X58.981 Y16.260
M4 S300
G1 X59.413 Y16.260
M5
M5
G0 X60.400 Y16.260
M4 S300
G1 X60.784 Y16.260
M5
M5
G0 X61.213 Y16.260
M4 S300
G1 X61.598 Y16.260
M5
M5
G0 X63.515 Y16.260
M4 S300
G1 X63.881 Y16.260
M5
M5
G0 X64.905 Y16.260
M4 S300
G1 X65.273 Y16.260
M5
M5
G0 X65.716 Y16.260
M4 S300
G1 X66.108 Y16.260
M5
M5
G0 X67.082 Y16.260
M4 S300
G1 X67.526 Y16.260
M5
M5
G0 X69.328 Y16.260
M4 S300
G1 X69.684 Y16.260
M5
M5
G0 X8.315 Y16.440
M4 S300
G1 X8.681 Y16.440
M5
M5
G0 X9.229 Y16.440
M4 S300
G1 X9.595 Y16.440
M5
M5
G0 X10.619 Y16.440
M4 S300
G1 X10.987 Y16.440
M5
M5
G0 X11.572 Y16.440
M4 S300
G1 X11.938 Y16.440
M5
M5
G0 X12.623 Y16.440
M4 S300
G1 X12.989 Y16.440
M5
M5
G0 X13.880 Y16.440
M4 S300
G1 X14.263 Y16.440
M5
M5
G0 X15.295 Y16.440
M4 S300
G1 X15.680 Y16.440
M5
M5
G0 X17.463 Y16.440
M4 S300
G1 X17.865 Y16.440
M5
M5
G0 X18.304 Y16.440
M4 S300
G1 X18.670 Y16.440
M5
M5
G0 X19.406 Y16.440
M4 S300
G1 X19.772 Y16.440
M5
M5
G0 X20.742 Y16.440
M4 S300
G1 X21.111 Y16.440
M5
M5
G0 X22.123 Y16.440
M4 S300
G1 X22.500 Y16.440
M5
M5
G0 X22.939 Y16.440
M4 S300
G1 X23.322 Y16.440
M5
M5
G0 X25.087 Y16.440
M4 S300
G1 X25.453 Y16.440
M5
M5
G0 X26.170 Y16.440
M4 S300
G1 X26.539 Y16.440
M5
M5
G0 X27.551 Y16.440
M4 S300
G1 X27.928 Y16.440
M5
M5
G0 X28.452 Y16.440
M4 S300
G1 X28.818 Y16.440
M5
M5
G0 X29.724 Y16.440
M4 S300
G1 X30.102 Y16.440
M5
M5
G0 X33.114 Y16.440
M4 S300
G1 X33.497 Y16.440
M5
M5
G0 X34.644 Y16.440
M4 S300
G1 X35.027 Y16.440
M5
M5
G0 X35.543 Y16.440
M4 S300
G1 X35.909 Y16.440
M5
M5
G0 X37.716 Y16.440
M4 S300
G1 X38.104 Y16.440
M5
M5
G0 X39.172 Y16.440
M4 S300
G1 X39.554 Y16.440
M5
M5
G0 X39.979 Y16.440
M4 S300
G1 X40.345 Y16.440
M5
M5
G0 X40.808 Y16.440
M4 S300
G1 X41.186 Y16.440
M5
M5
G0 X43.056 Y16.440
M4 S300
G1 X43.440 Y16.440
M5
M5
G0 X44.471 Y16.440
M4 S300
G1 X44.857 Y16.440
M5
M5
G0 X46.639 Y16.440
M4 S300
G1 X47.042 Y16.440
M5
M5
G0 X47.433 Y16.440
M4 S300
G1 X47.802 Y16.440
M5
M5
G0 X48.814 Y16.440
M4 S300
G1 X49.191 Y16.440
M5
M5
G0 X49.715 Y16.440
M4 S300
G1 X50.081 Y16.440
M5
M5
G0 X50.987 Y16.440
M4 S300
G1 X51.365 Y16.440
M5
M5
G0 X54.368 Y16.440
M4 S300
G1 X54.755 Y16.440
M5
M5
G0 X55.816 Y16.440
M4 S300
G1 X56.211 Y16.440
M5
M5
G0 X56.643 Y16.440
M4 S300
G1 X57.021 Y16.440
M5
M5
G0 X58.981 Y16.440
M4 S300
G1 X59.369 Y16.440
M5
M5
G0 X60.437 Y16.440
M4 S300
G1 X60.819 Y16.440
M5
M5
G0 X61.169 Y16.440
M4 S300
G1 X61.547 Y16.440
M5
M5
G0 X63.515 Y16.440
M4 S300
G1 X63.881 Y16.440
M5
M5
G0 X64.905 Y16.440
M4 S300
G1 X65.273 Y16.440
M5
M5
G0 X65.683 Y16.440
M4 S300
G1 X66.070 Y16.440
M5
M5
G0 X67.131 Y16.440
M4 S300
G1 X67.526 Y16.440
M5
M5
G0 X69.263 Y16.440
M4 S300
G1 X69.666 Y16.440
M5
M5
G0 X8.315 Y16.620
M4 S300
G1 X8.681 Y16.620
M5
M5
G0 X9.229 Y16.620
M4 S300
G1 X9.595 Y16.620
M5
M5
G0 X10.619 Y16.620
M4 S300
G1 X10.987 Y16.620
M5
M5
G0 X11.572 Y16.620
M4 S300
G1 X11.938 Y16.620
M5
M5
G0 X12.623 Y16.620
M4 S300
G1 X12.989 Y16.620
M5
M5
G0 X13.937 Y16.620
M4 S300
G1 X14.380 Y16.620
M5
M5
G0 X15.310 Y16.620
M4 S300
G1 X15.680 Y16.620
M5
M5
G0 X17.068 Y16.620
M4 S300
G1 X17.780 Y16.620
M5
M5
G0 X18.304 Y16.620
M4 S300
G1 X18.670 Y16.620
M5
M5
G0 X19.406 Y16.620
M4 S300
G1 X19.772 Y16.620
M5
M5
G0 X20.742 Y16.620
M4 S300
G1 X21.111 Y16.620
M5
M5
G0 X22.134 Y16.620
M4 S300
G1 X22.500 Y16.620
M5
M5
G0 X22.917 Y16.620
M4 S300
G1 X23.300 Y16.620
M5
M5
G0 X25.087 Y16.620
M4 S300
G1 X25.453 Y16.620
M5
M5
G0 X26.170 Y16.620
M4 S300
G1 X26.539 Y16.620
M5
M5
G0 X27.562 Y16.620
M4 S300
G1 X27.928 Y16.620
M5
M5
G0 X28.452 Y16.620
M4 S300
G1 X28.818 Y16.620
M5
M5
G0 X29.701 Y16.620
M4 S300
G1 X30.082 Y16.620
M5
M5
G0 X33.092 Y16.620
M4 S300
G1 X33.476 Y16.620
M5
M5
G0 X34.664 Y16.620
M4 S300
G1 X35.048 Y16.620
M5
M5
G0 X35.543 Y16.620
M4 S300
G1 X35.909 Y16.620
M5
M5
G0 X37.716 Y16.620
M4 S300
G1 X38.086 Y16.620
M5
M5
G0 X39.189 Y16.620
M4 S300
G1 X39.569 Y16.620
M5
M5
G0 X39.979 Y16.620
M4 S300
G1 X40.345 Y16.620
M5
M5
G0 X40.786 Y16.620
M4 S300
G1 X41.166 Y16.620
M5
M5
G0 X43.113 Y16.620
M4 S300
G1 X43.557 Y16.620
M5
M5
G0 X44.487 Y16.620
M4 S300
G1 X44.857 Y16.620
M5
M5
G0 X46.245 Y16.620
M4 S300
G1 X46.956 Y16.620
M5
M5
G0 X47.433 Y16.620
M4 S300
G1 X47.802 Y16.620
M5
M5
G0 X48.825 Y16.620
M4 S300
G1 X49.191 Y16.620
M5
M5
G0 X49.715 Y16.620
M4 S300
G1 X50.081 Y16.620
M5
M5
G0 X50.964 Y16.620
M4 S300
G1 X51.345 Y16.620
M5
M5
G0 X54.353 Y16.620
M4 S300
G1 X54.738 Y16.620
M5
M5
G0 X55.838 Y16.620
M4 S300
G1 X56.211 Y16.620
M5
M5
G0 X56.620 Y16.620
M4 S300
G1 X57.001 Y16.620
M5
M5
G0 X58.981 Y16.620
M4 S300
G1 X59.351 Y16.620
M5
M5
G0 X60.454 Y16.620
M4 S300
G1 X60.834 Y16.620
M5
M5
G0 X61.146 Y16.620
M4 S300
G1 X61.527 Y16.620
M5
M5
G0 X63.515 Y16.620
M4 S300
G1 X63.881 Y16.620
M5
M5
G0 X64.905 Y16.620
M4 S300
G1 X65.273 Y16.620
M5
M5
G0 X65.668 Y16.620
M4 S300
G1 X66.053 Y16.620
M5
M5
G0 X67.152 Y16.620
M4 S300
G1 X67.526 Y16.620
M5
M5
G0 X68.869 Y16.620
M4 S300
G1 X69.580 Y16.620
M5
M5
G0 X8.315 Y16.800
M4 S300
G1 X8.681 Y16.800
M5
M5
G0 X9.229 Y16.800
M4 S300
G1 X9.595 Y16.800
M5
M5
G0 X10.619 Y16.800
M4 S300
G1 X10.987 Y16.800
M5
M5
G0 X11.572 Y16.800
M4 S300
G1 X11.938 Y16.800
M5
M5
G0 X12.623 Y16.800
M4 S300
G1 X12.989 Y16.800
M5
M5
G0 X14.078 Y16.800
M4 S300
G1 X15.680 Y16.800
M5
M5
G0 X16.491 Y16.800
M4 S300
G1 X17.560 Y16.800
M5
M5
G0 X18.304 Y16.800
M4 S300
G1 X18.670 Y16.800
M5
M5
G0 X19.406 Y16.800
M4 S300
G1 X19.772 Y16.800
M5
M5
G0 X20.742 Y16.800
M4 S300
G1 X21.111 Y16.800
M5
M5
G0 X22.134 Y16.800
M4 S300
G1 X22.500 Y16.800
M5
M5
G0 X22.913 Y16.800
M4 S300
G1 X23.295 Y16.800
M5
M5
G0 X25.087 Y16.800
M4 S300
G1 X25.453 Y16.800
M5
M5
G0 X26.170 Y16.800
M4 S300
G1 X26.539 Y16.800
M5
M5
G0 X27.562 Y16.800
M4 S300
G1 X27.928 Y16.800
M5
M5
G0 X28.452 Y16.800
M4 S300
G1 X28.818 Y16.800
M5
M5
G0 X29.695 Y16.800
M4 S300
G1 X31.646 Y16.800
M5
M5
G0 X33.088 Y16.800
M4 S300
G1 X33.471 Y16.800
M5
M5
G0 X34.669 Y16.800
M4 S300
G1 X35.053 Y16.800
M5
M5
G0 X35.543 Y16.800
M4 S300
G1 X35.909 Y16.800
M5
M5
G0 X37.716 Y16.800
M4 S300
G1 X38.083 Y16.800
M5
M5
G0 X39.193 Y16.800
M4 S300
G1 X39.577 Y16.800
M5
M5
G0 X39.979 Y16.800
M4 S300
G1 X40.345 Y16.800
M5
M5
G0 X40.780 Y16.800
M4 S300
G1 X42.731 Y16.800
M5
M5
G0 X43.254 Y16.800
M4 S300
G1 X44.857 Y16.800
M5
M5
G0 X45.668 Y16.800
M4 S300
G1 X46.737 Y16.800
M5
M5
G0 X47.433 Y16.800
M4 S300
G1 X47.802 Y16.800
M5
M5
G0 X48.825 Y16.800
M4 S300
G1 X49.191 Y16.800
M5
M5
G0 X49.715 Y16.800
M4 S300
G1 X50.081 Y16.800
M5
M5
G0 X50.958 Y16.800
M4 S300
G1 X52.909 Y16.800
M5
M5
G0 X54.351 Y16.800
M4 S300
G1 X54.734 Y16.800
M5
M5
G0 X55.844 Y16.800
M4 S300
G1 X56.211 Y16.800
M5
M5
G0 X56.615 Y16.800
M4 S300
G1 X58.566 Y16.800
M5
M5
G0 X58.981 Y16.800
M4 S300
G1 X59.348 Y16.800
M5
M5
G0 X60.457 Y16.800
M4 S300
G1 X60.842 Y16.800
M5
M5
G0 X61.141 Y16.800
M4 S300
G1 X63.092 Y16.800
M5
M5
G0 X63.515 Y16.800
M4 S300
G1 X63.881 Y16.800
M5
M5
G0 X64.905 Y16.800
M4 S300
G1 X65.273 Y16.800
M5
M5
G0 X65.666 Y16.800
M4 S300
G1 X66.049 Y16.800
M5
M5
G0 X67.159 Y16.800
M4 S300
G1 X67.526 Y16.800
M5
M5
G0 X68.292 Y16.800
M4 S300
G1 X69.361 Y16.800
M5
M5
G0 X8.315 Y16.980
M4 S300
G1 X8.681 Y16.980
M5
M5
G0 X9.229 Y16.980
M4 S300
G1 X9.597 Y16.980
M5
M5
G0 X10.619 Y16.980
M4 S300
G1 X10.987 Y16.980
M5
M5
G0 X11.572 Y16.980
M4 S300
G1 X11.938 Y16.980
M5
M5
G0 X12.623 Y16.980
M4 S300
G1 X12.996 Y16.980
M5
M5
G0 X14.517 Y16.980
M4 S300
G1 X15.680 Y16.980
M5
M5
G0 X16.258 Y16.980
M4 S300
G1 X16.998 Y16.980
M5
M5
G0 X18.304 Y16.980
M4 S300
G1 X18.670 Y16.980
M5
M5
G0 X19.406 Y16.980
M4 S300
G1 X19.779 Y16.980
M5
M5
G0 X20.742 Y16.980
M4 S300
G1 X21.111 Y16.980
M5
M5
G0 X22.134 Y16.980
M4 S300
G1 X22.500 Y16.980
M5
M5
G0 X22.922 Y16.980
M4 S300
G1 X23.302 Y16.980
M5
M5
G0 X25.087 Y16.980
M4 S300
G1 X25.453 Y16.980
M5
M5
G0 X26.170 Y16.980
M4 S300
G1 X26.539 Y16.980
M5
M5
G0 X27.562 Y16.980
M4 S300
G1 X27.928 Y16.980
M5
M5
G0 X28.452 Y16.980
M4 S300
G1 X28.825 Y16.980
M5
M5
G0 X29.705 Y16.980
M4 S300
G1 X30.084 Y16.980
M5
M5
G0 X31.271 Y16.980
M4 S300
G1 X31.635 Y16.980
M5
M5
G0 X33.100 Y16.980
M4 S300
G1 X33.480 Y16.980
M5
M5
G0 X34.661 Y16.980
M4 S300
G1 X35.044 Y16.980
M5
M5
G0 X35.543 Y16.980
M4 S300
G1 X35.909 Y16.980
M5
M5
G0 X37.716 Y16.980
M4 S300
G1 X38.093 Y16.980
M5
M5
G0 X39.185 Y16.980
M4 S300
G1 X39.570 Y16.980
M5
M5
G0 X39.979 Y16.980
M4 S300
G1 X40.345 Y16.980
M5
M5
G0 X40.789 Y16.980
M4 S300
G1 X41.168 Y16.980
M5
M5
G0 X42.356 Y16.980
M4 S300
G1 X42.719 Y16.980
M5
M5
G0 X43.694 Y16.980
M4 S300
G1 X44.857 Y16.980
M5
M5
G0 X45.435 Y16.980
M4 S300
G1 X46.174 Y16.980
M5
M5
G0 X47.433 Y16.980
M4 S300
G1 X47.802 Y16.980
M5
M5
G0 X48.825 Y16.980
M4 S300
G1 X49.191 Y16.980
M5
M5
G0 X49.715 Y16.980
M4 S300
G1 X50.088 Y16.980
M5
M5
G0 X50.968 Y16.980
M4 S300
G1 X51.347 Y16.980
M5
M5
G0 X52.534 Y16.980
M4 S300
G1 X52.898 Y16.980
M5
M5
G0 X54.361 Y16.980
M4 S300
G1 X54.741 Y16.980
M5
M5
G0 X55.837 Y16.980
M4 S300
G1 X56.211 Y16.980
M5
M5
G0 X56.624 Y16.980
M4 S300
G1 X57.003 Y16.980
M5
M5
G0 X58.191 Y16.980
M4 S300
G1 X58.554 Y16.980
M5
M5
G0 X58.981 Y16.980
M4 S300
G1 X59.358 Y16.980
M5
M5
G0 X60.450 Y16.980
M4 S300
G1 X60.835 Y16.980
M5
M5
G0 X61.150 Y16.980
M4 S300
G1 X61.529 Y16.980
M5
M5
G0 X62.716 Y16.980
M4 S300
G1 X63.080 Y16.980
M5
M5
G0 X63.515 Y16.980
M4 S300
G1 X63.882 Y16.980
M5
M5
G0 X64.905 Y16.980
M4 S300
G1 X65.273 Y16.980
M5
M5
G0 X65.676 Y16.980
M4 S300
G1 X66.056 Y16.980
M5
M5
G0 X67.152 Y16.980
M4 S300
G1 X67.526 Y16.980
M5
M5
G0 X68.059 Y16.980
M4 S300
G1 X68.798 Y16.980
M5
M5
G0 X8.315 Y17.160
M4 S300
G1 X8.681 Y17.160
M5
M5
G0 X9.229 Y17.160
M4 S300
G1 X9.616 Y17.160
M5
M5
G0 X10.616 Y17.160
M4 S300
G1 X10.986 Y17.160
M5
M5
G0 X11.572 Y17.160
M4 S300
G1 X11.938 Y17.160
M5
M5
G0 X12.623 Y17.160
M4 S300
G1 X13.023 Y17.160
M5
M5
G0 X15.309 Y17.160
M4 S300
G1 X15.680 Y17.160
M5
M5
G0 X16.170 Y17.160
M4 S300
G1 X16.572 Y17.160
M5
M5
G0 X18.304 Y17.160
M4 S300
G1 X18.670 Y17.160
M5
M5
G0 X19.406 Y17.160
M4 S300
G1 X19.806 Y17.160
M5
M5
G0 X20.742 Y17.160
M4 S300
G1 X21.111 Y17.160
M5
M5
G0 X22.134 Y17.160
M4 S300
G1 X22.500 Y17.160
M5
M5
G0 X22.949 Y17.160
M4 S300
G1 X23.325 Y17.160
M5
M5
G0 X25.087 Y17.160
M4 S300
G1 X25.453 Y17.160
M5
M5
G0 X26.170 Y17.160
M4 S300
G1 X26.539 Y17.160
M5
M5
G0 X27.562 Y17.160
M4 S300
G1 X27.928 Y17.160
M5
M5
G0 X28.452 Y17.160
M4 S300
G1 X28.852 Y17.160
M5
M5
G0 X29.732 Y17.160
M4 S300
G1 X30.106 Y17.160
M5
M5
G0 X31.245 Y17.160
M4 S300
G1 X31.606 Y17.160
M5
M5
G0 X33.126 Y17.160
M4 S300
G1 X33.507 Y17.160
M5
M5
G0 X34.636 Y17.160
M4 S300
G1 X35.021 Y17.160
M5
M5
G0 X35.543 Y17.160
M4 S300
G1 X35.909 Y17.160
M5
M5
G0 X37.716 Y17.160
M4 S300
G1 X38.121 Y17.160
M5
M5
G0 X39.163 Y17.160
M4 S300
G1 X39.551 Y17.160
M5
M5
G0 X39.979 Y17.160
M4 S300
G1 X40.345 Y17.160
M5
M5
G0 X40.817 Y17.160
M4 S300
G1 X41.190 Y17.160
M5
M5
G0 X42.329 Y17.160
M4 S300
G1 X42.691 Y17.160
M5
M5
G0 X44.486 Y17.160
M4 S300
G1 X44.857 Y17.160
M5
M5
G0 X45.346 Y17.160
M4 S300
G1 X45.749 Y17.160
M5
M5
G0 X47.433 Y17.160
M4 S300
G1 X47.802 Y17.160
M5
M5
G0 X48.825 Y17.160
M4 S300
G1 X49.191 Y17.160
M5
M5
G0 X49.715 Y17.160
M4 S300
G1 X50.115 Y17.160
M5
M5
G0 X50.995 Y17.160
M4 S300
G1 X51.369 Y17.160
M5
M5
G0 X52.508 Y17.160
M4 S300
G1 X52.869 Y17.160
M5
M5
G0 X54.383 Y17.160
M4 S300
G1 X54.763 Y17.160
M5
M5
G0 X55.813 Y17.160
M4 S300
G1 X56.211 Y17.160
M5
M5
G0 X56.651 Y17.160
M4 S300
G1 X57.025 Y17.160
M5
M5
G0 X58.164 Y17.160
M4 S300
G1 X58.526 Y17.160
M5
M5
G0 X58.981 Y17.160
M4 S300
G1 X59.386 Y17.160
M5
M5
G0 X60.428 Y17.160
M4 S300
G1 X60.816 Y17.160
M5
M5
G0 X61.177 Y17.160
M4 S300
G1 X61.551 Y17.160
M5
M5
G0 X62.690 Y17.160
M4 S300
G1 X63.052 Y17.160
M5
M5
G0 X63.515 Y17.160
M4 S300
G1 X63.902 Y17.160
M5
M5
G0 X64.902 Y17.160
M4 S300
G1 X65.272 Y17.160
M5
M5
G0 X65.698 Y17.160
M4 S300
G1 X66.078 Y17.160
M5
M5
G0 X67.127 Y17.160
M4 S300
G1 X67.526 Y17.160
M5
M5
G0 X67.970 Y17.160
M4 S300
G1 X68.373 Y17.160
M5
M5
G0 X8.315 Y17.340
M4 S300
G1 X8.681 Y17.340
M5
M5
G0 X9.229 Y17.340
M4 S300
G1 X9.676 Y17.340
M5
M5
G0 X10.594 Y17.340
M4 S300
G1 X10.975 Y17.340
M5
M5
G0 X11.572 Y17.340
M4 S300
G1 X11.938 Y17.340
M5
M5
G0 X12.623 Y17.340
M4 S300
G1 X13.086 Y17.340
M5
M5
G0 X13.969 Y17.340
M4 S300
G1 X14.355 Y17.340
M5
M5
G0 X15.289 Y17.340
M4 S300
G1 X15.667 Y17.340
M5
M5
G0 X16.158 Y17.340
M4 S300
G1 X16.512 Y17.340
M5
M5
G0 X17.513 Y17.340
M4 S300
G1 X17.607 Y17.340
M5
M5
G0 X18.304 Y17.340
M4 S300
G1 X18.670 Y17.340
M5
M5
G0 X19.406 Y17.340
M4 S300
G1 X19.869 Y17.340
M5
M5
G0 X20.742 Y17.340
M4 S300
G1 X21.111 Y17.340
M5
M5
G0 X22.134 Y17.340
M4 S300
G1 X22.500 Y17.340
M5
M5
G0 X22.998 Y17.340
M4 S300
G1 X23.376 Y17.340
M5
M5
G0 X24.291 Y17.340
M4 S300
G1 X24.677 Y17.340
M5
M5
G0 X25.087 Y17.340
M4 S300
G1 X25.453 Y17.340
M5
M5
G0 X26.170 Y17.340
M4 S300
G1 X26.539 Y17.340
M5
M5
G0 X27.562 Y17.340
M4 S300
G1 X27.928 Y17.340
M5
M5
G0 X28.452 Y17.340
M4 S300
G1 X28.915 Y17.340
M5
M5
G0 X29.784 Y17.340
M4 S300
G1 X30.168 Y17.340
M5
M5
G0 X31.186 Y17.340
M4 S300
G1 X31.560 Y17.340
M5
M5
G0 X33.170 Y17.340
M4 S300
G1 X33.564 Y17.340
M5
M5
G0 X34.583 Y17.340
M4 S300
G1 X34.977 Y17.340
M5
M5
G0 X35.543 Y17.340
M4 S300
G1 X35.909 Y17.340
M5
M5
G0 X37.716 Y17.340
M4 S300
G1 X38.181 Y17.340
M5
M5
G0 X39.114 Y17.340
M4 S300
G1 X39.514 Y17.340
M5
M5
G0 X39.979 Y17.340
M4 S300
G1 X40.345 Y17.340
M5
M5
G0 X40.868 Y17.340
M4 S300
G1 X41.252 Y17.340
M5
M5
G0 X42.271 Y17.340
M4 S300
G1 X42.645 Y17.340
M5
M5
G0 X43.145 Y17.340
M4 S300
G1 X43.532 Y17.340
M5
M5
G0 X44.465 Y17.340
M4 S300
G1 X44.843 Y17.340
M5
M5
G0 X45.334 Y17.340
M4 S300
G1 X45.688 Y17.340
M5
M5
G0 X46.690 Y17.340
M4 S300
G1 X46.784 Y17.340
M5
M5
G0 X47.433 Y17.340
M4 S300
G1 X47.802 Y17.340
M5
M5
G0 X48.825 Y17.340
M4 S300
G1 X49.191 Y17.340
M5
M5
G0 X49.715 Y17.340
M4 S300
G1 X50.178 Y17.340
M5
M5
G0 X51.046 Y17.340
M4 S300
G1 X51.431 Y17.340
M5
M5
G0 X52.449 Y17.340
M4 S300
G1 X52.823 Y17.340
M5
M5
G0 X54.420 Y17.340
M4 S300
G1 X54.811 Y17.340
M5
M5
G0 X55.758 Y17.340
M4 S300
G1 X56.211 Y17.340
M5
M5
G0 X56.703 Y17.340
M4 S300
G1 X57.087 Y17.340
M5
M5
G0 X58.106 Y17.340
M4 S300
G1 X58.480 Y17.340
M5
M5
G0 X58.981 Y17.340
M4 S300
G1 X59.446 Y17.340
M5
M5
G0 X60.379 Y17.340
M4 S300
G1 X60.779 Y17.340
M5
M5
G0 X61.229 Y17.340
M4 S300
G1 X61.613 Y17.340
M5
M5
G0 X62.632 Y17.340
M4 S300
G1 X63.006 Y17.340
M5
M5
G0 X63.515 Y17.340
M4 S300
G1 X63.961 Y17.340
M5
M5
G0 X64.880 Y17.340
M4 S300
G1 X65.261 Y17.340
M5
M5
G0 X65.735 Y17.340
M4 S300
G1 X66.126 Y17.340
M5
M5
G0 X67.073 Y17.340
M4 S300
G1 X67.526 Y17.340
M5
M5
G0 X67.958 Y17.340
M4 S300
G1 X68.312 Y17.340
M5
M5
G0 X69.313 Y17.340
M4 S300
G1 X69.408 Y17.340
M5
M5
G0 X8.315 Y17.520
M4 S300
G1 X8.681 Y17.520
M5
M5
G0 X9.229 Y17.520
M4 S300
G1 X9.579 Y17.520
M5
M5
G0 X9.598 Y17.520
M4 S300
G1 X9.820 Y17.520
M5
M5
G0 X10.512 Y17.520
M4 S300
G1 X10.937 Y17.520
M5
M5
G0 X11.572 Y17.520
M4 S300
G1 X11.938 Y17.520
M5
M5
G0 X12.621 Y17.520
M4 S300
G1 X12.970 Y17.520
M5
M5
G0 X13.013 Y17.520
M4 S300
G1 X13.241 Y17.520
M5
M5
G0 X14.026 Y17.520
M4 S300
G1 X14.444 Y17.520
M5
M5
G0 X15.196 Y17.520
M4 S300
G1 X15.616 Y17.520
M5
M5
G0 X16.193 Y17.520
M4 S300
G1 X16.584 Y17.520
M5
M5
G0 X17.400 Y17.520
M4 S300
G1 X17.800 Y17.520
M5
M5
G0 X18.304 Y17.520
M4 S300
G1 X18.670 Y17.520
M5
M5
G0 X19.404 Y17.520
M4 S300
G1 X19.753 Y17.520
M5
M5
G0 X19.796 Y17.520
M4 S300
G1 X20.024 Y17.520
M5
M5
G0 X20.742 Y17.520
M4 S300
G1 X21.111 Y17.520
M5
M5
G0 X22.134 Y17.520
M4 S300
G1 X22.500 Y17.520
M5
M5
G0 X23.084 Y17.520
M4 S300
G1 X23.502 Y17.520
M5
M5
G0 X24.175 Y17.520
M4 S300
G1 X24.603 Y17.520
M5
M5
G0 X25.087 Y17.520
M4 S300
G1 X25.453 Y17.520
M5
M5
G0 X26.170 Y17.520
M4 S300
G1 X26.539 Y17.520
M5
M5
G0 X27.562 Y17.520
M4 S300
G1 X27.928 Y17.520
M5
M5
G0 X28.450 Y17.520
M4 S300
G1 X28.799 Y17.520
M5
M5
G0 X28.842 Y17.520
M4 S300
G1 X29.070 Y17.520
M5
M5
G0 X29.873 Y17.520
M4 S300
G1 X30.307 Y17.520
M5
M5
G0 X31.057 Y17.520
M4 S300
G1 X31.478 Y17.520
M5
M5
G0 X33.257 Y17.520
M4 S300
G1 X33.692 Y17.520
M5
M5
G0 X34.462 Y17.520
M4 S300
G1 X34.896 Y17.520
M5
M5
G0 X35.543 Y17.520
M4 S300
G1 X35.909 Y17.520
M5
M5
G0 X37.716 Y17.520
M4 S300
G1 X38.311 Y17.520
M5
M5
G0 X38.995 Y17.520
M4 S300
G1 X39.446 Y17.520
M5
M5
G0 X39.979 Y17.520
M4 S300
G1 X40.345 Y17.520
M5
M5
G0 X40.958 Y17.520
M4 S300
G1 X41.391 Y17.520
M5
M5
G0 X42.142 Y17.520
M4 S300
G1 X42.562 Y17.520
M5
M5
G0 X43.203 Y17.520
M4 S300
G1 X43.621 Y17.520
M5
M5
G0 X44.373 Y17.520
M4 S300
G1 X44.792 Y17.520
M5
M5
G0 X45.370 Y17.520
M4 S300
G1 X45.761 Y17.520
M5
M5
G0 X46.577 Y17.520
M4 S300
G1 X46.976 Y17.520
M5
M5
G0 X47.433 Y17.520
M4 S300
G1 X47.802 Y17.520
M5
M5
G0 X48.825 Y17.520
M4 S300
G1 X49.191 Y17.520
M5
M5
G0 X49.713 Y17.520
M4 S300
G1 X50.062 Y17.520
M5
M5
G0 X50.105 Y17.520
M4 S300
G1 X50.333 Y17.520
M5
M5
G0 X51.136 Y17.520
M4 S300
G1 X51.570 Y17.520
M5
M5
G0 X52.320 Y17.520
M4 S300
G1 X52.740 Y17.520
M5
M5
G0 X54.491 Y17.520
M4 S300
G1 X54.920 Y17.520
M5
M5
G0 X55.633 Y17.520
M4 S300
G1 X56.211 Y17.520
M5
M5
G0 X56.793 Y17.520
M4 S300
G1 X57.226 Y17.520
M5
M5
G0 X57.977 Y17.520
M4 S300
G1 X58.397 Y17.520
M5
M5
G0 X58.981 Y17.520
M4 S300
G1 X59.576 Y17.520
M5
M5
G0 X60.260 Y17.520
M4 S300
G1 X60.711 Y17.520
M5
M5
G0 X61.319 Y17.520
M4 S300
G1 X61.752 Y17.520
M5
M5
G0 X62.502 Y17.520
M4 S300
G1 X62.923 Y17.520
M5
M5
G0 X63.515 Y17.520
M4 S300
G1 X63.864 Y17.520
M5
M5
G0 X63.884 Y17.520
M4 S300
G1 X64.106 Y17.520
M5
M5
G0 X64.797 Y17.520
M4 S300
G1 X65.223 Y17.520
M5
M5
G0 X65.806 Y17.520
M4 S300
G1 X66.235 Y17.520
M5
M5
G0 X66.948 Y17.520
M4 S300
G1 X67.526 Y17.520
M5
M5
G0 X67.994 Y17.520
M4 S300
G1 X68.385 Y17.520
M5
M5
G0 X69.200 Y17.520
M4 S300
G1 X69.600 Y17.520
M5
M5
G0 X8.315 Y17.700
M4 S300
G1 X8.681 Y17.700
M5
M5
G0 X9.226 Y17.700
M4 S300
G1 X9.573 Y17.700
M5
M5
G0 X9.729 Y17.700
M4 S300
G1 X10.846 Y17.700
M5
M5
G0 X11.262 Y17.700
M4 S300
G1 X12.367 Y17.700
M5
M5
G0 X12.617 Y17.700
M4 S300
G1 X12.964 Y17.700
M5
M5
G0 X13.096 Y17.700
M4 S300
G1 X13.652 Y17.700
M5
M5
G0 X14.153 Y17.700
M4 S300
G1 X15.494 Y17.700
M5
M5
G0 X16.310 Y17.700
M4 S300
G1 X17.678 Y17.700
M5
M5
G0 X18.049 Y17.700
M4 S300
G1 X19.077 Y17.700
M5
M5
G0 X19.400 Y17.700
M4 S300
G1 X19.747 Y17.700
M5
M5
G0 X19.879 Y17.700
M4 S300
G1 X20.435 Y17.700
M5
M5
G0 X20.742 Y17.700
M4 S300
G1 X21.111 Y17.700
M5
M5
G0 X22.134 Y17.700
M4 S300
G1 X22.500 Y17.700
M5
M5
G0 X23.230 Y17.700
M4 S300
G1 X24.462 Y17.700
M5
M5
G0 X24.832 Y17.700
M4 S300
G1 X25.860 Y17.700
M5
M5
G0 X26.170 Y17.700
M4 S300
G1 X26.539 Y17.700
M5
M5
G0 X27.562 Y17.700
M4 S300
G1 X27.928 Y17.700
M5
M5
G0 X28.446 Y17.700
M4 S300
G1 X28.793 Y17.700
M5
M5
G0 X28.925 Y17.700
M4 S300
G1 X29.481 Y17.700
M5
M5
G0 X30.027 Y17.700
M4 S300
G1 X31.333 Y17.700
M5
M5
G0 X33.404 Y17.700
M4 S300
G1 X34.753 Y17.700
M5
M5
G0 X35.233 Y17.700
M4 S300
G1 X36.338 Y17.700
M5
M5
G0 X37.713 Y17.700
M4 S300
G1 X38.071 Y17.700
M5
M5
G0 X38.204 Y17.700
M4 S300
G1 X39.325 Y17.700
M5
M5
G0 X39.979 Y17.700
M4 S300
G1 X40.345 Y17.700
M5
M5
G0 X41.111 Y17.700
M4 S300
G1 X42.417 Y17.700
M5
M5
G0 X43.329 Y17.700
M4 S300
G1 X44.671 Y17.700
M5
M5
G0 X45.487 Y17.700
M4 S300
G1 X46.854 Y17.700
M5
M5
G0 X47.433 Y17.700
M4 S300
G1 X47.802 Y17.700
M5
M5
G0 X48.825 Y17.700
M4 S300
G1 X49.191 Y17.700
M5
M5
G0 X49.709 Y17.700
M4 S300
G1 X50.056 Y17.700
M5
M5
G0 X50.188 Y17.700
M4 S300
G1 X50.744 Y17.700
M5
M5
G0 X51.290 Y17.700
M4 S300
G1 X52.596 Y17.700
M5
M5
G0 X54.611 Y17.700
M4 S300
G1 X55.730 Y17.700
M5
M5
G0 X55.846 Y17.700
M4 S300
G1 X56.211 Y17.700
M5
M5
G0 X56.946 Y17.700
M4 S300
G1 X58.252 Y17.700
M5
M5
G0 X58.978 Y17.700
M4 S300
G1 X59.336 Y17.700
M5
M5
G0 X59.469 Y17.700
M4 S300
G1 X60.590 Y17.700
M5
M5
G0 X61.472 Y17.700
M4 S300
G1 X62.778 Y17.700
M5
M5
G0 X63.512 Y17.700
M4 S300
G1 X63.859 Y17.700
M5
M5
G0 X64.015 Y17.700
M4 S300
G1 X65.132 Y17.700
M5
M5
G0 X65.926 Y17.700
M4 S300
G1 X67.045 Y17.700
M5
M5
G0 X67.161 Y17.700
M4 S300
G1 X67.526 Y17.700
M5
M5
G0 X68.111 Y17.700
M4 S300
G1 X69.478 Y17.700
M5
M5
G0 X10.022 Y17.880
M4 S300
G1 X10.569 Y17.880
M5
M5
G0 X11.572 Y17.880
M4 S300
G1 X11.938 Y17.880
M5
M5
G0 X13.295 Y17.880
M4 S300
G1 X13.652 Y17.880
M5
M5
G0 X14.522 Y17.880
M4 S300
G1 X15.163 Y17.880
M5
M5
G0 X16.682 Y17.880
M4 S300
G1 X17.303 Y17.880
M5
M5
G0 X18.319 Y17.880
M4 S300
G1 X18.670 Y17.880
M5
M5
G0 X20.078 Y17.880
M4 S300
G1 X20.435 Y17.880
M5
M5
G0 X23.573 Y17.880
M4 S300
G1 X24.132 Y17.880
M5
M5
G0 X25.102 Y17.880
M4 S300
G1 X25.453 Y17.880
M5
M5
G0 X29.124 Y17.880
M4 S300
G1 X29.481 Y17.880
M5
M5
G0 X30.385 Y17.880
M4 S300
G1 X30.970 Y17.880
M5
M5
G0 X33.775 Y17.880
M4 S300
G1 X34.389 Y17.880
M5
M5
G0 X35.543 Y17.880
M4 S300
G1 X35.909 Y17.880
M5
M5
G0 X38.495 Y17.880
M4 S300
G1 X39.019 Y17.880
M5
M5
G0 X39.979 Y17.880
M4 S300
G1 X40.345 Y17.880
M5
M5
G0 X41.469 Y17.880
M4 S300
G1 X42.054 Y17.880
M5
M5
G0 X43.698 Y17.880
M4 S300
G1 X44.339 Y17.880
M5
M5
G0 X45.858 Y17.880
M4 S300
G1 X46.479 Y17.880
M5
M5
G0 X50.387 Y17.880
M4 S300
G1 X50.744 Y17.880
M5
M5
G0 X51.648 Y17.880
M4 S300
G1 X52.233 Y17.880
M5
M5
G0 X54.915 Y17.880
M4 S300
G1 X55.434 Y17.880
M5
M5
G0 X55.844 Y17.880
M4 S300
G1 X56.211 Y17.880
M5
M5
G0 X57.304 Y17.880
M4 S300
G1 X57.889 Y17.880
M5
M5
G0 X59.760 Y17.880
M4 S300
G1 X60.284 Y17.880
M5
M5
G0 X61.830 Y17.880
M4 S300
G1 X62.415 Y17.880
M5
M5
G0 X64.308 Y17.880
M4 S300
G1 X64.854 Y17.880
M5
M5
G0 X66.230 Y17.880
M4 S300
G1 X66.748 Y17.880
M5
M5
G0 X67.159 Y17.880
M4 S300
G1 X67.526 Y17.880
M5
M5
G0 X68.482 Y17.880
M4 S300
G1 X69.103 Y17.880
M5
M5
G0 X11.572 Y18.060
M4 S300
G1 X11.938 Y18.060
M5
M5
G0 X18.359 Y18.060
M4 S300
G1 X18.670 Y18.060
M5
M5
G0 X25.142 Y18.060
M4 S300
G1 X25.453 Y18.060
M5
M5
G0 X35.543 Y18.060
M4 S300
G1 X35.909 Y18.060
M5
M5
G0 X39.979 Y18.060
M4 S300
G1 X40.345 Y18.060
M5
M5
G0 X55.844 Y18.060
M4 S300
G1 X56.211 Y18.060
M5
M5
G0 X67.159 Y18.060
M4 S300
G1 X67.526 Y18.060
M5
M5
G0 X11.578 Y18.240
M4 S300
G1 X11.957 Y18.240
M5
M5
G0 X18.398 Y18.240
M4 S300
G1 X18.670 Y18.240
M5
M5
G0 X25.181 Y18.240
M4 S300
G1 X25.453 Y18.240
M5
M5
G0 X35.549 Y18.240
M4 S300
G1 X35.928 Y18.240
M5
M5
G0 X39.979 Y18.240
M4 S300
G1 X40.345 Y18.240
M5
M5
G0 X55.844 Y18.240
M4 S300
G1 X56.211 Y18.240
M5
M5
G0 X67.159 Y18.240
M4 S300
G1 X67.526 Y18.240
M5
M5
G0 X8.315 Y18.420
M4 S300
G1 X8.681 Y18.420
M5
M5
G0 X11.619 Y18.420
M4 S300
G1 X12.367 Y18.420
M5
M5
G0 X35.590 Y18.420
M4 S300
G1 X36.338 Y18.420
M5
M5
G0 X39.979 Y18.420
M4 S300
G1 X40.345 Y18.420
M5
M5
G0 X55.844 Y18.420
M4 S300
G1 X56.211 Y18.420
M5
M5
G0 X67.159 Y18.420
M4 S300
G1 X67.526 Y18.420
M5
M5
G0 X8.315 Y18.600
M4 S300
G1 X8.681 Y18.600
M5
M5
G0 X11.759 Y18.600
M4 S300
G1 X12.367 Y18.600
M5
M5
G0 X35.730 Y18.600
M4 S300
G1 X36.338 Y18.600
M5
M5
G0 X39.979 Y18.600
M4 S300
G1 X40.345 Y18.600
M5
M5
G0 X55.844 Y18.600
M4 S300
G1 X56.211 Y18.600
M5
M5
G0 X67.159 Y18.600
M4 S300
G1 X67.526 Y18.600
M5
M5
G0 X14.864 Y18.960
M4 S300
G1 X15.534 Y18.960
M5
M5
G0 X32.050 Y18.960
M4 S300
G1 X32.721 Y18.960
M5
M5
G0 X47.135 Y18.960
M4 S300
G1 X48.311 Y18.960
M5
M5
G0 X15.228 Y19.140
M4 S300
G1 X15.696 Y19.140
M5
M5
G0 X32.414 Y19.140
M4 S300
G1 X32.882 Y19.140
M5
M5
G0 X46.962 Y19.140
M4 S300
G1 X47.458 Y19.140
M5
M5
G0 X48.003 Y19.140
M4 S300
G1 X48.491 Y19.140
M5
M5
G0 X15.428 Y19.320
M4 S300
G1 X15.802 Y19.320
M5
M5
G0 X32.614 Y19.320
M4 S300
G1 X32.988 Y19.320
M5
M5
G0 X46.884 Y19.320
M4 S300
G1 X47.273 Y19.320
M5
M5
G0 X48.191 Y19.320
M4 S300
G1 X48.580 Y19.320
M5
M5
G0 X15.533 Y19.500
M4 S300
G1 X15.886 Y19.500
M5
M5
G0 X32.719 Y19.500
M4 S300
G1 X33.072 Y19.500
M5
M5
G0 X48.256 Y19.500
M4 S300
G1 X48.627 Y19.500
M5
M5
G0 X11.627 Y19.680
M4 S300
G1 X11.991 Y19.680
M5
M5
G0 X12.900 Y19.680
M4 S300
G1 X13.263 Y19.680
M5
M5
G0 X14.172 Y19.680
M4 S300
G1 X14.534 Y19.680
M5
M5
G0 X15.609 Y19.680
M4 S300
G1 X15.959 Y19.680
M5
M5
G0 X17.381 Y19.680
M4 S300
G1 X18.196 Y19.680
M5
M5
G0 X19.341 Y19.680
M4 S300
G1 X19.887 Y19.680
M5
M5
G0 X20.749 Y19.680
M4 S300
G1 X21.477 Y19.680
M5
M5
G0 X22.479 Y19.680
M4 S300
G1 X22.845 Y19.680
M5
M5
G0 X23.824 Y19.680
M4 S300
G1 X24.190 Y19.680
M5
M5
G0 X25.252 Y19.680
M4 S300
G1 X25.955 Y19.680
M5
M5
G0 X27.362 Y19.680
M4 S300
G1 X27.990 Y19.680
M5
M5
G0 X28.406 Y19.680
M4 S300
G1 X28.752 Y19.680
M5
M5
G0 X29.594 Y19.680
M4 S300
G1 X30.409 Y19.680
M5
M5
G0 X31.290 Y19.680
M4 S300
G1 X31.657 Y19.680
M5
M5
G0 X32.795 Y19.680
M4 S300
G1 X33.145 Y19.680
M5
M5
G0 X35.368 Y19.680
M4 S300
G1 X35.732 Y19.680
M5
M5
G0 X36.641 Y19.680
M4 S300
G1 X37.003 Y19.680
M5
M5
G0 X37.913 Y19.680
M4 S300
G1 X38.275 Y19.680
M5
M5
G0 X38.747 Y19.680
M4 S300
G1 X39.113 Y19.680
M5
M5
G0 X39.991 Y19.680
M4 S300
G1 X40.806 Y19.680
M5
M5
G0 X42.026 Y19.680
M4 S300
G1 X42.840 Y19.680
M5
M5
G0 X43.720 Y19.680
M4 S300
G1 X44.086 Y19.680
M5
M5
G0 X44.634 Y19.680
M4 S300
G1 X45.000 Y19.680
M5
M5
G0 X46.024 Y19.680
M4 S300
G1 X46.392 Y19.680
M5
M5
G0 X47.349 Y19.680
M4 S300
G1 X47.780 Y19.680
M5
M5
G0 X48.277 Y19.680
M4 S300
G1 X48.640 Y19.680
M5
M5
G0 X50.610 Y19.680
M4 S300
G1 X51.037 Y19.680
M5
M5
G0 X51.963 Y19.680
M4 S300
G1 X52.392 Y19.680
M5
M5
G0 X53.229 Y19.680
M4 S300
G1 X53.595 Y19.680
M5
M5
G0 X54.619 Y19.680
M4 S300
G1 X54.987 Y19.680
M5
M5
G0 X56.025 Y19.680
M4 S300
G1 X56.753 Y19.680
M5
M5
G0 X57.755 Y19.680
M4 S300
G1 X58.121 Y19.680
M5
M5
G0 X59.145 Y19.680
M4 S300
G1 X59.513 Y19.680
M5
M5
G0 X61.404 Y19.680
M4 S300
G1 X61.950 Y19.680
M5
M5
G0 X62.279 Y19.680
M4 S300
G1 X62.645 Y19.680
M5
M5
G0 X63.669 Y19.680
M4 S300
G1 X64.037 Y19.680
M5
M5
G0 X65.075 Y19.680
M4 S300
G1 X65.803 Y19.680
M5
M5
G0 X11.627 Y19.860
M4 S300
G1 X11.991 Y19.860
M5
M5
G0 X12.900 Y19.860
M4 S300
G1 X13.263 Y19.860
M5
M5
G0 X14.172 Y19.860
M4 S300
G1 X14.534 Y19.860
M5
M5
G0 X15.540 Y19.860
M4 S300
G1 X16.028 Y19.860
M5
M5
G0 X17.051 Y19.860
M4 S300
G1 X18.529 Y19.860
M5
M5
G0 X19.167 Y19.860
M4 S300
G1 X19.924 Y19.860
M5
M5
G0 X20.423 Y19.860
M4 S300
G1 X21.804 Y19.860
M5
M5
G0 X22.479 Y19.860
M4 S300
G1 X22.845 Y19.860
M5
M5
G0 X23.824 Y19.860
M4 S300
G1 X24.190 Y19.860
M5
M5
G0 X24.934 Y19.860
M4 S300
G1 X26.280 Y19.860
M5
M5
G0 X27.113 Y19.860
M4 S300
G1 X28.252 Y19.860
M5
M5
G0 X28.396 Y19.860
M4 S300
G1 X28.743 Y19.860
M5
M5
G0 X29.264 Y19.860
M4 S300
G1 X30.742 Y19.860
M5
M5
G0 X31.290 Y19.860
M4 S300
G1 X31.657 Y19.860
M5
M5
G0 X32.726 Y19.860
M4 S300
G1 X33.214 Y19.860
M5
M5
G0 X35.368 Y19.860
M4 S300
G1 X35.732 Y19.860
M5
M5
G0 X36.641 Y19.860
M4 S300
G1 X37.003 Y19.860
M5
M5
G0 X37.913 Y19.860
M4 S300
G1 X38.275 Y19.860
M5
M5
G0 X38.747 Y19.860
M4 S300
G1 X39.113 Y19.860
M5
M5
G0 X39.661 Y19.860
M4 S300
G1 X41.140 Y19.860
M5
M5
G0 X41.695 Y19.860
M4 S300
G1 X43.174 Y19.860
M5
M5
G0 X43.720 Y19.860
M4 S300
G1 X44.086 Y19.860
M5
M5
G0 X44.634 Y19.860
M4 S300
G1 X45.000 Y19.860
M5
M5
G0 X46.024 Y19.860
M4 S300
G1 X46.392 Y19.860
M5
M5
G0 X47.027 Y19.860
M4 S300
G1 X48.118 Y19.860
M5
M5
G0 X48.281 Y19.860
M4 S300
G1 X48.645 Y19.860
M5
M5
G0 X50.560 Y19.860
M4 S300
G1 X51.083 Y19.860
M5
M5
G0 X51.919 Y19.860
M4 S300
G1 X52.444 Y19.860
M5
M5
G0 X53.229 Y19.860
M4 S300
G1 X53.595 Y19.860
M5
M5
G0 X54.619 Y19.860
M4 S300
G1 X54.987 Y19.860
M5
M5
G0 X55.699 Y19.860
M4 S300
G1 X57.080 Y19.860
M5
M5
G0 X57.755 Y19.860
M4 S300
G1 X58.121 Y19.860
M5
M5
G0 X59.145 Y19.860
M4 S300
G1 X59.513 Y19.860
M5
M5
G0 X61.230 Y19.860
M4 S300
G1 X61.987 Y19.860
M5
M5
G0 X62.279 Y19.860
M4 S300
G1 X62.645 Y19.860
M5
M5
G0 X63.669 Y19.860
M4 S300
G1 X64.037 Y19.860
M5
M5
G0 X64.749 Y19.860
M4 S300
G1 X66.130 Y19.860
M5
M5
G0 X11.627 Y20.040
M4 S300
G1 X11.991 Y20.040
M5
M5
G0 X12.900 Y20.040
M4 S300
G1 X13.263 Y20.040
M5
M5
G0 X14.172 Y20.040
M4 S300
G1 X14.534 Y20.040
M5
M5
G0 X15.468 Y20.040
M4 S300
G1 X16.098 Y20.040
M5
M5
G0 X16.928 Y20.040
M4 S300
G1 X17.329 Y20.040
M5
M5
G0 X18.261 Y20.040
M4 S300
G1 X18.651 Y20.040
M5
M5
G0 X19.121 Y20.040
M4 S300
G1 X19.507 Y20.040
M5
M5
G0 X20.276 Y20.040
M4 S300
G1 X20.714 Y20.040
M5
M5
G0 X21.534 Y20.040
M4 S300
G1 X21.946 Y20.040
M5
M5
G0 X22.479 Y20.040
M4 S300
G1 X22.845 Y20.040
M5
M5
G0 X23.824 Y20.040
M4 S300
G1 X24.190 Y20.040
M5
M5
G0 X24.791 Y20.040
M4 S300
G1 X25.218 Y20.040
M5
M5
G0 X26.001 Y20.040
M4 S300
G1 X26.427 Y20.040
M5
M5
G0 X27.029 Y20.040
M4 S300
G1 X27.448 Y20.040
M5
M5
G0 X28.166 Y20.040
M4 S300
G1 X28.379 Y20.040
M5
M5
G0 X28.391 Y20.040
M4 S300
G1 X28.741 Y20.040
M5
M5
G0 X29.141 Y20.040
M4 S300
G1 X29.542 Y20.040
M5
M5
G0 X30.474 Y20.040
M4 S300
G1 X30.864 Y20.040
M5
M5
G0 X31.290 Y20.040
M4 S300
G1 X31.657 Y20.040
M5
M5
G0 X32.654 Y20.040
M4 S300
G1 X33.284 Y20.040
M5
M5
G0 X35.368 Y20.040
M4 S300
G1 X35.732 Y20.040
M5
M5
G0 X36.641 Y20.040
M4 S300
G1 X37.003 Y20.040
M5
M5
G0 X37.913 Y20.040
M4 S300
G1 X38.275 Y20.040
M5
M5
G0 X38.747 Y20.040
M4 S300
G1 X39.113 Y20.040
M5
M5
G0 X39.538 Y20.040
M4 S300
G1 X39.939 Y20.040
M5
M5
G0 X40.871 Y20.040
M4 S300
G1 X41.262 Y20.040
M5
M5
G0 X41.573 Y20.040
M4 S300
G1 X41.974 Y20.040
M5
M5
G0 X42.906 Y20.040
M4 S300
G1 X43.296 Y20.040
M5
M5
G0 X43.720 Y20.040
M4 S300
G1 X44.086 Y20.040
M5
M5
G0 X44.634 Y20.040
M4 S300
G1 X45.000 Y20.040
M5
M5
G0 X46.024 Y20.040
M4 S300
G1 X46.392 Y20.040
M5
M5
G0 X46.909 Y20.040
M4 S300
G1 X47.352 Y20.040
M5
M5
G0 X48.013 Y20.040
M4 S300
G1 X48.254 Y20.040
M5
M5
G0 X48.281 Y20.040
M4 S300
G1 X48.645 Y20.040
M5
M5
G0 X50.509 Y20.040
M4 S300
G1 X50.804 Y20.040
M5
M5
G0 X50.832 Y20.040
M4 S300
G1 X51.129 Y20.040
M5
M5
G0 X51.874 Y20.040
M4 S300
G1 X52.167 Y20.040
M5
M5
G0 X52.197 Y20.040
M4 S300
G1 X52.495 Y20.040
M5
M5
G0 X53.229 Y20.040
M4 S300
G1 X53.595 Y20.040
M5
M5
G0 X54.619 Y20.040
M4 S300
G1 X54.987 Y20.040
M5
M5
G0 X55.552 Y20.040
M4 S300
G1 X55.990 Y20.040
M5
M5
G0 X56.810 Y20.040
M4 S300
G1 X57.222 Y20.040
M5
M5
G0 X57.755 Y20.040
M4 S300
G1 X58.121 Y20.040
M5
M5
G0 X59.145 Y20.040
M4 S300
G1 X59.513 Y20.040
M5
M5
G0 X61.184 Y20.040
M4 S300
G1 X61.570 Y20.040
M5
M5
G0 X62.279 Y20.040
M4 S300
G1 X62.645 Y20.040
M5
M5
G0 X63.669 Y20.040
M4 S300
G1 X64.037 Y20.040
M5
M5
G0 X64.602 Y20.040
M4 S300
G1 X65.040 Y20.040
M5
M5
G0 X65.860 Y20.040
M4 S300
G1 X66.272 Y20.040
M5
M5
G0 X11.627 Y20.220
M4 S300
G1 X11.991 Y20.220
M5
M5
G0 X12.900 Y20.220
M4 S300
G1 X13.263 Y20.220
M5
M5
G0 X14.172 Y20.220
M4 S300
G1 X14.534 Y20.220
M5
M5
G0 X15.397 Y20.220
M4 S300
G1 X15.744 Y20.220
M5
M5
G0 X15.844 Y20.220
M4 S300
G1 X16.167 Y20.220
M5
M5
G0 X17.034 Y20.220
M4 S300
G1 X17.212 Y20.220
M5
M5
G0 X18.337 Y20.220
M4 S300
G1 X18.691 Y20.220
M5
M5
G0 X19.114 Y20.220
M4 S300
G1 X19.480 Y20.220
M5
M5
G0 X20.189 Y20.220
M4 S300
G1 X20.581 Y20.220
M5
M5
G0 X21.669 Y20.220
M4 S300
G1 X21.765 Y20.220
M5
M5
G0 X22.479 Y20.220
M4 S300
G1 X22.845 Y20.220
M5
M5
G0 X23.824 Y20.220
M4 S300
G1 X24.190 Y20.220
M5
M5
G0 X24.707 Y20.220
M4 S300
G1 X25.099 Y20.220
M5
M5
G0 X26.120 Y20.220
M4 S300
G1 X26.511 Y20.220
M5
M5
G0 X26.993 Y20.220
M4 S300
G1 X27.372 Y20.220
M5
M5
G0 X28.300 Y20.220
M4 S300
G1 X28.740 Y20.220
M5
M5
G0 X29.247 Y20.220
M4 S300
G1 X29.425 Y20.220
M5
M5
G0 X30.550 Y20.220
M4 S300
G1 X30.904 Y20.220
M5
M5
G0 X31.290 Y20.220
M4 S300
G1 X31.657 Y20.220
M5
M5
G0 X32.583 Y20.220
M4 S300
G1 X32.930 Y20.220
M5
M5
G0 X33.030 Y20.220
M4 S300
G1 X33.353 Y20.220
M5
M5
G0 X35.368 Y20.220
M4 S300
G1 X35.732 Y20.220
M5
M5
G0 X36.641 Y20.220
M4 S300
G1 X37.003 Y20.220
M5
M5
G0 X37.913 Y20.220
M4 S300
G1 X38.275 Y20.220
M5
M5
G0 X38.747 Y20.220
M4 S300
G1 X39.113 Y20.220
M5
M5
G0 X39.645 Y20.220
M4 S300
G1 X39.822 Y20.220
M5
M5
G0 X40.947 Y20.220
M4 S300
G1 X41.301 Y20.220
M5
M5
G0 X41.679 Y20.220
M4 S300
G1 X41.857 Y20.220
M5
M5
G0 X42.982 Y20.220
M4 S300
G1 X43.336 Y20.220
M5
M5
G0 X43.720 Y20.220
M4 S300
G1 X44.086 Y20.220
M5
M5
G0 X44.634 Y20.220
M4 S300
G1 X45.000 Y20.220
M5
M5
G0 X46.024 Y20.220
M4 S300
G1 X46.392 Y20.220
M5
M5
G0 X46.843 Y20.220
M4 S300
G1 X47.237 Y20.220
M5
M5
G0 X48.161 Y20.220
M4 S300
G1 X48.645 Y20.220
M5
M5
G0 X50.459 Y20.220
M4 S300
G1 X50.766 Y20.220
M5
M5
G0 X50.877 Y20.220
M4 S300
G1 X51.176 Y20.220
M5
M5
G0 X51.830 Y20.220
M4 S300
G1 X52.124 Y20.220
M5
M5
G0 X52.237 Y20.220
M4 S300
G1 X52.547 Y20.220
M5
M5
G0 X53.229 Y20.220
M4 S300
G1 X53.595 Y20.220
M5
M5
G0 X54.619 Y20.220
M4 S300
G1 X54.987 Y20.220
M5
M5
G0 X55.465 Y20.220
M4 S300
G1 X55.857 Y20.220
M5
M5
G0 X56.945 Y20.220
M4 S300
G1 X57.041 Y20.220
M5
M5
G0 X57.755 Y20.220
M4 S300
G1 X58.121 Y20.220
M5
M5
G0 X59.145 Y20.220
M4 S300
G1 X59.513 Y20.220
M5
M5
G0 X61.177 Y20.220
M4 S300
G1 X61.543 Y20.220
M5
M5
G0 X62.279 Y20.220
M4 S300
G1 X62.645 Y20.220
M5
M5
G0 X63.669 Y20.220
M4 S300
G1 X64.037 Y20.220
M5
M5
G0 X64.515 Y20.220
M4 S300
G1 X64.907 Y20.220
M5
M5
G0 X65.995 Y20.220
M4 S300
G1 X66.091 Y20.220
M5
M5
G0 X11.627 Y20.400
M4 S300
G1 X11.991 Y20.400
M5
M5
G0 X12.900 Y20.400
M4 S300
G1 X13.263 Y20.400
M5
M5
G0 X14.172 Y20.400
M4 S300
G1 X14.534 Y20.400
M5
M5
G0 X15.325 Y20.400
M4 S300
G1 X15.682 Y20.400
M5
M5
G0 X15.908 Y20.400
M4 S300
G1 X16.236 Y20.400
M5
M5
G0 X18.301 Y20.400
M4 S300
G1 X18.684 Y20.400
M5
M5
G0 X19.114 Y20.400
M4 S300
G1 X19.480 Y20.400
M5
M5
G0 X20.141 Y20.400
M4 S300
G1 X20.518 Y20.400
M5
M5
G0 X22.479 Y20.400
M4 S300
G1 X22.845 Y20.400
M5
M5
G0 X23.824 Y20.400
M4 S300
G1 X24.190 Y20.400
M5
M5
G0 X24.659 Y20.400
M4 S300
G1 X25.044 Y20.400
M5
M5
G0 X26.174 Y20.400
M4 S300
G1 X26.557 Y20.400
M5
M5
G0 X26.983 Y20.400
M4 S300
G1 X27.353 Y20.400
M5
M5
G0 X28.357 Y20.400
M4 S300
G1 X28.740 Y20.400
M5
M5
G0 X30.514 Y20.400
M4 S300
G1 X30.897 Y20.400
M5
M5
G0 X31.290 Y20.400
M4 S300
G1 X31.657 Y20.400
M5
M5
G0 X32.511 Y20.400
M4 S300
G1 X32.868 Y20.400
M5
M5
G0 X33.094 Y20.400
M4 S300
G1 X33.422 Y20.400
M5
M5
G0 X35.368 Y20.400
M4 S300
G1 X35.732 Y20.400
M5
M5
G0 X36.641 Y20.400
M4 S300
G1 X37.003 Y20.400
M5
M5
G0 X37.913 Y20.400
M4 S300
G1 X38.275 Y20.400
M5
M5
G0 X38.747 Y20.400
M4 S300
G1 X39.113 Y20.400
M5
M5
G0 X40.911 Y20.400
M4 S300
G1 X41.295 Y20.400
M5
M5
G0 X42.946 Y20.400
M4 S300
G1 X43.329 Y20.400
M5
M5
G0 X43.720 Y20.400
M4 S300
G1 X44.086 Y20.400
M5
M5
G0 X44.634 Y20.400
M4 S300
G1 X45.000 Y20.400
M5
M5
G0 X46.024 Y20.400
M4 S300
G1 X46.392 Y20.400
M5
M5
G0 X46.808 Y20.400
M4 S300
G1 X47.190 Y20.400
M5
M5
G0 X48.233 Y20.400
M4 S300
G1 X48.645 Y20.400
M5
M5
G0 X50.408 Y20.400
M4 S300
G1 X50.725 Y20.400
M5
M5
G0 X50.924 Y20.400
M4 S300
G1 X51.222 Y20.400
M5
M5
G0 X51.785 Y20.400
M4 S300
G1 X52.079 Y20.400
M5
M5
G0 X52.282 Y20.400
M4 S300
G1 X52.598 Y20.400
M5
M5
G0 X53.229 Y20.400
M4 S300
G1 X53.595 Y20.400
M5
M5
G0 X54.619 Y20.400
M4 S300
G1 X54.987 Y20.400
M5
M5
G0 X55.417 Y20.400
M4 S300
G1 X55.794 Y20.400
M5
M5
G0 X57.755 Y20.400
M4 S300
G1 X58.121 Y20.400
M5
M5
G0 X59.145 Y20.400
M4 S300
G1 X59.513 Y20.400
M5
M5
G0 X61.177 Y20.400
M4 S300
G1 X61.543 Y20.400
M5
M5
G0 X62.279 Y20.400
M4 S300
G1 X62.645 Y20.400
M5
M5
G0 X63.669 Y20.400
M4 S300
G1 X64.037 Y20.400
M5
M5
G0 X64.467 Y20.400
M4 S300
G1 X64.844 Y20.400
M5
M5
G0 X11.627 Y20.580
M4 S300
G1 X11.991 Y20.580
M5
M5
G0 X12.900 Y20.580
M4 S300
G1 X13.263 Y20.580
M5
M5
G0 X14.172 Y20.580
M4 S300
G1 X14.534 Y20.580
M5
M5
G0 X15.253 Y20.580
M4 S300
G1 X15.620 Y20.580
M5
M5
G0 X15.971 Y20.580
M4 S300
G1 X16.305 Y20.580
M5
M5
G0 X18.023 Y20.580
M4 S300
G1 X18.617 Y20.580
M5
M5
G0 X19.114 Y20.580
M4 S300
G1 X19.480 Y20.580
M5
M5
G0 X20.115 Y20.580
M4 S300
G1 X20.493 Y20.580
M5
M5
G0 X22.479 Y20.580
M4 S300
G1 X22.845 Y20.580
M5
M5
G0 X23.824 Y20.580
M4 S300
G1 X24.190 Y20.580
M5
M5
G0 X24.634 Y20.580
M4 S300
G1 X25.017 Y20.580
M5
M5
G0 X26.199 Y20.580
M4 S300
G1 X26.582 Y20.580
M5
M5
G0 X26.983 Y20.580
M4 S300
G1 X27.351 Y20.580
M5
M5
G0 X28.374 Y20.580
M4 S300
G1 X28.740 Y20.580
M5
M5
G0 X30.236 Y20.580
M4 S300
G1 X30.830 Y20.580
M5
M5
G0 X31.290 Y20.580
M4 S300
G1 X31.657 Y20.580
M5
M5
G0 X32.439 Y20.580
M4 S300
G1 X32.806 Y20.580
M5
M5
G0 X33.157 Y20.580
M4 S300
G1 X33.491 Y20.580
M5
M5
G0 X35.368 Y20.580
M4 S300
G1 X35.732 Y20.580
M5
M5
G0 X36.641 Y20.580
M4 S300
G1 X37.003 Y20.580
M5
M5
G0 X37.913 Y20.580
M4 S300
G1 X38.275 Y20.580
M5
M5
G0 X38.747 Y20.580
M4 S300
G1 X39.113 Y20.580
M5
M5
G0 X40.633 Y20.580
M4 S300
G1 X41.227 Y20.580
M5
M5
G0 X42.668 Y20.580
M4 S300
G1 X43.261 Y20.580
M5
M5
G0 X43.720 Y20.580
M4 S300
G1 X44.086 Y20.580
M5
M5
G0 X44.634 Y20.580
M4 S300
G1 X45.000 Y20.580
M5
M5
G0 X46.024 Y20.580
M4 S300
G1 X46.392 Y20.580
M5
M5
G0 X46.790 Y20.580
M4 S300
G1 X47.169 Y20.580
M5
M5
G0 X48.269 Y20.580
M4 S300
G1 X48.645 Y20.580
M5
M5
G0 X50.358 Y20.580
M4 S300
G1 X50.680 Y20.580
M5
M5
G0 X50.971 Y20.580
M4 S300
G1 X51.268 Y20.580
M5
M5
G0 X51.741 Y20.580
M4 S300
G1 X52.034 Y20.580
M5
M5
G0 X52.329 Y20.580
M4 S300
G1 X52.650 Y20.580
M5
M5
G0 X53.229 Y20.580
M4 S300
G1 X53.595 Y20.580
M5
M5
G0 X54.619 Y20.580
M4 S300
G1 X54.987 Y20.580
M5
M5
G0 X55.391 Y20.580
M4 S300
G1 X55.769 Y20.580
M5
M5
G0 X57.755 Y20.580
M4 S300
G1 X58.121 Y20.580
M5
M5
G0 X59.145 Y20.580
M4 S300
G1 X59.513 Y20.580
M5
M5
G0 X61.177 Y20.580
M4 S300
G1 X61.543 Y20.580
M5
M5
G0 X62.279 Y20.580
M4 S300
G1 X62.645 Y20.580
M5
M5
G0 X63.669 Y20.580
M4 S300
G1 X64.037 Y20.580
M5
M5
G0 X64.441 Y20.580
M4 S300
G1 X64.819 Y20.580
M5
M5
G0 X11.627 Y20.760
M4 S300
G1 X11.991 Y20.760
M5
M5
G0 X12.900 Y20.760
M4 S300
G1 X13.263 Y20.760
M5
M5
G0 X14.172 Y20.760
M4 S300
G1 X14.534 Y20.760
M5
M5
G0 X15.182 Y20.760
M4 S300
G1 X15.553 Y20.760
M5
M5
G0 X16.033 Y20.760
M4 S300
G1 X16.374 Y20.760
M5
M5
G0 X17.396 Y20.760
M4 S300
G1 X18.439 Y20.760
M5
M5
G0 X19.114 Y20.760
M4 S300
G1 X19.480 Y20.760
M5
M5
G0 X20.105 Y20.760
M4 S300
G1 X22.058 Y20.760
M5
M5
G0 X22.479 Y20.760
M4 S300
G1 X22.845 Y20.760
M5
M5
G0 X23.824 Y20.760
M4 S300
G1 X24.190 Y20.760
M5
M5
G0 X24.625 Y20.760
M4 S300
G1 X25.009 Y20.760
M5
M5
G0 X26.207 Y20.760
M4 S300
G1 X26.591 Y20.760
M5
M5
G0 X26.983 Y20.760
M4 S300
G1 X27.351 Y20.760
M5
M5
G0 X28.374 Y20.760
M4 S300
G1 X28.740 Y20.760
M5
M5
G0 X29.609 Y20.760
M4 S300
G1 X30.652 Y20.760
M5
M5
G0 X31.290 Y20.760
M4 S300
G1 X31.657 Y20.760
M5
M5
G0 X32.368 Y20.760
M4 S300
G1 X32.739 Y20.760
M5
M5
G0 X33.219 Y20.760
M4 S300
G1 X33.560 Y20.760
M5
M5
G0 X35.368 Y20.760
M4 S300
G1 X35.732 Y20.760
M5
M5
G0 X36.641 Y20.760
M4 S300
G1 X37.003 Y20.760
M5
M5
G0 X37.913 Y20.760
M4 S300
G1 X38.275 Y20.760
M5
M5
G0 X38.747 Y20.760
M4 S300
G1 X39.113 Y20.760
M5
M5
G0 X40.006 Y20.760
M4 S300
G1 X41.049 Y20.760
M5
M5
G0 X42.041 Y20.760
M4 S300
G1 X43.084 Y20.760
M5
M5
G0 X43.720 Y20.760
M4 S300
G1 X44.086 Y20.760
M5
M5
G0 X44.634 Y20.760
M4 S300
G1 X45.000 Y20.760
M5
M5
G0 X46.024 Y20.760
M4 S300
G1 X46.392 Y20.760
M5
M5
G0 X46.783 Y20.760
M4 S300
G1 X47.162 Y20.760
M5
M5
G0 X48.280 Y20.760
M4 S300
G1 X48.645 Y20.760
M5
M5
G0 X50.308 Y20.760
M4 S300
G1 X50.635 Y20.760
M5
M5
G0 X51.019 Y20.760
M4 S300
G1 X51.313 Y20.760
M5
M5
G0 X51.696 Y20.760
M4 S300
G1 X51.988 Y20.760
M5
M5
G0 X52.375 Y20.760
M4 S300
G1 X52.702 Y20.760
M5
M5
G0 X53.229 Y20.760
M4 S300
G1 X53.595 Y20.760
M5
M5
G0 X54.619 Y20.760
M4 S300
G1 X54.987 Y20.760
M5
M5
G0 X55.381 Y20.760
M4 S300
G1 X57.334 Y20.760
M5
M5
G0 X57.755 Y20.760
M4 S300
G1 X58.121 Y20.760
M5
M5
G0 X59.145 Y20.760
M4 S300
G1 X59.513 Y20.760
M5
M5
G0 X61.177 Y20.760
M4 S300
G1 X61.543 Y20.760
M5
M5
G0 X62.279 Y20.760
M4 S300
G1 X62.645 Y20.760
M5
M5
G0 X63.669 Y20.760
M4 S300
G1 X64.037 Y20.760
M5
M5
G0 X64.431 Y20.760
M4 S300
G1 X66.384 Y20.760
M5
M5
G0 X11.627 Y20.940
M4 S300
G1 X11.991 Y20.940
M5
M5
G0 X12.900 Y20.940
M4 S300
G1 X13.263 Y20.940
M5
M5
G0 X14.172 Y20.940
M4 S300
G1 X14.534 Y20.940
M5
M5
G0 X15.110 Y20.940
M4 S300
G1 X15.484 Y20.940
M5
M5
G0 X16.095 Y20.940
M4 S300
G1 X16.444 Y20.940
M5
M5
G0 X17.104 Y20.940
M4 S300
G1 X17.966 Y20.940
M5
M5
G0 X19.114 Y20.940
M4 S300
G1 X19.480 Y20.940
M5
M5
G0 X20.110 Y20.940
M4 S300
G1 X22.047 Y20.940
M5
M5
G0 X22.479 Y20.940
M4 S300
G1 X22.849 Y20.940
M5
M5
G0 X23.824 Y20.940
M4 S300
G1 X24.190 Y20.940
M5
M5
G0 X24.635 Y20.940
M4 S300
G1 X25.015 Y20.940
M5
M5
G0 X26.201 Y20.940
M4 S300
G1 X26.586 Y20.940
M5
M5
G0 X26.983 Y20.940
M4 S300
G1 X27.351 Y20.940
M5
M5
G0 X28.374 Y20.940
M4 S300
G1 X28.740 Y20.940
M5
M5
G0 X29.317 Y20.940
M4 S300
G1 X30.179 Y20.940
M5
M5
G0 X31.290 Y20.940
M4 S300
G1 X31.657 Y20.940
M5
M5
G0 X32.296 Y20.940
M4 S300
G1 X32.671 Y20.940
M5
M5
G0 X33.281 Y20.940
M4 S300
G1 X33.630 Y20.940
M5
M5
G0 X35.368 Y20.940
M4 S300
G1 X35.732 Y20.940
M5
M5
G0 X36.641 Y20.940
M4 S300
G1 X37.003 Y20.940
M5
M5
G0 X37.913 Y20.940
M4 S300
G1 X38.275 Y20.940
M5
M5
G0 X38.747 Y20.940
M4 S300
G1 X39.113 Y20.940
M5
M5
G0 X39.714 Y20.940
M4 S300
G1 X40.576 Y20.940
M5
M5
G0 X41.749 Y20.940
M4 S300
G1 X42.610 Y20.940
M5
M5
G0 X43.720 Y20.940
M4 S300
G1 X44.086 Y20.940
M5
M5
G0 X44.634 Y20.940
M4 S300
G1 X45.000 Y20.940
M5
M5
G0 X46.024 Y20.940
M4 S300
G1 X46.392 Y20.940
M5
M5
G0 X46.788 Y20.940
M4 S300
G1 X47.167 Y20.940
M5
M5
G0 X48.272 Y20.940
M4 S300
G1 X48.645 Y20.940
M5
M5
G0 X50.257 Y20.940
M4 S300
G1 X50.590 Y20.940
M5
M5
G0 X51.066 Y20.940
M4 S300
G1 X51.359 Y20.940
M5
M5
G0 X51.652 Y20.940
M4 S300
G1 X51.942 Y20.940
M5
M5
G0 X52.422 Y20.940
M4 S300
G1 X52.753 Y20.940
M5
M5
G0 X53.229 Y20.940
M4 S300
G1 X53.595 Y20.940
M5
M5
G0 X54.619 Y20.940
M4 S300
G1 X54.987 Y20.940
M5
M5
G0 X55.386 Y20.940
M4 S300
G1 X57.323 Y20.940
M5
M5
G0 X57.755 Y20.940
M4 S300
G1 X58.121 Y20.940
M5
M5
G0 X59.145 Y20.940
M4 S300
G1 X59.513 Y20.940
M5
M5
G0 X61.177 Y20.940
M4 S300
G1 X61.543 Y20.940
M5
M5
G0 X62.279 Y20.940
M4 S300
G1 X62.645 Y20.940
M5
M5
G0 X63.669 Y20.940
M4 S300
G1 X64.037 Y20.940
M5
M5
G0 X64.436 Y20.940
M4 S300
G1 X66.373 Y20.940
M5
M5
G0 X11.627 Y21.120
M4 S300
G1 X12.002 Y21.120
M5
M5
G0 X12.899 Y21.120
M4 S300
G1 X13.273 Y21.120
M5
M5
G0 X14.171 Y21.120
M4 S300
G1 X14.534 Y21.120
M5
M5
G0 X15.038 Y21.120
M4 S300
G1 X15.416 Y21.120
M5
M5
G0 X16.157 Y21.120
M4 S300
G1 X16.513 Y21.120
M5
M5
G0 X16.991 Y21.120
M4 S300
G1 X17.428 Y21.120
M5
M5
G0 X19.114 Y21.120
M4 S300
G1 X19.480 Y21.120
M5
M5
G0 X20.133 Y21.120
M4 S300
G1 X20.508 Y21.120
M5
M5
G0 X21.661 Y21.120
M4 S300
G1 X22.025 Y21.120
M5
M5
G0 X22.479 Y21.120
M4 S300
G1 X22.871 Y21.120
M5
M5
G0 X23.824 Y21.120
M4 S300
G1 X24.190 Y21.120
M5
M5
G0 X24.654 Y21.120
M4 S300
G1 X25.036 Y21.120
M5
M5
G0 X26.182 Y21.120
M4 S300
G1 X26.566 Y21.120
M5
M5
G0 X26.983 Y21.120
M4 S300
G1 X27.351 Y21.120
M5
M5
G0 X28.374 Y21.120
M4 S300
G1 X28.740 Y21.120
M5
M5
G0 X29.204 Y21.120
M4 S300
G1 X29.641 Y21.120
M5
M5
G0 X31.290 Y21.120
M4 S300
G1 X31.657 Y21.120
M5
M5
G0 X32.224 Y21.120
M4 S300
G1 X32.602 Y21.120
M5
M5
G0 X33.343 Y21.120
M4 S300
G1 X33.699 Y21.120
M5
M5
G0 X35.368 Y21.120
M4 S300
G1 X35.743 Y21.120
M5
M5
G0 X36.640 Y21.120
M4 S300
G1 X37.014 Y21.120
M5
M5
G0 X37.912 Y21.120
M4 S300
G1 X38.275 Y21.120
M5
M5
G0 X38.747 Y21.120
M4 S300
G1 X39.113 Y21.120
M5
M5
G0 X39.601 Y21.120
M4 S300
G1 X40.038 Y21.120
M5
M5
G0 X41.636 Y21.120
M4 S300
G1 X42.073 Y21.120
M5
M5
G0 X43.720 Y21.120
M4 S300
G1 X44.086 Y21.120
M5
M5
G0 X44.634 Y21.120
M4 S300
G1 X45.013 Y21.120
M5
M5
G0 X46.023 Y21.120
M4 S300
G1 X46.392 Y21.120
M5
M5
G0 X46.806 Y21.120
M4 S300
G1 X47.186 Y21.120
M5
M5
G0 X48.243 Y21.120
M4 S300
G1 X48.645 Y21.120
M5
M5
G0 X50.207 Y21.120
M4 S300
G1 X50.545 Y21.120
M5
M5
G0 X51.114 Y21.120
M4 S300
G1 X51.404 Y21.120
M5
M5
G0 X51.607 Y21.120
M4 S300
G1 X51.896 Y21.120
M5
M5
G0 X52.468 Y21.120
M4 S300
G1 X52.805 Y21.120
M5
M5
G0 X53.229 Y21.120
M4 S300
G1 X53.606 Y21.120
M5
M5
G0 X54.618 Y21.120
M4 S300
G1 X54.987 Y21.120
M5
M5
G0 X55.409 Y21.120
M4 S300
G1 X55.784 Y21.120
M5
M5
G0 X56.937 Y21.120
M4 S300
G1 X57.301 Y21.120
M5
M5
G0 X57.755 Y21.120
M4 S300
G1 X58.134 Y21.120
M5
M5
G0 X59.144 Y21.120
M4 S300
G1 X59.513 Y21.120
M5
M5
G0 X61.177 Y21.120
M4 S300
G1 X61.543 Y21.120
M5
M5
G0 X62.279 Y21.120
M4 S300
G1 X62.656 Y21.120
M5
M5
G0 X63.668 Y21.120
M4 S300
G1 X64.037 Y21.120
M5
M5
G0 X64.459 Y21.120
M4 S300
G1 X64.834 Y21.120
M5
M5
G0 X65.987 Y21.120
M4 S300
G1 X66.351 Y21.120
M5
M5
G0 X11.627 Y21.300
M4 S300
G1 X12.046 Y21.300
M5
M5
G0 X12.885 Y21.300
M4 S300
G1 X13.316 Y21.300
M5
M5
G0 X14.157 Y21.300
M4 S300
G1 X14.527 Y21.300
M5
M5
G0 X14.966 Y21.300
M4 S300
G1 X15.347 Y21.300
M5
M5
G0 X16.219 Y21.300
M4 S300
G1 X16.582 Y21.300
M5
M5
G0 X16.966 Y21.300
M4 S300
G1 X17.323 Y21.300
M5
M5
G0 X19.114 Y21.300
M4 S300
G1 X19.480 Y21.300
M5
M5
G0 X20.179 Y21.300
M4 S300
G1 X20.559 Y21.300
M5
M5
G0 X21.613 Y21.300
M4 S300
G1 X21.984 Y21.300
M5
M5
G0 X22.479 Y21.300
M4 S300
G1 X22.924 Y21.300
M5
M5
G0 X23.824 Y21.300
M4 S300
G1 X24.190 Y21.300
M5
M5
G0 X24.697 Y21.300
M4 S300
G1 X25.084 Y21.300
M5
M5
G0 X26.138 Y21.300
M4 S300
G1 X26.525 Y21.300
M5
M5
G0 X26.983 Y21.300
M4 S300
G1 X27.351 Y21.300
M5
M5
G0 X28.374 Y21.300
M4 S300
G1 X28.740 Y21.300
M5
M5
G0 X29.179 Y21.300
M4 S300
G1 X29.536 Y21.300
M5
M5
G0 X31.290 Y21.300
M4 S300
G1 X31.657 Y21.300
M5
M5
G0 X32.152 Y21.300
M4 S300
G1 X32.533 Y21.300
M5
M5
G0 X33.405 Y21.300
M4 S300
G1 X33.768 Y21.300
M5
M5
G0 X35.368 Y21.300
M4 S300
G1 X35.787 Y21.300
M5
M5
G0 X36.626 Y21.300
M4 S300
G1 X37.056 Y21.300
M5
M5
G0 X37.897 Y21.300
M4 S300
G1 X38.267 Y21.300
M5
M5
G0 X38.747 Y21.300
M4 S300
G1 X39.113 Y21.300
M5
M5
G0 X39.576 Y21.300
M4 S300
G1 X39.933 Y21.300
M5
M5
G0 X41.611 Y21.300
M4 S300
G1 X41.968 Y21.300
M5
M5
G0 X43.720 Y21.300
M4 S300
G1 X44.086 Y21.300
M5
M5
G0 X44.634 Y21.300
M4 S300
G1 X45.063 Y21.300
M5
M5
G0 X46.007 Y21.300
M4 S300
G1 X46.384 Y21.300
M5
M5
G0 X46.841 Y21.300
M4 S300
G1 X47.229 Y21.300
M5
M5
G0 X48.180 Y21.300
M4 S300
G1 X48.645 Y21.300
M5
M5
G0 X50.156 Y21.300
M4 S300
G1 X50.501 Y21.300
M5
M5
G0 X51.161 Y21.300
M4 S300
G1 X51.448 Y21.300
M5
M5
G0 X51.565 Y21.300
M4 S300
G1 X51.851 Y21.300
M5
M5
G0 X52.515 Y21.300
M4 S300
G1 X52.856 Y21.300
M5
M5
G0 X53.229 Y21.300
M4 S300
G1 X53.657 Y21.300
M5
M5
G0 X54.604 Y21.300
M4 S300
G1 X54.979 Y21.300
M5
M5
G0 X55.455 Y21.300
M4 S300
G1 X55.835 Y21.300
M5
M5
G0 X56.889 Y21.300
M4 S300
G1 X57.260 Y21.300
M5
M5
G0 X57.755 Y21.300
M4 S300
G1 X58.184 Y21.300
M5
M5
G0 X59.128 Y21.300
M4 S300
G1 X59.505 Y21.300
M5
M5
G0 X61.177 Y21.300
M4 S300
G1 X61.543 Y21.300
M5
M5
G0 X62.279 Y21.300
M4 S300
G1 X62.707 Y21.300
M5
M5
G0 X63.654 Y21.300
M4 S300
G1 X64.029 Y21.300
M5
M5
G0 X64.505 Y21.300
M4 S300
G1 X64.885 Y21.300
M5
M5
G0 X65.939 Y21.300
M4 S300
G1 X66.310 Y21.300
M5
M5
G0 X11.627 Y21.480
M4 S300
G1 X12.151 Y21.480
M5
M5
G0 X12.831 Y21.480
M4 S300
G1 X13.418 Y21.480
M5
M5
G0 X14.102 Y21.480
M4 S300
G1 X14.499 Y21.480
M5
M5
G0 X14.895 Y21.480
M4 S300
G1 X15.279 Y21.480
M5
M5
G0 X16.281 Y21.480
M4 S300
G1 X16.651 Y21.480
M5
M5
G0 X16.992 Y21.480
M4 S300
G1 X17.362 Y21.480
M5
M5
G0 X18.252 Y21.480
M4 S300
G1 X18.625 Y21.480
M5
M5
G0 X19.114 Y21.480
M4 S300
G1 X19.480 Y21.480
M5
M5
G0 X20.260 Y21.480
M4 S300
G1 X20.674 Y21.480
M5
M5
G0 X21.507 Y21.480
M4 S300
G1 X21.905 Y21.480
M5
M5
G0 X22.478 Y21.480
M4 S300
G1 X22.828 Y21.480
M5
M5
G0 X22.855 Y21.480
M4 S300
G1 X23.044 Y21.480
M5
M5
G0 X23.824 Y21.480
M4 S300
G1 X24.190 Y21.480
M5
M5
G0 X24.775 Y21.480
M4 S300
G1 X25.189 Y21.480
M5
M5
G0 X26.039 Y21.480
M4 S300
G1 X26.455 Y21.480
M5
M5
G0 X26.983 Y21.480
M4 S300
G1 X27.351 Y21.480
M5
M5
G0 X28.374 Y21.480
M4 S300
G1 X28.740 Y21.480
M5
M5
G0 X29.205 Y21.480
M4 S300
G1 X29.575 Y21.480
M5
M5
G0 X30.465 Y21.480
M4 S300
G1 X30.838 Y21.480
M5
M5
G0 X31.290 Y21.480
M4 S300
G1 X31.657 Y21.480
M5
M5
G0 X32.081 Y21.480
M4 S300
G1 X32.465 Y21.480
M5
M5
G0 X33.467 Y21.480
M4 S300
G1 X33.837 Y21.480
M5
M5
G0 X35.367 Y21.480
M4 S300
G1 X35.891 Y21.480
M5
M5
G0 X36.571 Y21.480
M4 S300
G1 X37.159 Y21.480
M5
M5
G0 X37.843 Y21.480
M4 S300
G1 X38.239 Y21.480
M5
M5
G0 X38.747 Y21.480
M4 S300
G1 X39.113 Y21.480
M5
M5
G0 X39.602 Y21.480
M4 S300
G1 X39.972 Y21.480
M5
M5
G0 X40.863 Y21.480
M4 S300
G1 X41.235 Y21.480
M5
M5
G0 X41.636 Y21.480
M4 S300
G1 X42.006 Y21.480
M5
M5
G0 X42.897 Y21.480
M4 S300
G1 X43.269 Y21.480
M5
M5
G0 X43.720 Y21.480
M4 S300
G1 X44.086 Y21.480
M5
M5
G0 X44.634 Y21.480
M4 S300
G1 X45.181 Y21.480
M5
M5
G0 X45.945 Y21.480
M4 S300
G1 X46.353 Y21.480
M5
M5
G0 X46.903 Y21.480
M4 S300
G1 X47.325 Y21.480
M5
M5
G0 X48.059 Y21.480
M4 S300
G1 X48.645 Y21.480
M5
M5
G0 X50.106 Y21.480
M4 S300
G1 X50.456 Y21.480
M5
M5
G0 X51.208 Y21.480
M4 S300
G1 X51.488 Y21.480
M5
M5
G0 X51.527 Y21.480
M4 S300
G1 X51.805 Y21.480
M5
M5
G0 X52.561 Y21.480
M4 S300
G1 X52.908 Y21.480
M5
M5
G0 X53.229 Y21.480
M4 S300
G1 X53.778 Y21.480
M5
M5
G0 X54.542 Y21.480
M4 S300
G1 X54.948 Y21.480
M5
M5
G0 X55.536 Y21.480
M4 S300
G1 X55.950 Y21.480
M5
M5
G0 X56.783 Y21.480
M4 S300
G1 X57.181 Y21.480
M5
M5
G0 X57.755 Y21.480
M4 S300
G1 X58.302 Y21.480
M5
M5
G0 X59.066 Y21.480
M4 S300
G1 X59.474 Y21.480
M5
M5
G0 X61.177 Y21.480
M4 S300
G1 X61.543 Y21.480
M5
M5
G0 X62.279 Y21.480
M4 S300
G1 X62.828 Y21.480
M5
M5
G0 X63.592 Y21.480
M4 S300
G1 X63.998 Y21.480
M5
M5
G0 X64.586 Y21.480
M4 S300
G1 X65.000 Y21.480
M5
M5
G0 X65.833 Y21.480
M4 S300
G1 X66.231 Y21.480
M5
M5
G0 X11.625 Y21.660
M4 S300
G1 X11.972 Y21.660
M5
M5
G0 X12.082 Y21.660
M4 S300
G1 X13.160 Y21.660
M5
M5
G0 X13.333 Y21.660
M4 S300
G1 X14.432 Y21.660
M5
M5
G0 X14.823 Y21.660
M4 S300
G1 X15.210 Y21.660
M5
M5
G0 X16.343 Y21.660
M4 S300
G1 X16.720 Y21.660
M5
M5
G0 X17.085 Y21.660
M4 S300
G1 X18.524 Y21.660
M5
M5
G0 X18.860 Y21.660
M4 S300
G1 X19.887 Y21.660
M5
M5
G0 X20.396 Y21.660
M4 S300
G1 X21.775 Y21.660
M5
M5
G0 X22.475 Y21.660
M4 S300
G1 X22.822 Y21.660
M5
M5
G0 X22.931 Y21.660
M4 S300
G1 X23.508 Y21.660
M5
M5
G0 X23.824 Y21.660
M4 S300
G1 X24.190 Y21.660
M5
M5
G0 X24.907 Y21.660
M4 S300
G1 X26.330 Y21.660
M5
M5
G0 X26.983 Y21.660
M4 S300
G1 X27.351 Y21.660
M5
M5
G0 X28.374 Y21.660
M4 S300
G1 X28.740 Y21.660
M5
M5
G0 X29.298 Y21.660
M4 S300
G1 X30.737 Y21.660
M5
M5
G0 X31.290 Y21.660
M4 S300
G1 X31.657 Y21.660
M5
M5
G0 X32.009 Y21.660
M4 S300
G1 X32.396 Y21.660
M5
M5
G0 X33.529 Y21.660
M4 S300
G1 X33.906 Y21.660
M5
M5
G0 X35.366 Y21.660
M4 S300
G1 X35.713 Y21.660
M5
M5
G0 X35.823 Y21.660
M4 S300
G1 X36.901 Y21.660
M5
M5
G0 X37.073 Y21.660
M4 S300
G1 X38.172 Y21.660
M5
M5
G0 X38.747 Y21.660
M4 S300
G1 X39.113 Y21.660
M5
M5
G0 X39.695 Y21.660
M4 S300
G1 X41.134 Y21.660
M5
M5
G0 X41.729 Y21.660
M4 S300
G1 X43.169 Y21.660
M5
M5
G0 X43.720 Y21.660
M4 S300
G1 X44.086 Y21.660
M5
M5
G0 X44.632 Y21.660
M4 S300
G1 X44.979 Y21.660
M5
M5
G0 X45.099 Y21.660
M4 S300
G1 X46.279 Y21.660
M5
M5
G0 X47.013 Y21.660
M4 S300
G1 X48.177 Y21.660
M5
M5
G0 X48.290 Y21.660
M4 S300
G1 X48.647 Y21.660
M5
M5
G0 X50.056 Y21.660
M4 S300
G1 X50.411 Y21.660
M5
M5
G0 X51.256 Y21.660
M4 S300
G1 X51.759 Y21.660
M5
M5
G0 X52.607 Y21.660
M4 S300
G1 X52.959 Y21.660
M5
M5
G0 X53.229 Y21.660
M4 S300
G1 X53.589 Y21.660
M5
M5
G0 X53.694 Y21.660
M4 S300
G1 X54.874 Y21.660
M5
M5
G0 X55.672 Y21.660
M4 S300
G1 X57.051 Y21.660
M5
M5
G0 X57.753 Y21.660
M4 S300
G1 X58.100 Y21.660
M5
M5
G0 X58.220 Y21.660
M4 S300
G1 X59.400 Y21.660
M5
M5
G0 X60.923 Y21.660
M4 S300
G1 X61.950 Y21.660
M5
M5
G0 X62.279 Y21.660
M4 S300
G1 X62.639 Y21.660
M5
M5
G0 X62.744 Y21.660
M4 S300
G1 X63.924 Y21.660
M5
M5
G0 X64.722 Y21.660
M4 S300
G1 X66.101 Y21.660
M5
M5
G0 X11.618 Y21.840
M4 S300
G1 X11.964 Y21.840
M5
M5
G0 X12.285 Y21.840
M4 S300
G1 X12.980 Y21.840
M5
M5
G0 X13.548 Y21.840
M4 S300
G1 X14.248 Y21.840
M5
M5
G0 X14.751 Y21.840
M4 S300
G1 X15.141 Y21.840
M5
M5
G0 X16.404 Y21.840
M4 S300
G1 X16.790 Y21.840
M5
M5
G0 X17.352 Y21.840
M4 S300
G1 X18.257 Y21.840
M5
M5
G0 X18.860 Y21.840
M4 S300
G1 X19.887 Y21.840
M5
M5
G0 X20.669 Y21.840
M4 S300
G1 X21.501 Y21.840
M5
M5
G0 X22.468 Y21.840
M4 S300
G1 X22.814 Y21.840
M5
M5
G0 X23.075 Y21.840
M4 S300
G1 X23.508 Y21.840
M5
M5
G0 X23.824 Y21.840
M4 S300
G1 X24.190 Y21.840
M5
M5
G0 X25.186 Y21.840
M4 S300
G1 X26.058 Y21.840
M5
M5
G0 X26.983 Y21.840
M4 S300
G1 X27.351 Y21.840
M5
M5
G0 X28.374 Y21.840
M4 S300
G1 X28.740 Y21.840
M5
M5
G0 X29.565 Y21.840
M4 S300
G1 X30.470 Y21.840
M5
M5
G0 X31.290 Y21.840
M4 S300
G1 X31.657 Y21.840
M5
M5
G0 X31.937 Y21.840
M4 S300
G1 X32.327 Y21.840
M5
M5
G0 X33.591 Y21.840
M4 S300
G1 X33.976 Y21.840
M5
M5
G0 X35.359 Y21.840
M4 S300
G1 X35.704 Y21.840
M5
M5
G0 X36.025 Y21.840
M4 S300
G1 X36.721 Y21.840
M5
M5
G0 X37.289 Y21.840
M4 S300
G1 X37.989 Y21.840
M5
M5
G0 X38.747 Y21.840
M4 S300
G1 X39.113 Y21.840
M5
M5
G0 X39.962 Y21.840
M4 S300
G1 X40.868 Y21.840
M5
M5
G0 X41.997 Y21.840
M4 S300
G1 X42.902 Y21.840
M5
M5
G0 X43.720 Y21.840
M4 S300
G1 X44.086 Y21.840
M5
M5
G0 X44.625 Y21.840
M4 S300
G1 X44.971 Y21.840
M5
M5
G0 X45.321 Y21.840
M4 S300
G1 X46.077 Y21.840
M5
M5
G0 X47.251 Y21.840
M4 S300
G1 X47.943 Y21.840
M5
M5
G0 X48.302 Y21.840
M4 S300
G1 X48.654 Y21.840
M5
M5
G0 X50.005 Y21.840
M4 S300
G1 X50.366 Y21.840
M5
M5
G0 X51.303 Y21.840
M4 S300
G1 X51.713 Y21.840
M5
M5
G0 X52.654 Y21.840
M4 S300
G1 X53.011 Y21.840
M5
M5
G0 X53.229 Y21.840
M4 S300
G1 X53.595 Y21.840
M5
M5
G0 X53.917 Y21.840
M4 S300
G1 X54.671 Y21.840
M5
M5
G0 X55.946 Y21.840
M4 S300
G1 X56.777 Y21.840
M5
M5
G0 X57.746 Y21.840
M4 S300
G1 X58.092 Y21.840
M5
M5
G0 X58.442 Y21.840
M4 S300
G1 X59.198 Y21.840
M5
M5
G0 X60.923 Y21.840
M4 S300
G1 X61.950 Y21.840
M5
M5
G0 X62.279 Y21.840
M4 S300
G1 X62.645 Y21.840
M5
M5
G0 X62.967 Y21.840
M4 S300
G1 X63.721 Y21.840
M5
M5
G0 X64.995 Y21.840
M4 S300
G1 X65.827 Y21.840
M5
M5
G0 X19.160 Y22.020
M4 S300
G1 X19.480 Y22.020
M5
M5
G0 X31.290 Y22.020
M4 S300
G1 X31.657 Y22.020
M5
M5
G0 X53.229 Y22.020
M4 S300
G1 X53.595 Y22.020
M5
M5
G0 X61.223 Y22.020
M4 S300
G1 X61.543 Y22.020
M5
M5
G0 X62.279 Y22.020
M4 S300
G1 X62.645 Y22.020
M5
M5
G0 X19.200 Y22.200
M4 S300
G1 X19.480 Y22.200
M5
M5
G0 X31.290 Y22.200
M4 S300
G1 X31.657 Y22.200
M5
M5
G0 X53.229 Y22.200
M4 S300
G1 X53.595 Y22.200
M5
M5
G0 X61.263 Y22.200
M4 S300
G1 X61.543 Y22.200
M5
M5
G0 X62.279 Y22.200
M4 S300
G1 X62.645 Y22.200
M5
M5
G0 X23.824 Y22.380
M4 S300
G1 X24.190 Y22.380
M5
M5
G0 X31.290 Y22.380
M4 S300
G1 X31.657 Y22.380
M5
M5
G0 X38.747 Y22.380
M4 S300
G1 X39.113 Y22.380
M5
M5
G0 X43.720 Y22.380
M4 S300
G1 X44.086 Y22.380
M5
M5
G0 X53.229 Y22.380
M4 S300
G1 X53.595 Y22.380
M5
M5
G0 X62.279 Y22.380
M4 S300
G1 X62.645 Y22.380
M5
M5
G0 X23.824 Y22.560
M4 S300
G1 X24.190 Y22.560
M5
M5
G0 X31.290 Y22.560
M4 S300
G1 X31.657 Y22.560
M5
M5
G0 X38.747 Y22.560
M4 S300
G1 X39.113 Y22.560
M5
M5
G0 X43.720 Y22.560
M4 S300
G1 X44.086 Y22.560
M5
M5
G0 X53.229 Y22.560
M4 S300
G1 X53.595 Y22.560
M5
M5
G0 X62.279 Y22.560
M4 S300
G1 X62.645 Y22.560
M5
M5
G0 X13.814 Y22.920
M4 S300
G1 X14.180 Y22.920
M5
M5
G0 X13.814 Y23.100
M4 S300
G1 X14.180 Y23.100
M5
M5
G0 X13.814 Y23.280
M4 S300
G1 X14.180 Y23.280
M5
M5
G0 X27.564 Y23.280
M4 S300
G1 X27.803 Y23.280
M5
M5
G0 X48.824 Y23.280
M4 S300
G1 X49.062 Y23.280
M5
M5
G0 X13.814 Y23.460
M4 S300
G1 X14.180 Y23.460
M5
M5
G0 X27.639 Y23.460
M4 S300
G1 X27.860 Y23.460
M5
M5
G0 X48.898 Y23.460
M4 S300
G1 X49.119 Y23.460
M5
M5
G0 X13.814 Y23.640
M4 S300
G1 X14.180 Y23.640
M5
M5
G0 X14.727 Y23.640
M4 S300
G1 X14.938 Y23.640
M5
M5
G0 X18.179 Y23.640
M4 S300
G1 X18.468 Y23.640
M5
M5
G0 X20.275 Y23.640
M4 S300
G1 X20.618 Y23.640
M5
M5
G0 X22.476 Y23.640
M4 S300
G1 X22.766 Y23.640
M5
M5
G0 X27.669 Y23.640
M4 S300
G1 X27.884 Y23.640
M5
M5
G0 X30.083 Y23.640
M4 S300
G1 X30.347 Y23.640
M5
M5
G0 X32.614 Y23.640
M4 S300
G1 X32.884 Y23.640
M5
M5
G0 X34.649 Y23.640
M4 S300
G1 X34.919 Y23.640
M5
M5
G0 X36.726 Y23.640
M4 S300
G1 X37.015 Y23.640
M5
M5
G0 X38.822 Y23.640
M4 S300
G1 X39.165 Y23.640
M5
M5
G0 X40.856 Y23.640
M4 S300
G1 X41.200 Y23.640
M5
M5
G0 X44.128 Y23.640
M4 S300
G1 X44.339 Y23.640
M5
M5
G0 X47.129 Y23.640
M4 S300
G1 X47.418 Y23.640
M5
M5
G0 X48.928 Y23.640
M4 S300
G1 X49.143 Y23.640
M5
M5
G0 X51.342 Y23.640
M4 S300
G1 X51.606 Y23.640
M5
M5
G0 X56.008 Y23.640
M4 S300
G1 X56.274 Y23.640
M5
M5
G0 X61.811 Y23.640
M4 S300
G1 X62.106 Y23.640
M5
M5
G0 X13.814 Y23.820
M4 S300
G1 X14.180 Y23.820
M5
M5
G0 X14.318 Y23.820
M4 S300
G1 X15.381 Y23.820
M5
M5
G0 X16.085 Y23.820
M4 S300
G1 X16.452 Y23.820
M5
M5
G0 X17.696 Y23.820
M4 S300
G1 X18.983 Y23.820
M5
M5
G0 X19.748 Y23.820
M4 S300
G1 X21.135 Y23.820
M5
M5
G0 X21.993 Y23.820
M4 S300
G1 X23.281 Y23.820
M5
M5
G0 X24.001 Y23.820
M4 S300
G1 X24.367 Y23.820
M5
M5
G0 X25.390 Y23.820
M4 S300
G1 X25.759 Y23.820
M5
M5
G0 X26.365 Y23.820
M4 S300
G1 X27.102 Y23.820
M5
M5
G0 X27.492 Y23.820
M4 S300
G1 X27.889 Y23.820
M5
M5
G0 X29.699 Y23.820
M4 S300
G1 X30.776 Y23.820
M5
M5
G0 X31.064 Y23.820
M4 S300
G1 X31.684 Y23.820
M5
M5
G0 X32.157 Y23.820
M4 S300
G1 X33.330 Y23.820
M5
M5
G0 X34.192 Y23.820
M4 S300
G1 X35.365 Y23.820
M5
M5
G0 X36.243 Y23.820
M4 S300
G1 X37.530 Y23.820
M5
M5
G0 X38.295 Y23.820
M4 S300
G1 X39.682 Y23.820
M5
M5
G0 X40.329 Y23.820
M4 S300
G1 X41.717 Y23.820
M5
M5
G0 X42.309 Y23.820
M4 S300
G1 X42.675 Y23.820
M5
M5
G0 X43.212 Y23.820
M4 S300
G1 X43.569 Y23.820
M5
M5
G0 X43.721 Y23.820
M4 S300
G1 X44.782 Y23.820
M5
M5
G0 X45.478 Y23.820
M4 S300
G1 X45.844 Y23.820
M5
M5
G0 X46.646 Y23.820
M4 S300
G1 X47.933 Y23.820
M5
M5
G0 X48.751 Y23.820
M4 S300
G1 X49.148 Y23.820
M5
M5
G0 X50.958 Y23.820
M4 S300
G1 X52.035 Y23.820
M5
M5
G0 X52.323 Y23.820
M4 S300
G1 X52.943 Y23.820
M5
M5
G0 X53.177 Y23.820
M4 S300
G1 X53.544 Y23.820
M5
M5
G0 X54.567 Y23.820
M4 S300
G1 X54.935 Y23.820
M5
M5
G0 X55.604 Y23.820
M4 S300
G1 X56.679 Y23.820
M5
M5
G0 X56.837 Y23.820
M4 S300
G1 X57.192 Y23.820
M5
M5
G0 X58.834 Y23.820
M4 S300
G1 X59.200 Y23.820
M5
M5
G0 X60.223 Y23.820
M4 S300
G1 X60.592 Y23.820
M5
M5
G0 X61.340 Y23.820
M4 S300
G1 X62.591 Y23.820
M5
M5
G0 X63.461 Y23.820
M4 S300
G1 X64.198 Y23.820
M5
M5
G0 X13.814 Y24.000
M4 S300
G1 X14.175 Y24.000
M5
M5
G0 X14.191 Y24.000
M4 S300
G1 X14.423 Y24.000
M5
M5
G0 X15.076 Y24.000
M4 S300
G1 X15.521 Y24.000
M5
M5
G0 X16.085 Y24.000
M4 S300
G1 X16.452 Y24.000
M5
M5
G0 X17.525 Y24.000
M4 S300
G1 X17.989 Y24.000
M5
M5
G0 X18.705 Y24.000
M4 S300
G1 X19.147 Y24.000
M5
M5
G0 X19.602 Y24.000
M4 S300
G1 X20.036 Y24.000
M5
M5
G0 X20.867 Y24.000
M4 S300
G1 X21.284 Y24.000
M5
M5
G0 X21.823 Y24.000
M4 S300
G1 X22.287 Y24.000
M5
M5
G0 X23.002 Y24.000
M4 S300
G1 X23.444 Y24.000
M5
M5
G0 X24.001 Y24.000
M4 S300
G1 X24.367 Y24.000
M5
M5
G0 X25.390 Y24.000
M4 S300
G1 X25.759 Y24.000
M5
M5
G0 X26.303 Y24.000
M4 S300
G1 X26.707 Y24.000
M5
M5
G0 X27.492 Y24.000
M4 S300
G1 X27.889 Y24.000
M5
M5
G0 X29.591 Y24.000
M4 S300
G1 X30.021 Y24.000
M5
M5
G0 X30.653 Y24.000
M4 S300
G1 X30.930 Y24.000
M5
M5
G0 X31.010 Y24.000
M4 S300
G1 X31.392 Y24.000
M5
M5
G0 X31.994 Y24.000
M4 S300
G1 X32.458 Y24.000
M5
M5
G0 X33.034 Y24.000
M4 S300
G1 X33.489 Y24.000
M5
M5
G0 X34.029 Y24.000
M4 S300
G1 X34.492 Y24.000
M5
M5
G0 X35.068 Y24.000
M4 S300
G1 X35.523 Y24.000
M5
M5
G0 X36.072 Y24.000
M4 S300
G1 X36.536 Y24.000
M5
M5
G0 X37.252 Y24.000
M4 S300
G1 X37.694 Y24.000
M5
M5
G0 X38.149 Y24.000
M4 S300
G1 X38.583 Y24.000
M5
M5
G0 X39.414 Y24.000
M4 S300
G1 X39.831 Y24.000
M5
M5
G0 X40.183 Y24.000
M4 S300
G1 X40.618 Y24.000
M5
M5
G0 X41.448 Y24.000
M4 S300
G1 X41.866 Y24.000
M5
M5
G0 X42.309 Y24.000
M4 S300
G1 X42.675 Y24.000
M5
M5
G0 X43.215 Y24.000
M4 S300
G1 X43.577 Y24.000
M5
M5
G0 X43.590 Y24.000
M4 S300
G1 X43.825 Y24.000
M5
M5
G0 X44.477 Y24.000
M4 S300
G1 X44.922 Y24.000
M5
M5
G0 X45.478 Y24.000
M4 S300
G1 X45.844 Y24.000
M5
M5
G0 X46.475 Y24.000
M4 S300
G1 X46.939 Y24.000
M5
M5
G0 X47.655 Y24.000
M4 S300
G1 X48.097 Y24.000
M5
M5
G0 X48.751 Y24.000
M4 S300
G1 X49.148 Y24.000
M5
M5
G0 X50.850 Y24.000
M4 S300
G1 X51.280 Y24.000
M5
M5
G0 X51.912 Y24.000
M4 S300
G1 X52.189 Y24.000
M5
M5
G0 X52.269 Y24.000
M4 S300
G1 X52.651 Y24.000
M5
M5
G0 X53.177 Y24.000
M4 S300
G1 X53.544 Y24.000
M5
M5
G0 X54.567 Y24.000
M4 S300
G1 X54.935 Y24.000
M5
M5
G0 X55.470 Y24.000
M4 S300
G1 X55.938 Y24.000
M5
M5
G0 X56.551 Y24.000
M4 S300
G1 X56.808 Y24.000
M5
M5
G0 X56.830 Y24.000
M4 S300
G1 X57.188 Y24.000
M5
M5
G0 X58.834 Y24.000
M4 S300
G1 X59.200 Y24.000
M5
M5
G0 X60.223 Y24.000
M4 S300
G1 X60.592 Y24.000
M5
M5
G0 X61.175 Y24.000
M4 S300
G1 X61.623 Y24.000
M5
M5
G0 X62.312 Y24.000
M4 S300
G1 X62.762 Y24.000
M5
M5
G0 X63.399 Y24.000
M4 S300
G1 X63.803 Y24.000
M5
M5
G0 X13.814 Y24.180
M4 S300
G1 X14.278 Y24.180
M5
M5
G0 X15.205 Y24.180
M4 S300
G1 X15.594 Y24.180
M5
M5
G0 X16.085 Y24.180
M4 S300
G1 X16.452 Y24.180
M5
M5
G0 X17.430 Y24.180
M4 S300
G1 X17.825 Y24.180
M5
M5
G0 X18.874 Y24.180
M4 S300
G1 X19.129 Y24.180
M5
M5
G0 X19.533 Y24.180
M4 S300
G1 X19.880 Y24.180
M5
M5
G0 X20.984 Y24.180
M4 S300
G1 X21.340 Y24.180
M5
M5
G0 X21.728 Y24.180
M4 S300
G1 X22.123 Y24.180
M5
M5
G0 X23.172 Y24.180
M4 S300
G1 X23.427 Y24.180
M5
M5
G0 X24.001 Y24.180
M4 S300
G1 X24.367 Y24.180
M5
M5
G0 X25.390 Y24.180
M4 S300
G1 X25.759 Y24.180
M5
M5
G0 X26.292 Y24.180
M4 S300
G1 X26.659 Y24.180
M5
M5
G0 X29.550 Y24.180
M4 S300
G1 X29.929 Y24.180
M5
M5
G0 X30.852 Y24.180
M4 S300
G1 X31.359 Y24.180
M5
M5
G0 X31.903 Y24.180
M4 S300
G1 X32.300 Y24.180
M5
M5
G0 X33.185 Y24.180
M4 S300
G1 X33.570 Y24.180
M5
M5
G0 X33.938 Y24.180
M4 S300
G1 X34.335 Y24.180
M5
M5
G0 X35.220 Y24.180
M4 S300
G1 X35.604 Y24.180
M5
M5
G0 X35.977 Y24.180
M4 S300
G1 X36.372 Y24.180
M5
M5
G0 X37.421 Y24.180
M4 S300
G1 X37.676 Y24.180
M5
M5
G0 X38.080 Y24.180
M4 S300
G1 X38.427 Y24.180
M5
M5
G0 X39.531 Y24.180
M4 S300
G1 X39.887 Y24.180
M5
M5
G0 X40.115 Y24.180
M4 S300
G1 X40.461 Y24.180
M5
M5
G0 X41.565 Y24.180
M4 S300
G1 X41.921 Y24.180
M5
M5
G0 X42.309 Y24.180
M4 S300
G1 X42.675 Y24.180
M5
M5
G0 X43.215 Y24.180
M4 S300
G1 X43.680 Y24.180
M5
M5
G0 X44.605 Y24.180
M4 S300
G1 X44.995 Y24.180
M5
M5
G0 X45.478 Y24.180
M4 S300
G1 X45.844 Y24.180
M5
M5
G0 X46.380 Y24.180
M4 S300
G1 X46.775 Y24.180
M5
M5
G0 X47.824 Y24.180
M4 S300
G1 X48.079 Y24.180
M5
M5
G0 X50.809 Y24.180
M4 S300
G1 X51.188 Y24.180
M5
M5
G0 X52.111 Y24.180
M4 S300
G1 X52.618 Y24.180
M5
M5
G0 X53.177 Y24.180
M4 S300
G1 X53.544 Y24.180
M5
M5
G0 X54.567 Y24.180
M4 S300
G1 X54.935 Y24.180
M5
M5
G0 X55.399 Y24.180
M4 S300
G1 X55.799 Y24.180
M5
M5
G0 X56.709 Y24.180
M4 S300
G1 X57.188 Y24.180
M5
M5
G0 X58.834 Y24.180
M4 S300
G1 X59.200 Y24.180
M5
M5
G0 X60.223 Y24.180
M4 S300
G1 X60.592 Y24.180
M5
M5
G0 X61.082 Y24.180
M4 S300
G1 X61.476 Y24.180
M5
M5
G0 X62.462 Y24.180
M4 S300
G1 X62.854 Y24.180
M5
M5
G0 X63.388 Y24.180
M4 S300
G1 X63.755 Y24.180
M5
M5
G0 X13.814 Y24.360
M4 S300
G1 X14.218 Y24.360
M5
M5
G0 X15.257 Y24.360
M4 S300
G1 X15.637 Y24.360
M5
M5
G0 X16.085 Y24.360
M4 S300
G1 X16.452 Y24.360
M5
M5
G0 X17.373 Y24.360
M4 S300
G1 X17.753 Y24.360
M5
M5
G0 X20.973 Y24.360
M4 S300
G1 X21.343 Y24.360
M5
M5
G0 X21.671 Y24.360
M4 S300
G1 X22.051 Y24.360
M5
M5
G0 X24.001 Y24.360
M4 S300
G1 X24.367 Y24.360
M5
M5
G0 X25.390 Y24.360
M4 S300
G1 X25.759 Y24.360
M5
M5
G0 X26.292 Y24.360
M4 S300
G1 X26.659 Y24.360
M5
M5
G0 X29.547 Y24.360
M4 S300
G1 X29.925 Y24.360
M5
M5
G0 X30.948 Y24.360
M4 S300
G1 X31.358 Y24.360
M5
M5
G0 X31.848 Y24.360
M4 S300
G1 X32.233 Y24.360
M5
M5
G0 X33.883 Y24.360
M4 S300
G1 X34.268 Y24.360
M5
M5
G0 X35.920 Y24.360
M4 S300
G1 X36.300 Y24.360
M5
M5
G0 X39.520 Y24.360
M4 S300
G1 X39.890 Y24.360
M5
M5
G0 X41.554 Y24.360
M4 S300
G1 X41.924 Y24.360
M5
M5
G0 X42.309 Y24.360
M4 S300
G1 X42.675 Y24.360
M5
M5
G0 X43.215 Y24.360
M4 S300
G1 X43.620 Y24.360
M5
M5
G0 X44.658 Y24.360
M4 S300
G1 X45.038 Y24.360
M5
M5
G0 X45.478 Y24.360
M4 S300
G1 X45.844 Y24.360
M5
M5
G0 X46.323 Y24.360
M4 S300
G1 X46.703 Y24.360
M5
M5
G0 X50.806 Y24.360
M4 S300
G1 X51.184 Y24.360
M5
M5
G0 X52.207 Y24.360
M4 S300
G1 X52.617 Y24.360
M5
M5
G0 X53.177 Y24.360
M4 S300
G1 X53.544 Y24.360
M5
M5
G0 X54.567 Y24.360
M4 S300
G1 X54.935 Y24.360
M5
M5
G0 X55.358 Y24.360
M4 S300
G1 X55.746 Y24.360
M5
M5
G0 X56.776 Y24.360
M4 S300
G1 X57.188 Y24.360
M5
M5
G0 X58.834 Y24.360
M4 S300
G1 X59.200 Y24.360
M5
M5
G0 X60.223 Y24.360
M4 S300
G1 X60.592 Y24.360
M5
M5
G0 X61.026 Y24.360
M4 S300
G1 X61.411 Y24.360
M5
M5
G0 X62.524 Y24.360
M4 S300
G1 X62.908 Y24.360
M5
M5
G0 X63.388 Y24.360
M4 S300
G1 X63.754 Y24.360
M5
M5
G0 X13.814 Y24.540
M4 S300
G1 X14.190 Y24.540
M5
M5
G0 X15.282 Y24.540
M4 S300
G1 X15.663 Y24.540
M5
M5
G0 X16.085 Y24.540
M4 S300
G1 X16.452 Y24.540
M5
M5
G0 X17.343 Y24.540
M4 S300
G1 X17.721 Y24.540
M5
M5
G0 X20.780 Y24.540
M4 S300
G1 X21.291 Y24.540
M5
M5
G0 X21.641 Y24.540
M4 S300
G1 X22.019 Y24.540
M5
M5
G0 X24.001 Y24.540
M4 S300
G1 X24.367 Y24.540
M5
M5
G0 X25.390 Y24.540
M4 S300
G1 X25.759 Y24.540
M5
M5
G0 X26.292 Y24.540
M4 S300
G1 X26.659 Y24.540
M5
M5
G0 X29.582 Y24.540
M4 S300
G1 X29.986 Y24.540
M5
M5
G0 X30.986 Y24.540
M4 S300
G1 X31.358 Y24.540
M5
M5
G0 X31.820 Y24.540
M4 S300
G1 X32.202 Y24.540
M5
M5
G0 X33.854 Y24.540
M4 S300
G1 X34.236 Y24.540
M5
M5
G0 X35.890 Y24.540
M4 S300
G1 X36.268 Y24.540
M5
M5
G0 X39.327 Y24.540
M4 S300
G1 X39.838 Y24.540
M5
M5
G0 X41.362 Y24.540
M4 S300
G1 X41.872 Y24.540
M5
M5
G0 X42.309 Y24.540
M4 S300
G1 X42.675 Y24.540
M5
M5
G0 X43.215 Y24.540
M4 S300
G1 X43.591 Y24.540
M5
M5
G0 X44.683 Y24.540
M4 S300
G1 X45.064 Y24.540
M5
M5
G0 X45.478 Y24.540
M4 S300
G1 X45.844 Y24.540
M5
M5
G0 X46.293 Y24.540
M4 S300
G1 X46.671 Y24.540
M5
M5
G0 X50.841 Y24.540
M4 S300
G1 X51.245 Y24.540
M5
M5
G0 X52.245 Y24.540
M4 S300
G1 X52.617 Y24.540
M5
M5
G0 X53.177 Y24.540
M4 S300
G1 X53.544 Y24.540
M5
M5
G0 X54.567 Y24.540
M4 S300
G1 X54.935 Y24.540
M5
M5
G0 X55.336 Y24.540
M4 S300
G1 X55.720 Y24.540
M5
M5
G0 X56.807 Y24.540
M4 S300
G1 X57.188 Y24.540
M5
M5
G0 X58.834 Y24.540
M4 S300
G1 X59.200 Y24.540
M5
M5
G0 X60.223 Y24.540
M4 S300
G1 X60.592 Y24.540
M5
M5
G0 X60.997 Y24.540
M4 S300
G1 X61.380 Y24.540
M5
M5
G0 X62.554 Y24.540
M4 S300
G1 X62.937 Y24.540
M5
M5
G0 X63.388 Y24.540
M4 S300
G1 X63.754 Y24.540
M5
M5
G0 X13.814 Y24.720
M4 S300
G1 X14.181 Y24.720
M5
M5
G0 X15.290 Y24.720
M4 S300
G1 X15.672 Y24.720
M5
M5
G0 X16.085 Y24.720
M4 S300
G1 X16.452 Y24.720
M5
M5
G0 X17.331 Y24.720
M4 S300
G1 X19.284 Y24.720
M5
M5
G0 X20.166 Y24.720
M4 S300
G1 X21.147 Y24.720
M5
M5
G0 X21.628 Y24.720
M4 S300
G1 X23.581 Y24.720
M5
M5
G0 X24.001 Y24.720
M4 S300
G1 X24.367 Y24.720
M5
M5
G0 X25.390 Y24.720
M4 S300
G1 X25.759 Y24.720
M5
M5
G0 X26.292 Y24.720
M4 S300
G1 X26.659 Y24.720
M5
M5
G0 X29.679 Y24.720
M4 S300
G1 X30.272 Y24.720
M5
M5
G0 X30.988 Y24.720
M4 S300
G1 X31.358 Y24.720
M5
M5
G0 X31.808 Y24.720
M4 S300
G1 X32.190 Y24.720
M5
M5
G0 X33.843 Y24.720
M4 S300
G1 X34.225 Y24.720
M5
M5
G0 X35.878 Y24.720
M4 S300
G1 X37.831 Y24.720
M5
M5
G0 X38.713 Y24.720
M4 S300
G1 X39.694 Y24.720
M5
M5
G0 X40.747 Y24.720
M4 S300
G1 X41.728 Y24.720
M5
M5
G0 X42.309 Y24.720
M4 S300
G1 X42.675 Y24.720
M5
M5
G0 X43.215 Y24.720
M4 S300
G1 X43.582 Y24.720
M5
M5
G0 X44.691 Y24.720
M4 S300
G1 X45.073 Y24.720
M5
M5
G0 X45.478 Y24.720
M4 S300
G1 X45.844 Y24.720
M5
M5
G0 X46.281 Y24.720
M4 S300
G1 X48.234 Y24.720
M5
M5
G0 X50.938 Y24.720
M4 S300
G1 X51.531 Y24.720
M5
M5
G0 X52.247 Y24.720
M4 S300
G1 X52.617 Y24.720
M5
M5
G0 X53.177 Y24.720
M4 S300
G1 X53.544 Y24.720
M5
M5
G0 X54.567 Y24.720
M4 S300
G1 X54.935 Y24.720
M5
M5
G0 X55.328 Y24.720
M4 S300
G1 X55.712 Y24.720
M5
M5
G0 X56.820 Y24.720
M4 S300
G1 X57.188 Y24.720
M5
M5
G0 X58.834 Y24.720
M4 S300
G1 X59.200 Y24.720
M5
M5
G0 X60.223 Y24.720
M4 S300
G1 X60.592 Y24.720
M5
M5
G0 X60.985 Y24.720
M4 S300
G1 X61.369 Y24.720
M5
M5
G0 X62.564 Y24.720
M4 S300
G1 X62.948 Y24.720
M5
M5
G0 X63.388 Y24.720
M4 S300
G1 X63.754 Y24.720
M5
M5
G0 X13.814 Y24.900
M4 S300
G1 X14.185 Y24.900
M5
M5
G0 X15.289 Y24.900
M4 S300
G1 X15.673 Y24.900
M5
M5
G0 X16.085 Y24.900
M4 S300
G1 X16.453 Y24.900
M5
M5
G0 X17.332 Y24.900
M4 S300
G1 X19.274 Y24.900
M5
M5
G0 X19.799 Y24.900
M4 S300
G1 X20.762 Y24.900
M5
M5
G0 X21.630 Y24.900
M4 S300
G1 X23.571 Y24.900
M5
M5
G0 X24.001 Y24.900
M4 S300
G1 X24.367 Y24.900
M5
M5
G0 X25.390 Y24.900
M4 S300
G1 X25.759 Y24.900
M5
M5
G0 X26.292 Y24.900
M4 S300
G1 X26.659 Y24.900
M5
M5
G0 X29.914 Y24.900
M4 S300
G1 X31.358 Y24.900
M5
M5
G0 X31.810 Y24.900
M4 S300
G1 X32.191 Y24.900
M5
M5
G0 X33.845 Y24.900
M4 S300
G1 X34.226 Y24.900
M5
M5
G0 X35.879 Y24.900
M4 S300
G1 X37.821 Y24.900
M5
M5
G0 X38.346 Y24.900
M4 S300
G1 X39.309 Y24.900
M5
M5
G0 X40.380 Y24.900
M4 S300
G1 X41.343 Y24.900
M5
M5
G0 X42.309 Y24.900
M4 S300
G1 X42.675 Y24.900
M5
M5
G0 X43.215 Y24.900
M4 S300
G1 X43.586 Y24.900
M5
M5
G0 X44.690 Y24.900
M4 S300
G1 X45.074 Y24.900
M5
M5
G0 X45.478 Y24.900
M4 S300
G1 X45.844 Y24.900
M5
M5
G0 X46.282 Y24.900
M4 S300
G1 X48.224 Y24.900
M5
M5
G0 X51.173 Y24.900
M4 S300
G1 X52.617 Y24.900
M5
M5
G0 X53.177 Y24.900
M4 S300
G1 X53.544 Y24.900
M5
M5
G0 X54.567 Y24.900
M4 S300
G1 X54.935 Y24.900
M5
M5
G0 X55.334 Y24.900
M4 S300
G1 X55.713 Y24.900
M5
M5
G0 X56.819 Y24.900
M4 S300
G1 X57.188 Y24.900
M5
M5
G0 X58.834 Y24.900
M4 S300
G1 X59.200 Y24.900
M5
M5
G0 X60.223 Y24.900
M4 S300
G1 X60.592 Y24.900
M5
M5
G0 X60.991 Y24.900
M4 S300
G1 X61.370 Y24.900
M5
M5
G0 X62.563 Y24.900
M4 S300
G1 X62.946 Y24.900
M5
M5
G0 X63.388 Y24.900
M4 S300
G1 X63.754 Y24.900
M5
M5
G0 X13.814 Y25.080
M4 S300
G1 X14.204 Y25.080
M5
M5
G0 X15.273 Y25.080
M4 S300
G1 X15.660 Y25.080
M5
M5
G0 X16.085 Y25.080
M4 S300
G1 X16.470 Y25.080
M5
M5
G0 X17.350 Y25.080
M4 S300
G1 X17.726 Y25.080
M5
M5
G0 X18.893 Y25.080
M4 S300
G1 X19.258 Y25.080
M5
M5
G0 X19.659 Y25.080
M4 S300
G1 X20.147 Y25.080
M5
M5
G0 X21.647 Y25.080
M4 S300
G1 X22.024 Y25.080
M5
M5
G0 X23.190 Y25.080
M4 S300
G1 X23.556 Y25.080
M5
M5
G0 X24.001 Y25.080
M4 S300
G1 X24.375 Y25.080
M5
M5
G0 X25.390 Y25.080
M4 S300
G1 X25.759 Y25.080
M5
M5
G0 X26.292 Y25.080
M4 S300
G1 X26.659 Y25.080
M5
M5
G0 X30.988 Y25.080
M4 S300
G1 X31.358 Y25.080
M5
M5
G0 X31.828 Y25.080
M4 S300
G1 X32.207 Y25.080
M5
M5
G0 X33.863 Y25.080
M4 S300
G1 X34.241 Y25.080
M5
M5
G0 X35.897 Y25.080
M4 S300
G1 X36.273 Y25.080
M5
M5
G0 X37.440 Y25.080
M4 S300
G1 X37.805 Y25.080
M5
M5
G0 X38.206 Y25.080
M4 S300
G1 X38.694 Y25.080
M5
M5
G0 X40.241 Y25.080
M4 S300
G1 X40.729 Y25.080
M5
M5
G0 X42.309 Y25.080
M4 S300
G1 X42.675 Y25.080
M5
M5
G0 X43.215 Y25.080
M4 S300
G1 X43.605 Y25.080
M5
M5
G0 X44.674 Y25.080
M4 S300
G1 X45.061 Y25.080
M5
M5
G0 X45.478 Y25.080
M4 S300
G1 X45.844 Y25.080
M5
M5
G0 X46.300 Y25.080
M4 S300
G1 X46.676 Y25.080
M5
M5
G0 X47.843 Y25.080
M4 S300
G1 X48.208 Y25.080
M5
M5
G0 X52.247 Y25.080
M4 S300
G1 X52.617 Y25.080
M5
M5
G0 X53.177 Y25.080
M4 S300
G1 X53.551 Y25.080
M5
M5
G0 X54.567 Y25.080
M4 S300
G1 X54.935 Y25.080
M5
M5
G0 X55.345 Y25.080
M4 S300
G1 X55.728 Y25.080
M5
M5
G0 X56.803 Y25.080
M4 S300
G1 X57.188 Y25.080
M5
M5
G0 X58.834 Y25.080
M4 S300
G1 X59.208 Y25.080
M5
M5
G0 X60.223 Y25.080
M4 S300
G1 X60.592 Y25.080
M5
M5
G0 X61.004 Y25.080
M4 S300
G1 X61.389 Y25.080
M5
M5
G0 X62.546 Y25.080
M4 S300
G1 X62.931 Y25.080
M5
M5
G0 X63.388 Y25.080
M4 S300
G1 X63.754 Y25.080
M5
M5
G0 X13.814 Y25.260
M4 S300
G1 X14.247 Y25.260
M5
M5
G0 X15.238 Y25.260
M4 S300
G1 X15.631 Y25.260
M5
M5
G0 X16.085 Y25.260
M4 S300
G1 X16.514 Y25.260
M5
M5
G0 X17.391 Y25.260
M4 S300
G1 X17.768 Y25.260
M5
M5
G0 X18.851 Y25.260
M4 S300
G1 X19.217 Y25.260
M5
M5
G0 X19.619 Y25.260
M4 S300
G1 X19.982 Y25.260
M5
M5
G0 X21.689 Y25.260
M4 S300
G1 X22.065 Y25.260
M5
M5
G0 X23.148 Y25.260
M4 S300
G1 X23.515 Y25.260
M5
M5
G0 X24.001 Y25.260
M4 S300
G1 X24.414 Y25.260
M5
M5
G0 X25.380 Y25.260
M4 S300
G1 X25.754 Y25.260
M5
M5
G0 X26.292 Y25.260
M4 S300
G1 X26.659 Y25.260
M5
M5
G0 X30.980 Y25.260
M4 S300
G1 X31.354 Y25.260
M5
M5
G0 X31.868 Y25.260
M4 S300
G1 X32.243 Y25.260
M5
M5
G0 X33.208 Y25.260
M4 S300
G1 X33.590 Y25.260
M5
M5
G0 X33.902 Y25.260
M4 S300
G1 X34.277 Y25.260
M5
M5
G0 X35.243 Y25.260
M4 S300
G1 X35.625 Y25.260
M5
M5
G0 X35.938 Y25.260
M4 S300
G1 X36.315 Y25.260
M5
M5
G0 X37.398 Y25.260
M4 S300
G1 X37.764 Y25.260
M5
M5
G0 X38.166 Y25.260
M4 S300
G1 X38.529 Y25.260
M5
M5
G0 X40.201 Y25.260
M4 S300
G1 X40.563 Y25.260
M5
M5
G0 X42.309 Y25.260
M4 S300
G1 X42.675 Y25.260
M5
M5
G0 X43.215 Y25.260
M4 S300
G1 X43.648 Y25.260
M5
M5
G0 X44.640 Y25.260
M4 S300
G1 X45.031 Y25.260
M5
M5
G0 X45.478 Y25.260
M4 S300
G1 X45.844 Y25.260
M5
M5
G0 X46.341 Y25.260
M4 S300
G1 X46.718 Y25.260
M5
M5
G0 X47.801 Y25.260
M4 S300
G1 X48.167 Y25.260
M5
M5
G0 X52.239 Y25.260
M4 S300
G1 X52.613 Y25.260
M5
M5
G0 X53.177 Y25.260
M4 S300
G1 X53.590 Y25.260
M5
M5
G0 X54.556 Y25.260
M4 S300
G1 X54.931 Y25.260
M5
M5
G0 X55.380 Y25.260
M4 S300
G1 X55.762 Y25.260
M5
M5
G0 X56.764 Y25.260
M4 S300
G1 X57.188 Y25.260
M5
M5
G0 X58.834 Y25.260
M4 S300
G1 X59.247 Y25.260
M5
M5
G0 X60.213 Y25.260
M4 S300
G1 X60.587 Y25.260
M5
M5
G0 X61.046 Y25.260
M4 S300
G1 X61.430 Y25.260
M5
M5
G0 X62.508 Y25.260
M4 S300
G1 X62.895 Y25.260
M5
M5
G0 X63.388 Y25.260
M4 S300
G1 X63.754 Y25.260
M5
M5
G0 X13.814 Y25.440
M4 S300
G1 X14.336 Y25.440
M5
M5
G0 X15.162 Y25.440
M4 S300
G1 X15.579 Y25.440
M5
M5
G0 X16.085 Y25.440
M4 S300
G1 X16.435 Y25.440
M5
M5
G0 X16.449 Y25.440
M4 S300
G1 X16.613 Y25.440
M5
M5
G0 X17.461 Y25.440
M4 S300
G1 X17.865 Y25.440
M5
M5
G0 X18.764 Y25.440
M4 S300
G1 X19.148 Y25.440
M5
M5
G0 X19.633 Y25.440
M4 S300
G1 X19.994 Y25.440
M5
M5
G0 X20.935 Y25.440
M4 S300
G1 X21.291 Y25.440
M5
M5
G0 X21.758 Y25.440
M4 S300
G1 X22.162 Y25.440
M5
M5
G0 X23.061 Y25.440
M4 S300
G1 X23.446 Y25.440
M5
M5
G0 X24.001 Y25.440
M4 S300
G1 X24.512 Y25.440
M5
M5
G0 X25.334 Y25.440
M4 S300
G1 X25.730 Y25.440
M5
M5
G0 X26.292 Y25.440
M4 S300
G1 X26.659 Y25.440
M5
M5
G0 X29.672 Y25.440
M4 S300
G1 X30.067 Y25.440
M5
M5
G0 X30.930 Y25.440
M4 S300
G1 X31.323 Y25.440
M5
M5
G0 X31.934 Y25.440
M4 S300
G1 X32.323 Y25.440
M5
M5
G0 X33.137 Y25.440
M4 S300
G1 X33.537 Y25.440
M5
M5
G0 X33.969 Y25.440
M4 S300
G1 X34.358 Y25.440
M5
M5
G0 X35.171 Y25.440
M4 S300
G1 X35.571 Y25.440
M5
M5
G0 X36.008 Y25.440
M4 S300
G1 X36.412 Y25.440
M5
M5
G0 X37.311 Y25.440
M4 S300
G1 X37.695 Y25.440
M5
M5
G0 X38.180 Y25.440
M4 S300
G1 X38.541 Y25.440
M5
M5
G0 X39.482 Y25.440
M4 S300
G1 X39.838 Y25.440
M5
M5
G0 X40.215 Y25.440
M4 S300
G1 X40.575 Y25.440
M5
M5
G0 X41.516 Y25.440
M4 S300
G1 X41.872 Y25.440
M5
M5
G0 X42.309 Y25.440
M4 S300
G1 X42.675 Y25.440
M5
M5
G0 X43.215 Y25.440
M4 S300
G1 X43.738 Y25.440
M5
M5
G0 X44.565 Y25.440
M4 S300
G1 X44.980 Y25.440
M5
M5
G0 X45.478 Y25.440
M4 S300
G1 X45.844 Y25.440
M5
M5
G0 X46.411 Y25.440
M4 S300
G1 X46.815 Y25.440
M5
M5
G0 X47.714 Y25.440
M4 S300
G1 X48.098 Y25.440
M5
M5
G0 X50.931 Y25.440
M4 S300
G1 X51.326 Y25.440
M5
M5
G0 X52.189 Y25.440
M4 S300
G1 X52.582 Y25.440
M5
M5
G0 X53.177 Y25.440
M4 S300
G1 X53.688 Y25.440
M5
M5
G0 X54.510 Y25.440
M4 S300
G1 X54.906 Y25.440
M5
M5
G0 X55.437 Y25.440
M4 S300
G1 X55.834 Y25.440
M5
M5
G0 X56.682 Y25.440
M4 S300
G1 X57.188 Y25.440
M5
M5
G0 X58.834 Y25.440
M4 S300
G1 X59.345 Y25.440
M5
M5
G0 X60.167 Y25.440
M4 S300
G1 X60.563 Y25.440
M5
M5
G0 X61.115 Y25.440
M4 S300
G1 X61.516 Y25.440
M5
M5
G0 X62.428 Y25.440
M4 S300
G1 X62.834 Y25.440
M5
M5
G0 X63.388 Y25.440
M4 S300
G1 X63.754 Y25.440
M5
M5
G0 X13.813 Y25.620
M4 S300
G1 X14.173 Y25.620
M5
M5
G0 X14.241 Y25.620
M4 S300
G1 X14.642 Y25.620
M5
M5
G0 X14.880 Y25.620
M4 S300
G1 X15.487 Y25.620
M5
M5
G0 X16.082 Y25.620
M4 S300
G1 X16.429 Y25.620
M5
M5
G0 X16.517 Y25.620
M4 S300
G1 X17.115 Y25.620
M5
M5
G0 X17.581 Y25.620
M4 S300
G1 X18.130 Y25.620
M5
M5
G0 X18.498 Y25.620
M4 S300
G1 X19.033 Y25.620
M5
M5
G0 X19.708 Y25.620
M4 S300
G1 X20.284 Y25.620
M5
M5
G0 X20.616 Y25.620
M4 S300
G1 X21.207 Y25.620
M5
M5
G0 X21.878 Y25.620
M4 S300
G1 X22.427 Y25.620
M5
M5
G0 X22.795 Y25.620
M4 S300
G1 X23.330 Y25.620
M5
M5
G0 X24.000 Y25.620
M4 S300
G1 X24.347 Y25.620
M5
M5
G0 X24.435 Y25.620
M4 S300
G1 X24.813 Y25.620
M5
M5
G0 X25.087 Y25.620
M4 S300
G1 X25.669 Y25.620
M5
M5
G0 X26.038 Y25.620
M4 S300
G1 X27.065 Y25.620
M5
M5
G0 X29.759 Y25.620
M4 S300
G1 X30.327 Y25.620
M5
M5
G0 X30.676 Y25.620
M4 S300
G1 X31.238 Y25.620
M5
M5
G0 X32.049 Y25.620
M4 S300
G1 X32.636 Y25.620
M5
M5
G0 X32.846 Y25.620
M4 S300
G1 X33.431 Y25.620
M5
M5
G0 X34.083 Y25.620
M4 S300
G1 X34.671 Y25.620
M5
M5
G0 X34.881 Y25.620
M4 S300
G1 X35.466 Y25.620
M5
M5
G0 X36.128 Y25.620
M4 S300
G1 X36.677 Y25.620
M5
M5
G0 X37.045 Y25.620
M4 S300
G1 X37.580 Y25.620
M5
M5
G0 X38.255 Y25.620
M4 S300
G1 X38.831 Y25.620
M5
M5
G0 X39.163 Y25.620
M4 S300
G1 X39.754 Y25.620
M5
M5
G0 X40.290 Y25.620
M4 S300
G1 X40.865 Y25.620
M5
M5
G0 X41.198 Y25.620
M4 S300
G1 X41.788 Y25.620
M5
M5
G0 X42.309 Y25.620
M4 S300
G1 X42.675 Y25.620
M5
M5
G0 X43.215 Y25.620
M4 S300
G1 X43.577 Y25.620
M5
M5
G0 X43.638 Y25.620
M4 S300
G1 X44.043 Y25.620
M5
M5
G0 X44.293 Y25.620
M4 S300
G1 X44.889 Y25.620
M5
M5
G0 X45.478 Y25.620
M4 S300
G1 X45.844 Y25.620
M5
M5
G0 X46.531 Y25.620
M4 S300
G1 X47.080 Y25.620
M5
M5
G0 X47.448 Y25.620
M4 S300
G1 X47.983 Y25.620
M5
M5
G0 X51.018 Y25.620
M4 S300
G1 X51.586 Y25.620
M5
M5
G0 X51.935 Y25.620
M4 S300
G1 X52.497 Y25.620
M5
M5
G0 X53.176 Y25.620
M4 S300
G1 X53.524 Y25.620
M5
M5
G0 X53.611 Y25.620
M4 S300
G1 X53.989 Y25.620
M5
M5
G0 X54.264 Y25.620
M4 S300
G1 X54.845 Y25.620
M5
M5
G0 X55.532 Y25.620
M4 S300
G1 X56.066 Y25.620
M5
M5
G0 X56.421 Y25.620
M4 S300
G1 X56.770 Y25.620
M5
M5
G0 X56.824 Y25.620
M4 S300
G1 X57.188 Y25.620
M5
M5
G0 X58.832 Y25.620
M4 S300
G1 X59.180 Y25.620
M5
M5
G0 X59.268 Y25.620
M4 S300
G1 X59.646 Y25.620
M5
M5
G0 X59.920 Y25.620
M4 S300
G1 X60.502 Y25.620
M5
M5
G0 X61.231 Y25.620
M4 S300
G1 X61.783 Y25.620
M5
M5
G0 X62.168 Y25.620
M4 S300
G1 X62.725 Y25.620
M5
M5
G0 X63.134 Y25.620
M4 S300
G1 X64.161 Y25.620
M5
M5
G0 X13.808 Y25.800
M4 S300
G1 X14.163 Y25.800
M5
M5
G0 X14.415 Y25.800
M4 S300
G1 X15.301 Y25.800
M5
M5
G0 X16.076 Y25.800
M4 S300
G1 X16.422 Y25.800
M5
M5
G0 X16.634 Y25.800
M4 S300
G1 X17.115 Y25.800
M5
M5
G0 X17.808 Y25.800
M4 S300
G1 X18.817 Y25.800
M5
M5
G0 X19.913 Y25.800
M4 S300
G1 X21.000 Y25.800
M5
M5
G0 X22.105 Y25.800
M4 S300
G1 X23.115 Y25.800
M5
M5
G0 X23.995 Y25.800
M4 S300
G1 X24.339 Y25.800
M5
M5
G0 X24.617 Y25.800
M4 S300
G1 X25.513 Y25.800
M5
M5
G0 X26.038 Y25.800
M4 S300
G1 X27.065 Y25.800
M5
M5
G0 X29.967 Y25.800
M4 S300
G1 X31.042 Y25.800
M5
M5
G0 X32.266 Y25.800
M4 S300
G1 X33.220 Y25.800
M5
M5
G0 X34.300 Y25.800
M4 S300
G1 X35.254 Y25.800
M5
M5
G0 X36.355 Y25.800
M4 S300
G1 X37.364 Y25.800
M5
M5
G0 X38.460 Y25.800
M4 S300
G1 X39.547 Y25.800
M5
M5
G0 X40.494 Y25.800
M4 S300
G1 X41.581 Y25.800
M5
M5
G0 X42.309 Y25.800
M4 S300
G1 X42.675 Y25.800
M5
M5
G0 X43.215 Y25.800
M4 S300
G1 X43.581 Y25.800
M5
M5
G0 X43.813 Y25.800
M4 S300
G1 X44.707 Y25.800
M5
M5
G0 X45.478 Y25.800
M4 S300
G1 X45.844 Y25.800
M5
M5
G0 X46.758 Y25.800
M4 S300
G1 X47.767 Y25.800
M5
M5
G0 X51.226 Y25.800
M4 S300
G1 X52.301 Y25.800
M5
M5
G0 X53.171 Y25.800
M4 S300
G1 X53.516 Y25.800
M5
M5
G0 X53.794 Y25.800
M4 S300
G1 X54.689 Y25.800
M5
M5
G0 X55.713 Y25.800
M4 S300
G1 X56.591 Y25.800
M5
M5
G0 X56.822 Y25.800
M4 S300
G1 X57.188 Y25.800
M5
M5
G0 X58.828 Y25.800
M4 S300
G1 X59.172 Y25.800
M5
M5
G0 X59.450 Y25.800
M4 S300
G1 X60.346 Y25.800
M5
M5
G0 X61.453 Y25.800
M4 S300
G1 X62.504 Y25.800
M5
M5
G0 X63.134 Y25.800
M4 S300
G1 X64.161 Y25.800
M5
M5
G0 X26.330 Y25.980
M4 S300
G1 X26.659 Y25.980
M5
M5
G0 X43.215 Y25.980
M4 S300
G1 X43.581 Y25.980
M5
M5
G0 X45.478 Y25.980
M4 S300
G1 X45.844 Y25.980
M5
M5
G0 X56.822 Y25.980
M4 S300
G1 X57.188 Y25.980
M5
M5
G0 X63.426 Y25.980
M4 S300
G1 X63.754 Y25.980
M5
M5
G0 X26.369 Y26.160
M4 S300
G1 X26.659 Y26.160
M5
M5
G0 X43.215 Y26.160
M4 S300
G1 X43.581 Y26.160
M5
M5
G0 X45.478 Y26.160
M4 S300
G1 X45.844 Y26.160
M5
M5
G0 X56.822 Y26.160
M4 S300
G1 X57.188 Y26.160
M5
M5
G0 X63.465 Y26.160
M4 S300
G1 X63.754 Y26.160
M5
M5
G0 X26.409 Y26.340
M4 S300
G1 X26.659 Y26.340
M5
M5
G0 X43.215 Y26.340
M4 S300
G1 X43.581 Y26.340
M5
M5
G0 X45.478 Y26.340
M4 S300
G1 X45.844 Y26.340
M5
M5
G0 X56.822 Y26.340
M4 S300
G1 X57.188 Y26.340
M5
M5
G0 X63.505 Y26.340
M4 S300
G1 X63.754 Y26.340
M5
M5
G0 X42.309 Y26.520
M4 S300
G1 X42.675 Y26.520
M5
M5
G0 X43.215 Y26.520
M4 S300
G1 X43.581 Y26.520
M5
M5
G0 X45.478 Y26.520
M4 S300
G1 X45.844 Y26.520
M5
M5
G0 X56.822 Y26.520
M4 S300
G1 X57.188 Y26.520
M5
M5
G0 X46.156 Y26.880
M4 S300
G1 X46.709 Y26.880
M5
M5
G0 X53.763 Y26.880
M4 S300
G1 X54.129 Y26.880
M5
M5
G0 X56.026 Y26.880
M4 S300
G1 X56.392 Y26.880
M5
M5
G0 X46.156 Y27.060
M4 S300
G1 X46.926 Y27.060
M5
M5
G0 X53.763 Y27.060
M4 S300
G1 X54.129 Y27.060
M5
M5
G0 X56.026 Y27.060
M4 S300
G1 X56.392 Y27.060
M5
M5
G0 X46.652 Y27.240
M4 S300
G1 X47.050 Y27.240
M5
M5
G0 X53.763 Y27.240
M4 S300
G1 X54.129 Y27.240
M5
M5
G0 X56.026 Y27.240
M4 S300
G1 X56.392 Y27.240
M5
M5
G0 X46.783 Y27.420
M4 S300
G1 X47.142 Y27.420
M5
M5
G0 X53.763 Y27.420
M4 S300
G1 X54.129 Y27.420
M5
M5
G0 X56.026 Y27.420
M4 S300
G1 X56.392 Y27.420
M5
M5
G0 X46.869 Y27.600
M4 S300
G1 X47.219 Y27.600
M5
M5
G0 X53.763 Y27.600
M4 S300
G1 X54.129 Y27.600
M5
M5
G0 X56.026 Y27.600
M4 S300
G1 X56.392 Y27.600
M5
M5
G0 X7.006 Y27.780
M4 S300
G1 X9.264 Y27.780
M5
M5
G0 X9.667 Y27.780
M4 S300
G1 X10.033 Y27.780
M5
M5
G0 X11.057 Y27.780
M4 S300
G1 X11.425 Y27.780
M5
M5
G0 X12.029 Y27.780
M4 S300
G1 X13.306 Y27.780
M5
M5
G0 X14.149 Y27.780
M4 S300
G1 X15.133 Y27.780
M5
M5
G0 X15.364 Y27.780
M4 S300
G1 X15.709 Y27.780
M5
M5
G0 X16.228 Y27.780
M4 S300
G1 X16.594 Y27.780
M5
M5
G0 X17.892 Y27.780
M4 S300
G1 X19.067 Y27.780
M5
M5
G0 X19.944 Y27.780
M4 S300
G1 X21.221 Y27.780
M5
M5
G0 X23.140 Y27.780
M4 S300
G1 X23.849 Y27.780
M5
M5
G0 X24.141 Y27.780
M4 S300
G1 X24.507 Y27.780
M5
M5
G0 X25.531 Y27.780
M4 S300
G1 X25.899 Y27.780
M5
M5
G0 X26.714 Y27.780
M4 S300
G1 X27.889 Y27.780
M5
M5
G0 X29.798 Y27.780
M4 S300
G1 X30.164 Y27.780
M5
M5
G0 X31.187 Y27.780
M4 S300
G1 X31.555 Y27.780
M5
M5
G0 X32.370 Y27.780
M4 S300
G1 X33.545 Y27.780
M5
M5
G0 X34.613 Y27.780
M4 S300
G1 X35.682 Y27.780
M5
M5
G0 X36.667 Y27.780
M4 S300
G1 X37.843 Y27.780
M5
M5
G0 X38.720 Y27.780
M4 S300
G1 X39.997 Y27.780
M5
M5
G0 X40.754 Y27.780
M4 S300
G1 X42.031 Y27.780
M5
M5
G0 X42.775 Y27.780
M4 S300
G1 X43.762 Y27.780
M5
M5
G0 X44.124 Y27.780
M4 S300
G1 X44.718 Y27.780
M5
M5
G0 X44.953 Y27.780
M4 S300
G1 X45.319 Y27.780
M5
M5
G0 X46.864 Y27.780
M4 S300
G1 X47.289 Y27.780
M5
M5
G0 X49.572 Y27.780
M4 S300
G1 X50.849 Y27.780
M5
M5
G0 X51.692 Y27.780
M4 S300
G1 X52.676 Y27.780
M5
M5
G0 X52.907 Y27.780
M4 S300
G1 X53.252 Y27.780
M5
M5
G0 X53.763 Y27.780
M4 S300
G1 X54.128 Y27.780
M5
M5
G0 X54.315 Y27.780
M4 S300
G1 X55.279 Y27.780
M5
M5
G0 X56.026 Y27.780
M4 S300
G1 X56.391 Y27.780
M5
M5
G0 X56.577 Y27.780
M4 S300
G1 X57.542 Y27.780
M5
M5
G0 X58.288 Y27.780
M4 S300
G1 X58.655 Y27.780
M5
M5
G0 X59.190 Y27.780
M4 S300
G1 X59.557 Y27.780
M5
M5
G0 X60.414 Y27.780
M4 S300
G1 X61.589 Y27.780
M5
M5
G0 X62.466 Y27.780
M4 S300
G1 X63.743 Y27.780
M5
M5
G0 X65.617 Y27.780
M4 S300
G1 X66.604 Y27.780
M5
M5
G0 X66.967 Y27.780
M4 S300
G1 X67.561 Y27.780
M5
M5
G0 X67.796 Y27.780
M4 S300
G1 X68.162 Y27.780
M5
M5
G0 X69.460 Y27.780
M4 S300
G1 X70.635 Y27.780
M5
M5
G0 X7.006 Y27.960
M4 S300
G1 X9.264 Y27.960
M5
M5
G0 X9.667 Y27.960
M4 S300
G1 X10.033 Y27.960
M5
M5
G0 X11.057 Y27.960
M4 S300
G1 X11.425 Y27.960
M5
M5
G0 X11.851 Y27.960
M4 S300
G1 X12.348 Y27.960
M5
M5
G0 X13.016 Y27.960
M4 S300
G1 X13.489 Y27.960
M5
M5
G0 X14.021 Y27.960
M4 S300
G1 X14.509 Y27.960
M5
M5
G0 X15.002 Y27.960
M4 S300
G1 X15.293 Y27.960
M5
M5
G0 X15.357 Y27.960
M4 S300
G1 X15.705 Y27.960
M5
M5
G0 X16.228 Y27.960
M4 S300
G1 X16.594 Y27.960
M5
M5
G0 X17.698 Y27.960
M4 S300
G1 X18.204 Y27.960
M5
M5
G0 X18.771 Y27.960
M4 S300
G1 X19.259 Y27.960
M5
M5
G0 X19.767 Y27.960
M4 S300
G1 X20.264 Y27.960
M5
M5
G0 X20.932 Y27.960
M4 S300
G1 X21.405 Y27.960
M5
M5
G0 X23.059 Y27.960
M4 S300
G1 X23.500 Y27.960
M5
M5
G0 X24.141 Y27.960
