; vibe-cutting deterministic GRBL artifact
G21
G90
M5
; vector_engrave
; material=basswood_3mm thickness_mm=3.0
; passes=1 speed_mm_per_min=5000 power_percent=30 air_assist=low
; pass 1 of 1
F5000
M5
G0 X92.400 Y135.560
M4 S300
G1 X94.480 Y135.560
M5
M5
G0 X93.440 Y135.560
M4 S300
G1 X93.440 Y132.440
M5
M5
G0 X92.400 Y132.440
M4 S300
G1 X94.480 Y132.440
M5
M5
G0 X95.520 Y132.440
M4 S300
G1 X95.520 Y135.560
M5
M5
G0 X95.520 Y135.560
M4 S300
G1 X97.600 Y132.440
M5
M5
G0 X97.600 Y132.440
M4 S300
G1 X97.600 Y135.560
M5
M5
G0 X131.360 Y132.440
M4 S300
G1 X130.840 Y132.960
M5
M5
G0 X130.840 Y132.960
M4 S300
G1 X130.840 Y135.040
M5
M5
G0 X130.840 Y135.040
M4 S300
G1 X131.360 Y135.560
M5
M5
G0 X131.360 Y135.560
M4 S300
G1 X132.400 Y135.560
M5
M5
G0 X132.400 Y135.560
M4 S300
G1 X132.920 Y135.040
M5
M5
G0 X132.920 Y135.040
M4 S300
G1 X132.920 Y132.960
M5
M5
G0 X132.920 Y132.960
M4 S300
G1 X132.400 Y132.440
M5
M5
G0 X132.400 Y132.440
M4 S300
G1 X131.360 Y132.440
M5
M5
G0 X133.960 Y135.560
M4 S300
G1 X133.960 Y132.960
M5
M5
G0 X133.960 Y132.960
M4 S300
G1 X134.480 Y132.440
M5
M5
G0 X134.480 Y132.440
M4 S300
G1 X135.520 Y132.440
M5
M5
G0 X135.520 Y132.440
M4 S300
G1 X136.040 Y132.960
M5
M5
G0 X136.040 Y132.960
M4 S300
G1 X136.040 Y135.560
M5
M5
G0 X137.080 Y135.560
M4 S300
G1 X139.160 Y135.560
M5
M5
G0 X138.120 Y135.560
M4 S300
G1 X138.120 Y132.440
M5
; through_cut
; material=basswood_3mm thickness_mm=3.0
; passes=1 speed_mm_per_min=500 power_percent=100 air_assist=high
; pass 1 of 1
F500
M5
G0 X117.000 Y134.000
M4 S1000
G1 X112.285 Y136.738
G1 X115.923 Y140.798
G1 X110.593 Y141.945
G1 X112.798 Y146.931
G1 X107.374 Y146.374
G1 X107.931 Y151.798
G1 X102.945 Y149.593
G1 X101.798 Y154.923
G1 X97.738 Y151.285
G1 X95.000 Y156.000
G1 X92.262 Y151.285
G1 X88.202 Y154.923
G1 X87.055 Y149.593
G1 X82.069 Y151.798
G1 X82.626 Y146.374
G1 X77.202 Y146.931
G1 X79.407 Y141.945
G1 X74.077 Y140.798
G1 X77.715 Y136.738
G1 X73.000 Y134.000
G1 X77.715 Y131.262
G1 X74.077 Y127.202
G1 X79.407 Y126.055
G1 X77.202 Y121.069
G1 X82.626 Y121.626
G1 X82.069 Y116.202
G1 X87.055 Y118.407
G1 X88.202 Y113.077
G1 X92.262 Y116.715
G1 X95.000 Y112.000
G1 X97.738 Y116.715
G1 X101.798 Y113.077
G1 X102.945 Y118.407
G1 X107.931 Y116.202
G1 X107.374 Y121.626
G1 X112.798 Y121.069
G1 X110.593 Y126.055
G1 X115.923 Y127.202
G1 X112.285 Y131.262
G1 X117.000 Y134.000
M5
M5
G0 X97.600 Y134.000
M4 S1000
G1 X97.587 Y134.255
G1 X97.550 Y134.507
G1 X97.488 Y134.755
G1 X97.402 Y134.995
G1 X97.293 Y135.226
G1 X97.162 Y135.444
G1 X97.010 Y135.649
G1 X96.838 Y135.838
G1 X96.649 Y136.010
G1 X96.444 Y136.162
G1 X96.226 Y136.293
G1 X95.995 Y136.402
G1 X95.755 Y136.488
G1 X95.507 Y136.550
G1 X95.255 Y136.587
G1 X95.000 Y136.600
G1 X94.745 Y136.587
G1 X94.493 Y136.550
G1 X94.245 Y136.488
G1 X94.005 Y136.402
G1 X93.774 Y136.293
G1 X93.556 Y136.162
G1 X93.351 Y136.010
G1 X93.162 Y135.838
G1 X92.990 Y135.649
G1 X92.838 Y135.444
G1 X92.707 Y135.226
G1 X92.598 Y134.995
G1 X92.512 Y134.755
G1 X92.450 Y134.507
G1 X92.413 Y134.255
G1 X92.400 Y134.000
G1 X92.413 Y133.745
G1 X92.450 Y133.493
G1 X92.512 Y133.245
G1 X92.598 Y133.005
G1 X92.707 Y132.774
G1 X92.838 Y132.556
G1 X92.990 Y132.351
G1 X93.162 Y132.162
G1 X93.351 Y131.990
G1 X93.556 Y131.838
G1 X93.774 Y131.707
G1 X94.005 Y131.598
G1 X94.245 Y131.512
G1 X94.493 Y131.450
G1 X94.745 Y131.413
G1 X95.000 Y131.400
G1 X95.255 Y131.413
G1 X95.507 Y131.450
G1 X95.755 Y131.512
G1 X95.995 Y131.598
G1 X96.226 Y131.707
G1 X96.444 Y131.838
G1 X96.649 Y131.990
G1 X96.838 Y132.162
G1 X97.010 Y132.351
G1 X97.162 Y132.556
G1 X97.293 Y132.774
G1 X97.402 Y133.005
G1 X97.488 Y133.245
G1 X97.550 Y133.493
G1 X97.587 Y133.745
G1 X97.600 Y134.000
M5
M5
G0 X157.000 Y134.000
M4 S1000
G1 X152.285 Y136.738
G1 X155.923 Y140.798
G1 X150.593 Y141.945
G1 X152.798 Y146.931
G1 X147.374 Y146.374
G1 X147.931 Y151.798
G1 X142.945 Y149.593
G1 X141.798 Y154.923
G1 X137.738 Y151.285
G1 X135.000 Y156.000
G1 X132.262 Y151.285
G1 X128.202 Y154.923
G1 X127.055 Y149.593
G1 X122.069 Y151.798
G1 X122.626 Y146.374
G1 X117.202 Y146.931
G1 X119.407 Y141.945
G1 X114.077 Y140.798
G1 X117.715 Y136.738
G1 X113.000 Y134.000
G1 X117.715 Y131.262
G1 X114.077 Y127.202
G1 X119.407 Y126.055
G1 X117.202 Y121.069
G1 X122.626 Y121.626
G1 X122.069 Y116.202
G1 X127.055 Y118.407
G1 X128.202 Y113.077
G1 X132.262 Y116.715
G1 X135.000 Y112.000
G1 X137.738 Y116.715
G1 X141.798 Y113.077
G1 X142.945 Y118.407
G1 X147.931 Y116.202
G1 X147.374 Y121.626
G1 X152.798 Y121.069
G1 X150.593 Y126.055
G1 X155.923 Y127.202
G1 X152.285 Y131.262
G1 X157.000 Y134.000
M5
M5
G0 X137.600 Y134.000
M4 S1000
G1 X137.587 Y134.255
G1 X137.550 Y134.507
G1 X137.488 Y134.755
G1 X137.402 Y134.995
G1 X137.293 Y135.226
G1 X137.162 Y135.444
G1 X137.010 Y135.649
G1 X136.838 Y135.838
G1 X136.649 Y136.010
G1 X136.444 Y136.162
G1 X136.226 Y136.293
G1 X135.995 Y136.402
G1 X135.755 Y136.488
G1 X135.507 Y136.550
G1 X135.255 Y136.587
G1 X135.000 Y136.600
G1 X134.745 Y136.587
G1 X134.493 Y136.550
G1 X134.245 Y136.488
G1 X134.005 Y136.402
G1 X133.774 Y136.293
G1 X133.556 Y136.162
G1 X133.351 Y136.010
G1 X133.162 Y135.838
G1 X132.990 Y135.649
G1 X132.838 Y135.444
G1 X132.707 Y135.226
G1 X132.598 Y134.995
G1 X132.512 Y134.755
G1 X132.450 Y134.507
G1 X132.413 Y134.255
G1 X132.400 Y134.000
G1 X132.413 Y133.745
G1 X132.450 Y133.493
G1 X132.512 Y133.245
G1 X132.598 Y133.005
G1 X132.707 Y132.774
G1 X132.838 Y132.556
G1 X132.990 Y132.351
G1 X133.162 Y132.162
G1 X133.351 Y131.990
G1 X133.556 Y131.838
G1 X133.774 Y131.707
G1 X134.005 Y131.598
G1 X134.245 Y131.512
G1 X134.493 Y131.450
G1 X134.745 Y131.413
G1 X135.000 Y131.400
G1 X135.255 Y131.413
G1 X135.507 Y131.450
G1 X135.755 Y131.512
G1 X135.995 Y131.598
G1 X136.226 Y131.707
G1 X136.444 Y131.838
G1 X136.649 Y131.990
G1 X136.838 Y132.162
G1 X137.010 Y132.351
G1 X137.162 Y132.556
G1 X137.293 Y132.774
G1 X137.402 Y133.005
G1 X137.488 Y133.245
G1 X137.550 Y133.493
G1 X137.587 Y133.745
G1 X137.600 Y134.000
M5
M5
G0 X97.500 Y134.000
M4 S1000
G1 X97.495 Y134.164
G1 X97.479 Y134.326
G1 X97.452 Y134.488
G1 X97.415 Y134.647
G1 X97.367 Y134.804
G1 X97.310 Y134.957
G1 X97.242 Y135.106
G1 X97.165 Y135.250
G1 X97.079 Y135.389
G1 X96.983 Y135.522
G1 X96.880 Y135.648
G1 X96.768 Y135.768
G1 X96.648 Y135.880
G1 X96.522 Y135.983
G1 X96.389 Y136.079
G1 X96.250 Y136.165
G1 X96.106 Y136.242
G1 X95.957 Y136.310
G1 X95.804 Y136.367
G1 X95.647 Y136.415
G1 X95.488 Y136.452
G1 X95.326 Y136.479
G1 X95.164 Y136.495
G1 X95.000 Y136.500
G1 X94.836 Y136.495
G1 X94.674 Y136.479
G1 X94.512 Y136.452
G1 X94.353 Y136.415
G1 X94.196 Y136.367
G1 X94.043 Y136.310
G1 X93.894 Y136.242
G1 X93.750 Y136.165
G1 X93.611 Y136.079
G1 X93.478 Y135.983
G1 X93.352 Y135.880
G1 X93.232 Y135.768
G1 X93.120 Y135.648
G1 X93.017 Y135.522
G1 X92.921 Y135.389
G1 X92.835 Y135.250
G1 X92.758 Y135.106
G1 X92.690 Y134.957
G1 X92.633 Y134.804
G1 X92.585 Y134.647
G1 X92.548 Y134.488
G1 X92.521 Y134.326
G1 X92.505 Y134.164
G1 X92.500 Y134.000
G1 X92.505 Y133.836
G1 X92.521 Y133.674
G1 X92.548 Y133.512
G1 X92.585 Y133.353
G1 X92.633 Y133.196
G1 X92.690 Y133.043
G1 X92.758 Y132.894
G1 X92.835 Y132.750
G1 X92.921 Y132.611
G1 X93.017 Y132.478
G1 X93.120 Y132.352
G1 X93.232 Y132.232
G1 X93.352 Y132.120
G1 X93.478 Y132.017
G1 X93.611 Y131.921
G1 X93.750 Y131.835
G1 X93.894 Y131.758
G1 X94.043 Y131.690
G1 X94.196 Y131.633
G1 X94.353 Y131.585
G1 X94.512 Y131.548
G1 X94.674 Y131.521
G1 X94.836 Y131.505
G1 X95.000 Y131.500
G1 X95.164 Y131.505
G1 X95.326 Y131.521
G1 X95.488 Y131.548
G1 X95.647 Y131.585
G1 X95.804 Y131.633
G1 X95.957 Y131.690
G1 X96.106 Y131.758
G1 X96.250 Y131.835
G1 X96.389 Y131.921
G1 X96.522 Y132.017
G1 X96.648 Y132.120
G1 X96.768 Y132.232
G1 X96.880 Y132.352
G1 X96.983 Y132.478
G1 X97.079 Y132.611
G1 X97.165 Y132.750
G1 X97.242 Y132.894
G1 X97.310 Y133.043
G1 X97.367 Y133.196
G1 X97.415 Y133.353
G1 X97.452 Y133.512
G1 X97.479 Y133.674
G1 X97.495 Y133.836
G1 X97.500 Y134.000
M5
M5
G0 X137.500 Y134.000
M4 S1000
G1 X137.495 Y134.164
G1 X137.479 Y134.326
G1 X137.452 Y134.488
G1 X137.415 Y134.647
G1 X137.367 Y134.804
G1 X137.310 Y134.957
G1 X137.242 Y135.106
G1 X137.165 Y135.250
G1 X137.079 Y135.389
G1 X136.983 Y135.522
G1 X136.880 Y135.648
G1 X136.768 Y135.768
G1 X136.648 Y135.880
G1 X136.522 Y135.983
G1 X136.389 Y136.079
G1 X136.250 Y136.165
G1 X136.106 Y136.242
G1 X135.957 Y136.310
G1 X135.804 Y136.367
G1 X135.647 Y136.415
G1 X135.488 Y136.452
G1 X135.326 Y136.479
G1 X135.164 Y136.495
G1 X135.000 Y136.500
G1 X134.836 Y136.495
G1 X134.674 Y136.479
G1 X134.512 Y136.452
G1 X134.353 Y136.415
G1 X134.196 Y136.367
G1 X134.043 Y136.310
G1 X133.894 Y136.242
G1 X133.750 Y136.165
G1 X133.611 Y136.079
G1 X133.478 Y135.983
G1 X133.352 Y135.880
G1 X133.232 Y135.768
G1 X133.120 Y135.648
G1 X133.017 Y135.522
G1 X132.921 Y135.389
G1 X132.835 Y135.250
G1 X132.758 Y135.106
G1 X132.690 Y134.957
G1 X132.633 Y134.804
G1 X132.585 Y134.647
G1 X132.548 Y134.488
G1 X132.521 Y134.326
G1 X132.505 Y134.164
G1 X132.500 Y134.000
G1 X132.505 Y133.836
G1 X132.521 Y133.674
G1 X132.548 Y133.512
G1 X132.585 Y133.353
G1 X132.633 Y133.196
G1 X132.690 Y133.043
G1 X132.758 Y132.894
G1 X132.835 Y132.750
G1 X132.921 Y132.611
G1 X133.017 Y132.478
G1 X133.120 Y132.352
G1 X133.232 Y132.232
G1 X133.352 Y132.120
G1 X133.478 Y132.017
G1 X133.611 Y131.921
G1 X133.750 Y131.835
G1 X133.894 Y131.758
G1 X134.043 Y131.690
G1 X134.196 Y131.633
G1 X134.353 Y131.585
G1 X134.512 Y131.548
G1 X134.674 Y131.521
G1 X134.836 Y131.505
G1 X135.000 Y131.500
G1 X135.164 Y131.505
G1 X135.326 Y131.521
G1 X135.488 Y131.548
G1 X135.647 Y131.585
G1 X135.804 Y131.633
G1 X135.957 Y131.690
G1 X136.106 Y131.758
G1 X136.250 Y131.835
G1 X136.389 Y131.921
G1 X136.522 Y132.017
G1 X136.648 Y132.120
G1 X136.768 Y132.232
G1 X136.880 Y132.352
G1 X136.983 Y132.478
G1 X137.079 Y132.611
G1 X137.165 Y132.750
G1 X137.242 Y132.894
G1 X137.310 Y133.043
G1 X137.367 Y133.196
G1 X137.415 Y133.353
G1 X137.452 Y133.512
G1 X137.479 Y133.674
G1 X137.495 Y133.836
G1 X137.500 Y134.000
M5
M5
G0 X79.000 Y104.000
M4 S1000
G1 X78.991 Y104.262
G1 X78.966 Y104.522
G1 X78.923 Y104.780
G1 X78.864 Y105.035
G1 X78.788 Y105.286
G1 X78.696 Y105.531
G1 X78.587 Y105.769
G1 X78.464 Y106.000
G1 X78.326 Y106.222
G1 X78.173 Y106.435
G1 X78.007 Y106.637
G1 X77.828 Y106.828
G1 X77.637 Y107.007
G1 X77.435 Y107.173
G1 X77.222 Y107.326
G1 X77.000 Y107.464
G1 X76.769 Y107.587
G1 X76.531 Y107.696
G1 X76.286 Y107.788
G1 X76.035 Y107.864
G1 X75.780 Y107.923
G1 X75.522 Y107.966
G1 X75.262 Y107.991
G1 X75.000 Y108.000
G1 X74.738 Y107.991
G1 X74.478 Y107.966
G1 X74.220 Y107.923
G1 X73.965 Y107.864
G1 X73.714 Y107.788
G1 X73.469 Y107.696
G1 X73.231 Y107.587
G1 X73.000 Y107.464
G1 X72.778 Y107.326
G1 X72.565 Y107.173
G1 X72.363 Y107.007
G1 X72.172 Y106.828
G1 X71.993 Y106.637
G1 X71.827 Y106.435
G1 X71.674 Y106.222
G1 X71.536 Y106.000
G1 X71.413 Y105.769
G1 X71.304 Y105.531
G1 X71.212 Y105.286
G1 X71.136 Y105.035
G1 X71.077 Y104.780
G1 X71.034 Y104.522
G1 X71.009 Y104.262
G1 X71.000 Y104.000
G1 X71.009 Y103.738
G1 X71.034 Y103.478
G1 X71.077 Y103.220
G1 X71.136 Y102.965
G1 X71.212 Y102.714
G1 X71.304 Y102.469
G1 X71.413 Y102.231
G1 X71.536 Y102.000
G1 X71.674 Y101.778
G1 X71.827 Y101.565
G1 X71.993 Y101.363
G1 X72.172 Y101.172
G1 X72.363 Y100.993
G1 X72.565 Y100.827
G1 X72.778 Y100.674
G1 X73.000 Y100.536
G1 X73.231 Y100.413
G1 X73.469 Y100.304
G1 X73.714 Y100.212
G1 X73.965 Y100.136
G1 X74.220 Y100.077
G1 X74.478 Y100.034
G1 X74.738 Y100.009
G1 X75.000 Y100.000
G1 X75.262 Y100.009
G1 X75.522 Y100.034
G1 X75.780 Y100.077
G1 X76.035 Y100.136
G1 X76.286 Y100.212
G1 X76.531 Y100.304
G1 X76.769 Y100.413
G1 X77.000 Y100.536
G1 X77.222 Y100.674
G1 X77.435 Y100.827
G1 X77.637 Y100.993
G1 X77.828 Y101.172
G1 X78.007 Y101.363
G1 X78.173 Y101.565
G1 X78.326 Y101.778
G1 X78.464 Y102.000
G1 X78.587 Y102.231
G1 X78.696 Y102.469
G1 X78.788 Y102.714
G1 X78.864 Y102.965
G1 X78.923 Y103.220
G1 X78.966 Y103.478
G1 X78.991 Y103.738
G1 X79.000 Y104.000
M5
M5
G0 X159.000 Y104.000
M4 S1000
G1 X158.991 Y104.262
G1 X158.966 Y104.522
G1 X158.923 Y104.780
G1 X158.864 Y105.035
G1 X158.788 Y105.286
G1 X158.696 Y105.531
G1 X158.587 Y105.769
G1 X158.464 Y106.000
G1 X158.326 Y106.222
G1 X158.173 Y106.435
G1 X158.007 Y106.637
G1 X157.828 Y106.828
G1 X157.637 Y107.007
G1 X157.435 Y107.173
G1 X157.222 Y107.326
G1 X157.000 Y107.464
G1 X156.769 Y107.587
G1 X156.531 Y107.696
G1 X156.286 Y107.788
G1 X156.035 Y107.864
G1 X155.780 Y107.923
G1 X155.522 Y107.966
G1 X155.262 Y107.991
G1 X155.000 Y108.000
G1 X154.738 Y107.991
G1 X154.478 Y107.966
G1 X154.220 Y107.923
G1 X153.965 Y107.864
G1 X153.714 Y107.788
G1 X153.469 Y107.696
G1 X153.231 Y107.587
G1 X153.000 Y107.464
G1 X152.778 Y107.326
G1 X152.565 Y107.173
G1 X152.363 Y107.007
G1 X152.172 Y106.828
G1 X151.993 Y106.637
G1 X151.827 Y106.435
G1 X151.674 Y106.222
G1 X151.536 Y106.000
G1 X151.413 Y105.769
G1 X151.304 Y105.531
G1 X151.212 Y105.286
G1 X151.136 Y105.035
G1 X151.077 Y104.780
G1 X151.034 Y104.522
G1 X151.009 Y104.262
G1 X151.000 Y104.000
G1 X151.009 Y103.738
G1 X151.034 Y103.478
G1 X151.077 Y103.220
G1 X151.136 Y102.965
G1 X151.212 Y102.714
G1 X151.304 Y102.469
G1 X151.413 Y102.231
G1 X151.536 Y102.000
G1 X151.674 Y101.778
G1 X151.827 Y101.565
G1 X151.993 Y101.363
G1 X152.172 Y101.172
G1 X152.363 Y100.993
G1 X152.565 Y100.827
G1 X152.778 Y100.674
G1 X153.000 Y100.536
G1 X153.231 Y100.413
G1 X153.469 Y100.304
G1 X153.714 Y100.212
G1 X153.965 Y100.136
G1 X154.220 Y100.077
G1 X154.478 Y100.034
G1 X154.738 Y100.009
G1 X155.000 Y100.000
G1 X155.262 Y100.009
G1 X155.522 Y100.034
G1 X155.780 Y100.077
G1 X156.035 Y100.136
G1 X156.286 Y100.212
G1 X156.531 Y100.304
G1 X156.769 Y100.413
G1 X157.000 Y100.536
G1 X157.222 Y100.674
G1 X157.435 Y100.827
G1 X157.637 Y100.993
G1 X157.828 Y101.172
G1 X158.007 Y101.363
G1 X158.173 Y101.565
G1 X158.326 Y101.778
G1 X158.464 Y102.000
G1 X158.587 Y102.231
G1 X158.696 Y102.469
G1 X158.788 Y102.714
G1 X158.864 Y102.965
G1 X158.923 Y103.220
G1 X158.966 Y103.478
G1 X158.991 Y103.738
G1 X159.000 Y104.000
M5
M5
G0 X66.500 Y94.000
M4 S1000
G1 X66.497 Y94.098
G1 X66.487 Y94.196
G1 X66.471 Y94.293
G1 X66.449 Y94.388
G1 X66.420 Y94.482
G1 X66.386 Y94.574
G1 X66.345 Y94.663
G1 X66.299 Y94.750
G1 X66.247 Y94.833
G1 X66.190 Y94.913
G1 X66.128 Y94.989
G1 X66.061 Y95.061
G1 X65.989 Y95.128
G1 X65.913 Y95.190
G1 X65.833 Y95.247
G1 X65.750 Y95.299
G1 X65.663 Y95.345
G1 X65.574 Y95.386
G1 X65.482 Y95.420
G1 X65.388 Y95.449
G1 X65.293 Y95.471
G1 X65.196 Y95.487
G1 X65.098 Y95.497
G1 X65.000 Y95.500
G1 X64.902 Y95.497
G1 X64.804 Y95.487
G1 X64.707 Y95.471
G1 X64.612 Y95.449
G1 X64.518 Y95.420
G1 X64.426 Y95.386
G1 X64.337 Y95.345
G1 X64.250 Y95.299
G1 X64.167 Y95.247
G1 X64.087 Y95.190
G1 X64.011 Y95.128
G1 X63.939 Y95.061
G1 X63.872 Y94.989
G1 X63.810 Y94.913
G1 X63.753 Y94.833
G1 X63.701 Y94.750
G1 X63.655 Y94.663
G1 X63.614 Y94.574
G1 X63.580 Y94.482
G1 X63.551 Y94.388
G1 X63.529 Y94.293
G1 X63.513 Y94.196
G1 X63.503 Y94.098
G1 X63.500 Y94.000
G1 X63.503 Y93.902
G1 X63.513 Y93.804
G1 X63.529 Y93.707
G1 X63.551 Y93.612
G1 X63.580 Y93.518
G1 X63.614 Y93.426
G1 X63.655 Y93.337
G1 X63.701 Y93.250
G1 X63.753 Y93.167
G1 X63.810 Y93.087
G1 X63.872 Y93.011
G1 X63.939 Y92.939
G1 X64.011 Y92.872
G1 X64.087 Y92.810
G1 X64.167 Y92.753
G1 X64.250 Y92.701
G1 X64.337 Y92.655
G1 X64.426 Y92.614
G1 X64.518 Y92.580
G1 X64.612 Y92.551
G1 X64.707 Y92.529
G1 X64.804 Y92.513
G1 X64.902 Y92.503
G1 X65.000 Y92.500
G1 X65.098 Y92.503
G1 X65.196 Y92.513
G1 X65.293 Y92.529
G1 X65.388 Y92.551
G1 X65.482 Y92.580
G1 X65.574 Y92.614
G1 X65.663 Y92.655
G1 X65.750 Y92.701
G1 X65.833 Y92.753
G1 X65.913 Y92.810
G1 X65.989 Y92.872
G1 X66.061 Y92.939
G1 X66.128 Y93.011
G1 X66.190 Y93.087
G1 X66.247 Y93.167
G1 X66.299 Y93.250
G1 X66.345 Y93.337
G1 X66.386 Y93.426
G1 X66.420 Y93.518
G1 X66.449 Y93.612
G1 X66.471 Y93.707
G1 X66.487 Y93.804
G1 X66.497 Y93.902
G1 X66.500 Y94.000
M5
M5
G0 X166.500 Y94.000
M4 S1000
G1 X166.497 Y94.098
G1 X166.487 Y94.196
G1 X166.471 Y94.293
G1 X166.449 Y94.388
G1 X166.420 Y94.482
G1 X166.386 Y94.574
G1 X166.345 Y94.663
G1 X166.299 Y94.750
G1 X166.247 Y94.833
G1 X166.190 Y94.913
G1 X166.128 Y94.989
G1 X166.061 Y95.061
G1 X165.989 Y95.128
G1 X165.913 Y95.190
G1 X165.833 Y95.247
G1 X165.750 Y95.299
G1 X165.663 Y95.345
G1 X165.574 Y95.386
G1 X165.482 Y95.420
G1 X165.388 Y95.449
G1 X165.293 Y95.471
G1 X165.196 Y95.487
G1 X165.098 Y95.497
G1 X165.000 Y95.500
G1 X164.902 Y95.497
G1 X164.804 Y95.487
G1 X164.707 Y95.471
G1 X164.612 Y95.449
G1 X164.518 Y95.420
G1 X164.426 Y95.386
G1 X164.337 Y95.345
G1 X164.250 Y95.299
G1 X164.167 Y95.247
G1 X164.087 Y95.190
G1 X164.011 Y95.128
G1 X163.939 Y95.061
G1 X163.872 Y94.989
G1 X163.810 Y94.913
G1 X163.753 Y94.833
G1 X163.701 Y94.750
G1 X163.655 Y94.663
G1 X163.614 Y94.574
G1 X163.580 Y94.482
G1 X163.551 Y94.388
G1 X163.529 Y94.293
G1 X163.513 Y94.196
G1 X163.503 Y94.098
G1 X163.500 Y94.000
G1 X163.503 Y93.902
G1 X163.513 Y93.804
G1 X163.529 Y93.707
G1 X163.551 Y93.612
G1 X163.580 Y93.518
G1 X163.614 Y93.426
G1 X163.655 Y93.337
G1 X163.701 Y93.250
G1 X163.753 Y93.167
G1 X163.810 Y93.087
G1 X163.872 Y93.011
G1 X163.939 Y92.939
G1 X164.011 Y92.872
G1 X164.087 Y92.810
G1 X164.167 Y92.753
G1 X164.250 Y92.701
G1 X164.337 Y92.655
G1 X164.426 Y92.614
G1 X164.518 Y92.580
G1 X164.612 Y92.551
G1 X164.707 Y92.529
G1 X164.804 Y92.513
G1 X164.902 Y92.503
G1 X165.000 Y92.500
G1 X165.098 Y92.503
G1 X165.196 Y92.513
G1 X165.293 Y92.529
G1 X165.388 Y92.551
G1 X165.482 Y92.580
G1 X165.574 Y92.614
G1 X165.663 Y92.655
G1 X165.750 Y92.701
G1 X165.833 Y92.753
G1 X165.913 Y92.810
G1 X165.989 Y92.872
G1 X166.061 Y92.939
G1 X166.128 Y93.011
G1 X166.190 Y93.087
G1 X166.247 Y93.167
G1 X166.299 Y93.250
G1 X166.345 Y93.337
G1 X166.386 Y93.426
G1 X166.420 Y93.518
G1 X166.449 Y93.612
G1 X166.471 Y93.707
G1 X166.487 Y93.804
G1 X166.497 Y93.902
G1 X166.500 Y94.000
M5
M5
G0 X66.500 Y174.000
M4 S1000
G1 X66.497 Y174.098
G1 X66.487 Y174.196
G1 X66.471 Y174.293
G1 X66.449 Y174.388
G1 X66.420 Y174.482
G1 X66.386 Y174.574
G1 X66.345 Y174.663
G1 X66.299 Y174.750
G1 X66.247 Y174.833
G1 X66.190 Y174.913
G1 X66.128 Y174.989
G1 X66.061 Y175.061
G1 X65.989 Y175.128
G1 X65.913 Y175.190
G1 X65.833 Y175.247
G1 X65.750 Y175.299
G1 X65.663 Y175.345
G1 X65.574 Y175.386
G1 X65.482 Y175.420
G1 X65.388 Y175.449
G1 X65.293 Y175.471
G1 X65.196 Y175.487
G1 X65.098 Y175.497
G1 X65.000 Y175.500
G1 X64.902 Y175.497
G1 X64.804 Y175.487
G1 X64.707 Y175.471
G1 X64.612 Y175.449
G1 X64.518 Y175.420
G1 X64.426 Y175.386
G1 X64.337 Y175.345
G1 X64.250 Y175.299
G1 X64.167 Y175.247
G1 X64.087 Y175.190
G1 X64.011 Y175.128
G1 X63.939 Y175.061
G1 X63.872 Y174.989
G1 X63.810 Y174.913
G1 X63.753 Y174.833
G1 X63.701 Y174.750
G1 X63.655 Y174.663
G1 X63.614 Y174.574
G1 X63.580 Y174.482
G1 X63.551 Y174.388
G1 X63.529 Y174.293
G1 X63.513 Y174.196
G1 X63.503 Y174.098
G1 X63.500 Y174.000
G1 X63.503 Y173.902
G1 X63.513 Y173.804
G1 X63.529 Y173.707
G1 X63.551 Y173.612
G1 X63.580 Y173.518
G1 X63.614 Y173.426
G1 X63.655 Y173.337
G1 X63.701 Y173.250
G1 X63.753 Y173.167
G1 X63.810 Y173.087
G1 X63.872 Y173.011
G1 X63.939 Y172.939
G1 X64.011 Y172.872
G1 X64.087 Y172.810
G1 X64.167 Y172.753
G1 X64.250 Y172.701
G1 X64.337 Y172.655
G1 X64.426 Y172.614
G1 X64.518 Y172.580
G1 X64.612 Y172.551
G1 X64.707 Y172.529
G1 X64.804 Y172.513
G1 X64.902 Y172.503
G1 X65.000 Y172.500
G1 X65.098 Y172.503
G1 X65.196 Y172.513
G1 X65.293 Y172.529
G1 X65.388 Y172.551
G1 X65.482 Y172.580
G1 X65.574 Y172.614
G1 X65.663 Y172.655
G1 X65.750 Y172.701
G1 X65.833 Y172.753
G1 X65.913 Y172.810
G1 X65.989 Y172.872
G1 X66.061 Y172.939
G1 X66.128 Y173.011
G1 X66.190 Y173.087
G1 X66.247 Y173.167
G1 X66.299 Y173.250
G1 X66.345 Y173.337
G1 X66.386 Y173.426
G1 X66.420 Y173.518
G1 X66.449 Y173.612
G1 X66.471 Y173.707
G1 X66.487 Y173.804
G1 X66.497 Y173.902
G1 X66.500 Y174.000
M5
M5
G0 X166.500 Y174.000
M4 S1000
G1 X166.497 Y174.098
G1 X166.487 Y174.196
G1 X166.471 Y174.293
G1 X166.449 Y174.388
G1 X166.420 Y174.482
G1 X166.386 Y174.574
G1 X166.345 Y174.663
G1 X166.299 Y174.750
G1 X166.247 Y174.833
G1 X166.190 Y174.913
G1 X166.128 Y174.989
G1 X166.061 Y175.061
G1 X165.989 Y175.128
G1 X165.913 Y175.190
G1 X165.833 Y175.247
G1 X165.750 Y175.299
G1 X165.663 Y175.345
G1 X165.574 Y175.386
G1 X165.482 Y175.420
G1 X165.388 Y175.449
G1 X165.293 Y175.471
G1 X165.196 Y175.487
G1 X165.098 Y175.497
G1 X165.000 Y175.500
G1 X164.902 Y175.497
G1 X164.804 Y175.487
G1 X164.707 Y175.471
G1 X164.612 Y175.449
G1 X164.518 Y175.420
G1 X164.426 Y175.386
G1 X164.337 Y175.345
G1 X164.250 Y175.299
G1 X164.167 Y175.247
G1 X164.087 Y175.190
G1 X164.011 Y175.128
G1 X163.939 Y175.061
G1 X163.872 Y174.989
G1 X163.810 Y174.913
G1 X163.753 Y174.833
G1 X163.701 Y174.750
G1 X163.655 Y174.663
G1 X163.614 Y174.574
G1 X163.580 Y174.482
G1 X163.551 Y174.388
G1 X163.529 Y174.293
G1 X163.513 Y174.196
G1 X163.503 Y174.098
G1 X163.500 Y174.000
G1 X163.503 Y173.902
G1 X163.513 Y173.804
G1 X163.529 Y173.707
G1 X163.551 Y173.612
G1 X163.580 Y173.518
G1 X163.614 Y173.426
G1 X163.655 Y173.337
G1 X163.701 Y173.250
G1 X163.753 Y173.167
G1 X163.810 Y173.087
G1 X163.872 Y173.011
G1 X163.939 Y172.939
G1 X164.011 Y172.872
G1 X164.087 Y172.810
G1 X164.167 Y172.753
G1 X164.250 Y172.701
G1 X164.337 Y172.655
G1 X164.426 Y172.614
G1 X164.518 Y172.580
G1 X164.612 Y172.551
G1 X164.707 Y172.529
G1 X164.804 Y172.513
G1 X164.902 Y172.503
G1 X165.000 Y172.500
G1 X165.098 Y172.503
G1 X165.196 Y172.513
G1 X165.293 Y172.529
G1 X165.388 Y172.551
G1 X165.482 Y172.580
G1 X165.574 Y172.614
G1 X165.663 Y172.655
G1 X165.750 Y172.701
G1 X165.833 Y172.753
G1 X165.913 Y172.810
G1 X165.989 Y172.872
G1 X166.061 Y172.939
G1 X166.128 Y173.011
G1 X166.190 Y173.087
G1 X166.247 Y173.167
G1 X166.299 Y173.250
G1 X166.345 Y173.337
G1 X166.386 Y173.426
G1 X166.420 Y173.518
G1 X166.449 Y173.612
G1 X166.471 Y173.707
G1 X166.487 Y173.804
G1 X166.497 Y173.902
G1 X166.500 Y174.000
M5
M5
G0 X0.000 Y0.000
M5
; end
