; vibe-cutting deterministic GRBL artifact
G21
G90
M5
; vector_engrave
; material=basswood_3mm thickness_mm=3.0
; passes=1 speed_mm_per_min=5000 power_percent=30 air_assist=low
; pass 1 of 1
F5000
M5
G0 X41.674 Y19.520
M4 S300
G1 X42.478 Y19.520
M5
M5
G0 X43.427 Y19.520
M4 S300
G1 X43.979 Y19.520
M5
M5
G0 X44.314 Y19.520
M4 S300
G1 X44.787 Y19.520
M5
M5
G0 X45.319 Y19.520
M4 S300
G1 X46.092 Y19.520
M5
M5
G0 X47.852 Y19.520
M4 S300
G1 X48.664 Y19.520
M5
M5
G0 X49.232 Y19.520
M4 S300
G1 X49.693 Y19.520
M5
M5
G0 X50.375 Y19.520
M4 S300
G1 X50.864 Y19.520
M5
M5
G0 X52.228 Y19.520
M4 S300
G1 X52.719 Y19.520
M5
M5
G0 X53.928 Y19.520
M4 S300
G1 X54.730 Y19.520
M5
M5
G0 X55.272 Y19.520
M4 S300
G1 X55.739 Y19.520
M5
M5
G0 X56.761 Y19.520
M4 S300
G1 X57.564 Y19.520
M5
M5
G0 X58.514 Y19.520
M4 S300
G1 X59.065 Y19.520
M5
M5
G0 X59.427 Y19.520
M4 S300
G1 X59.916 Y19.520
M5
M5
G0 X61.280 Y19.520
M4 S300
G1 X61.771 Y19.520
M5
M5
G0 X63.128 Y19.520
M4 S300
G1 X63.971 Y19.520
M5
M5
G0 X65.884 Y19.520
M4 S300
G1 X66.827 Y19.520
M5
M5
G0 X68.297 Y19.520
M4 S300
G1 X68.826 Y19.520
M5
M5
G0 X41.391 Y19.700
M4 S300
G1 X42.806 Y19.700
M5
M5
G0 X43.208 Y19.700
M4 S300
G1 X44.028 Y19.700
M5
M5
G0 X44.325 Y19.700
M4 S300
G1 X44.801 Y19.700
M5
M5
G0 X45.016 Y19.700
M4 S300
G1 X46.406 Y19.700
M5
M5
G0 X47.558 Y19.700
M4 S300
G1 X48.964 Y19.700
M5
M5
G0 X49.222 Y19.700
M4 S300
G1 X49.682 Y19.700
M5
M5
G0 X50.375 Y19.700
M4 S300
G1 X50.864 Y19.700
M5
M5
G0 X52.228 Y19.700
M4 S300
G1 X52.719 Y19.700
M5
M5
G0 X53.622 Y19.700
M4 S300
G1 X55.033 Y19.700
M5
M5
G0 X55.256 Y19.700
M4 S300
G1 X55.728 Y19.700
M5
M5
G0 X56.478 Y19.700
M4 S300
G1 X57.893 Y19.700
M5
M5
G0 X58.295 Y19.700
M4 S300
G1 X59.114 Y19.700
M5
M5
G0 X59.427 Y19.700
M4 S300
G1 X59.916 Y19.700
M5
M5
G0 X61.280 Y19.700
M4 S300
G1 X61.771 Y19.700
M5
M5
G0 X62.777 Y19.700
M4 S300
G1 X64.313 Y19.700
M5
M5
G0 X65.513 Y19.700
M4 S300
G1 X67.202 Y19.700
M5
M5
G0 X68.297 Y19.700
M4 S300
G1 X68.826 Y19.700
M5
M5
G0 X41.269 Y19.880
M4 S300
G1 X41.913 Y19.880
M5
M5
G0 X42.500 Y19.880
M4 S300
G1 X42.973 Y19.880
M5
M5
G0 X43.142 Y19.880
M4 S300
G1 X43.684 Y19.880
M5
M5
G0 X44.329 Y19.880
M4 S300
G1 X44.811 Y19.880
M5
M5
G0 X44.870 Y19.880
M4 S300
G1 X45.270 Y19.880
M5
M5
G0 X45.898 Y19.880
M4 S300
G1 X46.556 Y19.880
M5
M5
G0 X47.441 Y19.880
M4 S300
G1 X48.126 Y19.880
M5
M5
G0 X48.699 Y19.880
M4 S300
G1 X49.118 Y19.880
M5
M5
G0 X49.215 Y19.880
M4 S300
G1 X49.679 Y19.880
M5
M5
G0 X50.375 Y19.880
M4 S300
G1 X50.864 Y19.880
M5
M5
G0 X52.228 Y19.880
M4 S300
G1 X52.719 Y19.880
M5
M5
G0 X53.475 Y19.880
M4 S300
G1 X54.187 Y19.880
M5
M5
G0 X54.726 Y19.880
M4 S300
G1 X55.176 Y19.880
M5
M5
G0 X55.247 Y19.880
M4 S300
G1 X55.724 Y19.880
M5
M5
G0 X56.355 Y19.880
M4 S300
G1 X57.000 Y19.880
M5
M5
G0 X57.587 Y19.880
M4 S300
G1 X58.059 Y19.880
M5
M5
G0 X58.229 Y19.880
M4 S300
G1 X58.771 Y19.880
M5
M5
G0 X59.427 Y19.880
M4 S300
G1 X59.916 Y19.880
M5
M5
G0 X61.280 Y19.880
M4 S300
G1 X61.771 Y19.880
M5
M5
G0 X62.597 Y19.880
M4 S300
G1 X63.314 Y19.880
M5
M5
G0 X63.780 Y19.880
M4 S300
G1 X64.490 Y19.880
M5
M5
G0 X65.324 Y19.880
M4 S300
G1 X66.024 Y19.880
M5
M5
G0 X66.696 Y19.880
M4 S300
G1 X67.380 Y19.880
M5
M5
G0 X68.297 Y19.880
M4 S300
G1 X68.826 Y19.880
M5
M5
G0 X41.205 Y20.060
M4 S300
G1 X41.732 Y20.060
M5
M5
G0 X42.802 Y20.060
M4 S300
G1 X43.091 Y20.060
M5
M5
G0 X43.118 Y20.060
M4 S300
G1 X43.609 Y20.060
M5
M5
G0 X44.330 Y20.060
M4 S300
G1 X45.031 Y20.060
M5
M5
G0 X46.111 Y20.060
M4 S300
G1 X46.652 Y20.060
M5
M5
G0 X47.380 Y20.060
M4 S300
G1 X47.917 Y20.060
M5
M5
G0 X48.968 Y20.060
M4 S300
G1 X49.678 Y20.060
M5
M5
G0 X50.375 Y20.060
M4 S300
G1 X50.864 Y20.060
M5
M5
G0 X52.228 Y20.060
M4 S300
G1 X52.719 Y20.060
M5
M5
G0 X53.383 Y20.060
M4 S300
G1 X53.947 Y20.060
M5
M5
G0 X54.998 Y20.060
M4 S300
G1 X55.723 Y20.060
M5
M5
G0 X56.292 Y20.060
M4 S300
G1 X56.819 Y20.060
M5
M5
G0 X57.888 Y20.060
M4 S300
G1 X58.177 Y20.060
M5
M5
G0 X58.204 Y20.060
M4 S300
G1 X58.695 Y20.060
M5
M5
G0 X59.427 Y20.060
M4 S300
G1 X59.916 Y20.060
M5
M5
G0 X61.280 Y20.060
M4 S300
G1 X61.771 Y20.060
M5
M5
G0 X62.483 Y20.060
M4 S300
G1 X63.041 Y20.060
M5
M5
G0 X64.054 Y20.060
M4 S300
G1 X64.598 Y20.060
M5
M5
G0 X65.205 Y20.060
M4 S300
G1 X65.765 Y20.060
M5
M5
G0 X66.975 Y20.060
M4 S300
G1 X67.491 Y20.060
M5
M5
G0 X68.297 Y20.060
M4 S300
G1 X68.826 Y20.060
M5
M5
G0 X41.178 Y20.240
M4 S300
G1 X41.681 Y20.240
M5
M5
G0 X42.953 Y20.240
M4 S300
G1 X43.594 Y20.240
M5
M5
G0 X44.330 Y20.240
M4 S300
G1 X44.929 Y20.240
M5
M5
G0 X46.202 Y20.240
M4 S300
G1 X46.722 Y20.240
M5
M5
G0 X47.348 Y20.240
M4 S300
G1 X47.854 Y20.240
M5
M5
G0 X49.089 Y20.240
M4 S300
G1 X49.677 Y20.240
M5
M5
G0 X50.375 Y20.240
M4 S300
G1 X50.864 Y20.240
M5
M5
G0 X52.228 Y20.240
M4 S300
G1 X52.719 Y20.240
M5
M5
G0 X53.323 Y20.240
M4 S300
G1 X53.853 Y20.240
M5
M5
G0 X55.108 Y20.240
M4 S300
G1 X55.723 Y20.240
M5
M5
G0 X56.265 Y20.240
M4 S300
G1 X56.768 Y20.240
M5
M5
G0 X58.039 Y20.240
M4 S300
G1 X58.681 Y20.240
M5
M5
G0 X59.427 Y20.240
M4 S300
G1 X59.916 Y20.240
M5
M5
G0 X61.280 Y20.240
M4 S300
G1 X61.771 Y20.240
M5
M5
G0 X62.405 Y20.240
M4 S300
G1 X62.930 Y20.240
M5
M5
G0 X64.153 Y20.240
M4 S300
G1 X64.661 Y20.240
M5
M5
G0 X65.123 Y20.240
M4 S300
G1 X65.646 Y20.240
M5
M5
G0 X67.093 Y20.240
M4 S300
G1 X67.236 Y20.240
M5
M5
G0 X41.179 Y20.420
M4 S300
G1 X41.681 Y20.420
M5
M5
G0 X43.044 Y20.420
M4 S300
G1 X43.594 Y20.420
M5
M5
G0 X44.330 Y20.420
M4 S300
G1 X44.871 Y20.420
M5
M5
G0 X46.251 Y20.420
M4 S300
G1 X46.758 Y20.420
M5
M5
G0 X47.336 Y20.420
M4 S300
G1 X47.830 Y20.420
M5
M5
G0 X49.153 Y20.420
M4 S300
G1 X49.677 Y20.420
M5
M5
G0 X50.375 Y20.420
M4 S300
G1 X50.864 Y20.420
M5
M5
G0 X52.228 Y20.420
M4 S300
G1 X52.719 Y20.420
M5
M5
G0 X53.284 Y20.420
M4 S300
G1 X53.802 Y20.420
M5
M5
G0 X55.171 Y20.420
M4 S300
G1 X55.723 Y20.420
M5
M5
G0 X56.265 Y20.420
M4 S300
G1 X56.768 Y20.420
M5
M5
G0 X58.130 Y20.420
M4 S300
G1 X58.680 Y20.420
M5
M5
G0 X59.427 Y20.420
M4 S300
G1 X59.916 Y20.420
M5
M5
G0 X61.280 Y20.420
M4 S300
G1 X61.771 Y20.420
M5
M5
G0 X62.353 Y20.420
M4 S300
G1 X62.867 Y20.420
M5
M5
G0 X64.197 Y20.420
M4 S300
G1 X64.203 Y20.420
M5
M5
G0 X65.070 Y20.420
M4 S300
G1 X65.578 Y20.420
M5
M5
G0 X41.205 Y20.600
M4 S300
G1 X41.726 Y20.600
M5
M5
G0 X43.091 Y20.600
M4 S300
G1 X43.594 Y20.600
M5
M5
G0 X44.330 Y20.600
M4 S300
G1 X44.839 Y20.600
M5
M5
G0 X46.279 Y20.600
M4 S300
G1 X46.791 Y20.600
M5
M5
G0 X47.334 Y20.600
M4 S300
G1 X47.825 Y20.600
M5
M5
G0 X49.182 Y20.600
M4 S300
G1 X49.677 Y20.600
M5
M5
G0 X50.375 Y20.600
M4 S300
G1 X50.864 Y20.600
M5
M5
G0 X52.228 Y20.600
M4 S300
G1 X52.719 Y20.600
M5
M5
G0 X53.259 Y20.600
M4 S300
G1 X53.774 Y20.600
M5
M5
G0 X55.206 Y20.600
M4 S300
G1 X55.723 Y20.600
M5
M5
G0 X56.292 Y20.600
M4 S300
G1 X56.813 Y20.600
M5
M5
G0 X58.178 Y20.600
M4 S300
G1 X58.680 Y20.600
M5
M5
G0 X59.427 Y20.600
M4 S300
G1 X59.916 Y20.600
M5
M5
G0 X61.280 Y20.600
M4 S300
G1 X61.771 Y20.600
M5
M5
G0 X62.321 Y20.600
M4 S300
G1 X62.832 Y20.600
M5
M5
G0 X65.035 Y20.600
M4 S300
G1 X65.540 Y20.600
M5
M5
G0 X41.270 Y20.780
M4 S300
G1 X41.863 Y20.780
M5
M5
G0 X43.100 Y20.780
M4 S300
G1 X43.594 Y20.780
M5
M5
G0 X44.330 Y20.780
M4 S300
G1 X44.823 Y20.780
M5
M5
G0 X46.294 Y20.780
M4 S300
G1 X46.800 Y20.780
M5
M5
G0 X47.334 Y20.780
M4 S300
G1 X47.825 Y20.780
M5
M5
G0 X49.189 Y20.780
M4 S300
G1 X49.677 Y20.780
M5
M5
G0 X50.375 Y20.780
M4 S300
G1 X50.864 Y20.780
M5
M5
G0 X52.228 Y20.780
M4 S300
G1 X52.719 Y20.780
M5
M5
G0 X53.246 Y20.780
M4 S300
G1 X53.759 Y20.780
M5
M5
G0 X55.225 Y20.780
M4 S300
G1 X55.723 Y20.780
M5
M5
G0 X56.356 Y20.780
M4 S300
G1 X56.950 Y20.780
M5
M5
G0 X58.187 Y20.780
M4 S300
G1 X58.680 Y20.780
M5
M5
G0 X59.427 Y20.780
M4 S300
G1 X59.916 Y20.780
M5
M5
G0 X61.280 Y20.780
M4 S300
G1 X61.771 Y20.780
M5
M5
G0 X62.302 Y20.780
M4 S300
G1 X62.813 Y20.780
M5
M5
G0 X65.016 Y20.780
M4 S300
G1 X65.524 Y20.780
M5
M5
G0 X41.395 Y20.960
M4 S300
G1 X42.956 Y20.960
M5
M5
G0 X43.100 Y20.960
M4 S300
G1 X43.594 Y20.960
M5
M5
G0 X44.330 Y20.960
M4 S300
G1 X44.818 Y20.960
M5
M5
G0 X46.299 Y20.960
M4 S300
G1 X46.810 Y20.960
M5
M5
G0 X47.334 Y20.960
M4 S300
G1 X47.825 Y20.960
M5
M5
G0 X49.189 Y20.960
M4 S300
G1 X49.677 Y20.960
M5
M5
G0 X50.375 Y20.960
M4 S300
G1 X50.864 Y20.960
M5
M5
G0 X52.228 Y20.960
M4 S300
G1 X52.719 Y20.960
M5
M5
G0 X53.241 Y20.960
M4 S300
G1 X53.754 Y20.960
M5
M5
G0 X55.233 Y20.960
M4 S300
G1 X55.723 Y20.960
M5
M5
G0 X56.482 Y20.960
M4 S300
G1 X58.043 Y20.960
M5
M5
G0 X58.187 Y20.960
M4 S300
G1 X58.680 Y20.960
M5
M5
G0 X59.427 Y20.960
M4 S300
G1 X59.916 Y20.960
M5
M5
G0 X61.280 Y20.960
M4 S300
G1 X61.771 Y20.960
M5
M5
G0 X62.296 Y20.960
M4 S300
G1 X62.806 Y20.960
M5
M5
G0 X65.010 Y20.960
M4 S300
G1 X67.614 Y20.960
M5
M5
G0 X41.648 Y21.140
M4 S300
G1 X43.594 Y21.140
M5
M5
G0 X44.330 Y21.140
M4 S300
G1 X44.824 Y21.140
M5
M5
G0 X46.296 Y21.140
M4 S300
G1 X46.808 Y21.140
M5
M5
G0 X47.334 Y21.140
M4 S300
G1 X47.825 Y21.140
M5
M5
G0 X49.189 Y21.140
M4 S300
G1 X49.677 Y21.140
M5
M5
G0 X50.375 Y21.140
M4 S300
G1 X50.864 Y21.140
M5
M5
G0 X52.228 Y21.140
M4 S300
G1 X52.719 Y21.140
M5
M5
G0 X53.250 Y21.140
M4 S300
G1 X53.757 Y21.140
M5
M5
G0 X55.232 Y21.140
M4 S300
G1 X55.723 Y21.140
M5
M5
G0 X56.734 Y21.140
M4 S300
G1 X58.680 Y21.140
M5
M5
G0 X59.427 Y21.140
M4 S300
G1 X59.916 Y21.140
M5
M5
G0 X61.280 Y21.140
M4 S300
G1 X61.771 Y21.140
M5
M5
G0 X62.301 Y21.140
M4 S300
G1 X62.808 Y21.140
M5
M5
G0 X65.013 Y21.140
M4 S300
G1 X67.602 Y21.140
M5
M5
G0 X43.100 Y21.320
M4 S300
G1 X43.594 Y21.320
M5
M5
G0 X44.330 Y21.320
M4 S300
G1 X44.840 Y21.320
M5
M5
G0 X46.284 Y21.320
M4 S300
G1 X46.797 Y21.320
M5
M5
G0 X47.334 Y21.320
M4 S300
G1 X47.825 Y21.320
M5
M5
G0 X49.189 Y21.320
M4 S300
G1 X49.677 Y21.320
M5
M5
G0 X50.375 Y21.320
M4 S300
G1 X50.867 Y21.320
M5
M5
G0 X52.228 Y21.320
M4 S300
G1 X52.719 Y21.320
M5
M5
G0 X53.260 Y21.320
M4 S300
G1 X53.768 Y21.320
M5
M5
G0 X55.220 Y21.320
M4 S300
G1 X55.723 Y21.320
M5
M5
G0 X58.187 Y21.320
M4 S300
G1 X58.680 Y21.320
M5
M5
G0 X59.427 Y21.320
M4 S300
G1 X59.919 Y21.320
M5
M5
G0 X61.280 Y21.320
M4 S300
G1 X61.771 Y21.320
M5
M5
G0 X62.316 Y21.320
M4 S300
G1 X62.820 Y21.320
M5
M5
G0 X65.028 Y21.320
M4 S300
G1 X65.531 Y21.320
M5
M5
G0 X67.103 Y21.320
M4 S300
G1 X67.591 Y21.320
M5
M5
G0 X43.099 Y21.500
M4 S300
G1 X43.594 Y21.500
M5
M5
G0 X44.330 Y21.500
M4 S300
G1 X44.871 Y21.500
M5
M5
G0 X46.259 Y21.500
M4 S300
G1 X46.775 Y21.500
M5
M5
G0 X47.334 Y21.500
M4 S300
G1 X47.825 Y21.500
M5
M5
G0 X49.189 Y21.500
M4 S300
G1 X49.677 Y21.500
M5
M5
G0 X50.375 Y21.500
M4 S300
G1 X50.891 Y21.500
M5
M5
G0 X52.225 Y21.500
M4 S300
G1 X52.718 Y21.500
M5
M5
G0 X53.287 Y21.500
M4 S300
G1 X53.793 Y21.500
M5
M5
G0 X55.191 Y21.500
M4 S300
G1 X55.723 Y21.500
M5
M5
G0 X58.186 Y21.500
M4 S300
G1 X58.680 Y21.500
M5
M5
G0 X59.427 Y21.500
M4 S300
G1 X59.943 Y21.500
M5
M5
G0 X61.277 Y21.500
M4 S300
G1 X61.770 Y21.500
M5
M5
G0 X62.345 Y21.500
M4 S300
G1 X62.847 Y21.500
M5
M5
G0 X65.058 Y21.500
M4 S300
G1 X65.557 Y21.500
M5
M5
G0 X67.074 Y21.500
M4 S300
G1 X67.556 Y21.500
M5
M5
G0 X41.653 Y21.680
M4 S300
G1 X41.817 Y21.680
M5
M5
G0 X43.083 Y21.680
M4 S300
G1 X43.584 Y21.680
M5
M5
G0 X44.330 Y21.680
M4 S300
G1 X44.924 Y21.680
M5
M5
G0 X46.216 Y21.680
M4 S300
G1 X46.740 Y21.680
M5
M5
G0 X47.334 Y21.680
M4 S300
G1 X47.825 Y21.680
M5
M5
G0 X49.189 Y21.680
M4 S300
G1 X49.677 Y21.680
M5
M5
G0 X50.375 Y21.680
M4 S300
G1 X50.945 Y21.680
M5
M5
G0 X52.207 Y21.680
M4 S300
G1 X52.709 Y21.680
M5
M5
G0 X53.321 Y21.680
M4 S300
G1 X53.835 Y21.680
M5
M5
G0 X55.143 Y21.680
M4 S300
G1 X55.723 Y21.680
M5
M5
G0 X56.740 Y21.680
M4 S300
G1 X56.903 Y21.680
M5
M5
G0 X58.169 Y21.680
M4 S300
G1 X58.670 Y21.680
M5
M5
G0 X59.427 Y21.680
M4 S300
G1 X59.997 Y21.680
M5
M5
G0 X61.259 Y21.680
M4 S300
G1 X61.761 Y21.680
M5
M5
G0 X62.391 Y21.680
M4 S300
G1 X62.892 Y21.680
M5
M5
G0 X64.153 Y21.680
M4 S300
G1 X64.662 Y21.680
M5
M5
G0 X65.107 Y21.680
M4 S300
G1 X65.612 Y21.680
M5
M5
G0 X67.021 Y21.680
M4 S300
G1 X67.516 Y21.680
M5
M5
G0 X41.343 Y21.860
M4 S300
G1 X41.867 Y21.860
M5
M5
G0 X43.028 Y21.860
M4 S300
G1 X43.549 Y21.860
M5
M5
G0 X44.330 Y21.860
M4 S300
G1 X45.019 Y21.860
M5
M5
G0 X46.137 Y21.860
M4 S300
G1 X46.686 Y21.860
M5
M5
G0 X47.334 Y21.860
M4 S300
G1 X47.825 Y21.860
M5
M5
G0 X49.189 Y21.860
M4 S300
G1 X49.677 Y21.860
M5
M5
G0 X50.375 Y21.860
M4 S300
G1 X51.049 Y21.860
M5
M5
G0 X52.157 Y21.860
M4 S300
G1 X52.683 Y21.860
M5
M5
G0 X53.384 Y21.860
M4 S300
G1 X53.912 Y21.860
M5
M5
G0 X55.054 Y21.860
M4 S300
G1 X55.723 Y21.860
M5
M5
G0 X56.430 Y21.860
M4 S300
G1 X56.953 Y21.860
M5
M5
G0 X58.115 Y21.860
M4 S300
G1 X58.636 Y21.860
M5
M5
G0 X59.427 Y21.860
M4 S300
G1 X60.100 Y21.860
M5
M5
G0 X61.209 Y21.860
M4 S300
G1 X61.735 Y21.860
M5
M5
G0 X62.460 Y21.860
M4 S300
G1 X62.977 Y21.860
M5
M5
G0 X64.076 Y21.860
M4 S300
G1 X64.607 Y21.860
M5
M5
G0 X65.179 Y21.860
M4 S300
G1 X65.715 Y21.860
M5
M5
G0 X66.929 Y21.860
M4 S300
G1 X67.439 Y21.860
M5
M5
G0 X41.421 Y22.040
M4 S300
G1 X42.024 Y22.040
M5
M5
G0 X42.868 Y22.040
M4 S300
G1 X43.476 Y22.040
M5
M5
G0 X44.330 Y22.040
M4 S300
G1 X44.810 Y22.040
M5
M5
G0 X44.851 Y22.040
M4 S300
G1 X45.221 Y22.040
M5
M5
G0 X45.959 Y22.040
M4 S300
G1 X46.604 Y22.040
M5
M5
G0 X47.334 Y22.040
M4 S300
G1 X47.825 Y22.040
M5
M5
G0 X49.189 Y22.040
M4 S300
G1 X49.677 Y22.040
M5
M5
G0 X50.374 Y22.040
M4 S300
G1 X50.840 Y22.040
M5
M5
G0 X50.906 Y22.040
M4 S300
G1 X51.256 Y22.040
M5
M5
G0 X52.014 Y22.040
M4 S300
G1 X52.630 Y22.040
M5
M5
G0 X53.466 Y22.040
M4 S300
G1 X54.077 Y22.040
M5
M5
G0 X54.868 Y22.040
M4 S300
G1 X55.209 Y22.040
M5
M5
G0 X55.239 Y22.040
M4 S300
G1 X55.723 Y22.040
M5
M5
G0 X56.507 Y22.040
M4 S300
G1 X57.110 Y22.040
M5
M5
G0 X57.954 Y22.040
M4 S300
G1 X58.563 Y22.040
M5
M5
G0 X59.426 Y22.040
M4 S300
G1 X59.891 Y22.040
M5
M5
G0 X59.957 Y22.040
M4 S300
G1 X60.308 Y22.040
M5
M5
G0 X61.066 Y22.040
M4 S300
G1 X61.682 Y22.040
M5
M5
G0 X62.567 Y22.040
M4 S300
G1 X63.174 Y22.040
M5
M5
G0 X63.894 Y22.040
M4 S300
G1 X64.514 Y22.040
M5
M5
G0 X65.291 Y22.040
M4 S300
G1 X65.912 Y22.040
M5
M5
G0 X66.738 Y22.040
M4 S300
G1 X67.339 Y22.040
M5
M5
G0 X41.560 Y22.220
M4 S300
G1 X43.343 Y22.220
M5
M5
G0 X44.330 Y22.220
M4 S300
G1 X44.816 Y22.220
M5
M5
G0 X44.978 Y22.220
M4 S300
G1 X46.476 Y22.220
M5
M5
G0 X47.334 Y22.220
M4 S300
G1 X47.825 Y22.220
M5
M5
G0 X49.189 Y22.220
M4 S300
G1 X49.677 Y22.220
M5
M5
G0 X50.372 Y22.220
M4 S300
G1 X50.833 Y22.220
M5
M5
G0 X51.044 Y22.220
M4 S300
G1 X52.530 Y22.220
M5
M5
G0 X53.592 Y22.220
M4 S300
G1 X55.079 Y22.220
M5
M5
G0 X55.236 Y22.220
M4 S300
G1 X55.723 Y22.220
M5
M5
G0 X56.646 Y22.220
M4 S300
G1 X58.430 Y22.220
M5
M5
G0 X59.424 Y22.220
M4 S300
G1 X59.885 Y22.220
M5
M5
G0 X60.096 Y22.220
M4 S300
G1 X61.582 Y22.220
M5
M5
G0 X62.723 Y22.220
M4 S300
G1 X64.359 Y22.220
M5
M5
G0 X65.454 Y22.220
M4 S300
G1 X67.188 Y22.220
M5
M5
G0 X41.857 Y22.400
M4 S300
G1 X43.073 Y22.400
M5
M5
G0 X44.330 Y22.400
M4 S300
G1 X44.818 Y22.400
M5
M5
G0 X45.215 Y22.400
M4 S300
G1 X46.231 Y22.400
M5
M5
G0 X47.334 Y22.400
M4 S300
G1 X47.825 Y22.400
M5
M5
G0 X49.189 Y22.400
M4 S300
G1 X49.677 Y22.400
M5
M5
G0 X50.364 Y22.400
M4 S300
G1 X50.825 Y22.400
M5
M5
G0 X51.283 Y22.400
M4 S300
G1 X52.308 Y22.400
M5
M5
G0 X53.848 Y22.400
M4 S300
G1 X54.839 Y22.400
M5
M5
G0 X55.235 Y22.400
M4 S300
G1 X55.723 Y22.400
M5
M5
G0 X56.943 Y22.400
M4 S300
G1 X58.159 Y22.400
M5
M5
G0 X59.416 Y22.400
M4 S300
G1 X59.876 Y22.400
M5
M5
G0 X60.335 Y22.400
M4 S300
G1 X61.359 Y22.400
M5
M5
G0 X63.008 Y22.400
M4 S300
G1 X64.083 Y22.400
M5
M5
G0 X65.752 Y22.400
M4 S300
G1 X66.883 Y22.400
M5
M5
G0 X44.330 Y22.580
M4 S300
G1 X44.818 Y22.580
M5
M5
G0 X55.235 Y22.580
M4 S300
G1 X55.723 Y22.580
M5
M5
G0 X44.330 Y22.760
M4 S300
G1 X44.818 Y22.760
M5
M5
G0 X55.235 Y22.760
M4 S300
G1 X55.723 Y22.760
M5
M5
G0 X44.330 Y22.940
M4 S300
G1 X44.818 Y22.940
M5
M5
G0 X55.235 Y22.940
M4 S300
G1 X55.723 Y22.940
M5
M5
G0 X44.330 Y23.120
M4 S300
G1 X44.818 Y23.120
M5
M5
G0 X55.235 Y23.120
M4 S300
G1 X55.723 Y23.120
M5
M5
G0 X44.330 Y23.300
M4 S300
G1 X44.818 Y23.300
M5
M5
G0 X55.235 Y23.300
M4 S300
G1 X55.723 Y23.300
M5
M5
G0 X44.330 Y23.480
M4 S300
G1 X44.818 Y23.480
M5
M5
G0 X55.235 Y23.480
M4 S300
G1 X55.723 Y23.480
M5
M5
G0 X28.356 Y25.640
M4 S300
G1 X29.725 Y25.640
M5
M5
G0 X31.077 Y25.640
M4 S300
G1 X32.542 Y25.640
M5
M5
G0 X33.669 Y25.640
M4 S300
G1 X34.158 Y25.640
M5
M5
G0 X35.522 Y25.640
M4 S300
G1 X36.013 Y25.640
M5
M5
G0 X36.875 Y25.640
M4 S300
G1 X37.804 Y25.640
M5
M5
G0 X38.326 Y25.640
M4 S300
G1 X39.599 Y25.640
M5
M5
G0 X40.119 Y25.640
M4 S300
G1 X40.898 Y25.640
M5
M5
G0 X41.198 Y25.640
M4 S300
G1 X41.686 Y25.640
M5
M5
G0 X42.417 Y25.640
M4 S300
G1 X42.905 Y25.640
M5
M5
G0 X44.269 Y25.640
M4 S300
G1 X44.760 Y25.640
M5
M5
G0 X45.591 Y25.640
M4 S300
G1 X47.241 Y25.640
M5
M5
G0 X49.654 Y25.640
M4 S300
G1 X50.142 Y25.640
M5
M5
G0 X51.507 Y25.640
M4 S300
G1 X51.998 Y25.640
M5
M5
G0 X53.115 Y25.640
M4 S300
G1 X54.621 Y25.640
M5
M5
G0 X55.453 Y25.640
M4 S300
G1 X55.975 Y25.640
M5
M5
G0 X57.394 Y25.640
M4 S300
G1 X57.934 Y25.640
M5
M5
G0 X58.589 Y25.640
M4 S300
G1 X59.519 Y25.640
M5
M5
G0 X61.573 Y25.640
M4 S300
G1 X63.223 Y25.640
M5
M5
G0 X64.573 Y25.640
M4 S300
G1 X66.078 Y25.640
M5
M5
G0 X67.278 Y25.640
M4 S300
G1 X68.551 Y25.640
M5
M5
G0 X69.071 Y25.640
M4 S300
G1 X69.850 Y25.640
M5
M5
G0 X70.320 Y25.640
M4 S300
G1 X71.970 Y25.640
M5
M5
G0 X73.301 Y25.640
M4 S300
G1 X74.766 Y25.640
M5
M5
G0 X75.893 Y25.640
M4 S300
G1 X76.382 Y25.640
M5
M5
G0 X77.746 Y25.640
M4 S300
G1 X78.237 Y25.640
M5
M5
G0 X80.175 Y25.640
M4 S300
G1 X81.825 Y25.640
M5
M5
G0 X28.142 Y25.820
M4 S300
G1 X29.934 Y25.820
M5
M5
G0 X30.859 Y25.820
M4 S300
G1 X32.766 Y25.820
M5
M5
G0 X33.669 Y25.820
M4 S300
G1 X34.158 Y25.820
M5
M5
G0 X35.522 Y25.820
M4 S300
G1 X36.013 Y25.820
M5
M5
G0 X36.770 Y25.820
M4 S300
G1 X37.804 Y25.820
M5
M5
G0 X38.172 Y25.820
M4 S300
G1 X39.796 Y25.820
M5
M5
G0 X40.029 Y25.820
M4 S300
G1 X40.682 Y25.820
M5
M5
G0 X40.811 Y25.820
M4 S300
G1 X40.898 Y25.820
M5
M5
G0 X41.198 Y25.820
M4 S300
G1 X41.686 Y25.820
M5
M5
G0 X42.417 Y25.820
M4 S300
G1 X42.905 Y25.820
M5
M5
G0 X44.269 Y25.820
M4 S300
G1 X44.760 Y25.820
M5
M5
G0 X45.384 Y25.820
M4 S300
G1 X47.457 Y25.820
M5
M5
G0 X49.654 Y25.820
M4 S300
G1 X50.142 Y25.820
M5
M5
G0 X51.507 Y25.820
M4 S300
G1 X51.998 Y25.820
M5
M5
G0 X52.891 Y25.820
M4 S300
G1 X54.849 Y25.820
M5
M5
G0 X55.577 Y25.820
M4 S300
G1 X56.094 Y25.820
M5
M5
G0 X57.276 Y25.820
M4 S300
G1 X57.808 Y25.820
M5
M5
G0 X58.485 Y25.820
M4 S300
G1 X59.519 Y25.820
M5
M5
G0 X61.366 Y25.820
M4 S300
G1 X63.439 Y25.820
M5
M5
G0 X64.348 Y25.820
M4 S300
G1 X66.307 Y25.820
M5
M5
G0 X67.124 Y25.820
M4 S300
G1 X68.748 Y25.820
M5
M5
G0 X68.981 Y25.820
M4 S300
G1 X69.634 Y25.820
M5
M5
G0 X69.763 Y25.820
M4 S300
G1 X69.850 Y25.820
M5
M5
G0 X70.114 Y25.820
M4 S300
G1 X72.186 Y25.820
M5
M5
G0 X73.083 Y25.820
M4 S300
G1 X74.990 Y25.820
M5
M5
G0 X75.893 Y25.820
M4 S300
G1 X76.382 Y25.820
M5
M5
G0 X77.746 Y25.820
M4 S300
G1 X78.237 Y25.820
M5
M5
G0 X79.968 Y25.820
M4 S300
G1 X82.041 Y25.820
M5
M5
G0 X28.011 Y26.000
M4 S300
G1 X28.594 Y26.000
M5
M5
G0 X29.491 Y26.000
M4 S300
G1 X30.061 Y26.000
M5
M5
G0 X30.725 Y26.000
M4 S300
G1 X31.296 Y26.000
M5
M5
G0 X32.332 Y26.000
M4 S300
G1 X32.901 Y26.000
M5
M5
G0 X33.669 Y26.000
M4 S300
G1 X34.158 Y26.000
M5
M5
G0 X35.522 Y26.000
M4 S300
G1 X36.013 Y26.000
M5
M5
G0 X36.734 Y26.000
M4 S300
G1 X37.250 Y26.000
M5
M5
G0 X38.092 Y26.000
M4 S300
G1 X38.639 Y26.000
M5
M5
G0 X39.598 Y26.000
M4 S300
G1 X39.926 Y26.000
M5
M5
G0 X39.993 Y26.000
M4 S300
G1 X40.493 Y26.000
M5
M5
G0 X41.198 Y26.000
M4 S300
G1 X41.686 Y26.000
M5
M5
G0 X42.417 Y26.000
M4 S300
G1 X42.905 Y26.000
M5
M5
G0 X44.269 Y26.000
M4 S300
G1 X44.760 Y26.000
M5
M5
G0 X45.272 Y26.000
M4 S300
G1 X45.810 Y26.000
M5
M5
G0 X47.044 Y26.000
M4 S300
G1 X47.566 Y26.000
M5
M5
G0 X49.654 Y26.000
M4 S300
G1 X50.142 Y26.000
M5
M5
G0 X51.507 Y26.000
M4 S300
G1 X51.998 Y26.000
M5
M5
G0 X52.753 Y26.000
M4 S300
G1 X53.339 Y26.000
M5
M5
G0 X54.424 Y26.000
M4 S300
G1 X54.976 Y26.000
M5
M5
G0 X55.702 Y26.000
M4 S300
G1 X56.213 Y26.000
M5
M5
G0 X57.158 Y26.000
M4 S300
G1 X57.682 Y26.000
M5
M5
G0 X58.449 Y26.000
M4 S300
G1 X58.965 Y26.000
M5
M5
G0 X61.254 Y26.000
M4 S300
G1 X61.792 Y26.000
M5
M5
G0 X63.026 Y26.000
M4 S300
G1 X63.548 Y26.000
M5
M5
G0 X64.211 Y26.000
M4 S300
G1 X64.797 Y26.000
M5
M5
G0 X65.882 Y26.000
M4 S300
G1 X66.433 Y26.000
M5
M5
G0 X67.044 Y26.000
M4 S300
G1 X67.591 Y26.000
M5
M5
G0 X68.550 Y26.000
M4 S300
G1 X68.878 Y26.000
M5
M5
G0 X68.945 Y26.000
M4 S300
G1 X69.445 Y26.000
M5
M5
G0 X70.002 Y26.000
M4 S300
G1 X70.539 Y26.000
M5
M5
G0 X71.773 Y26.000
M4 S300
G1 X72.295 Y26.000
M5
M5
G0 X72.949 Y26.000
M4 S300
G1 X73.520 Y26.000
M5
M5
G0 X74.556 Y26.000
M4 S300
G1 X75.125 Y26.000
M5
M5
G0 X75.893 Y26.000
M4 S300
G1 X76.382 Y26.000
M5
M5
G0 X77.746 Y26.000
M4 S300
G1 X78.237 Y26.000
M5
M5
G0 X79.856 Y26.000
M4 S300
G1 X80.394 Y26.000
M5
M5
G0 X81.627 Y26.000
M4 S300
G1 X82.150 Y26.000
M5
M5
G0 X27.924 Y26.180
M4 S300
G1 X28.455 Y26.180
M5
M5
G0 X29.624 Y26.180
M4 S300
G1 X30.138 Y26.180
M5
M5
G0 X30.637 Y26.180
M4 S300
G1 X31.164 Y26.180
M5
M5
G0 X32.466 Y26.180
M4 S300
G1 X32.990 Y26.180
M5
M5
G0 X33.669 Y26.180
M4 S300
G1 X34.158 Y26.180
M5
M5
G0 X35.522 Y26.180
M4 S300
G1 X36.013 Y26.180
M5
M5
G0 X36.725 Y26.180
M4 S300
G1 X37.215 Y26.180
M5
M5
G0 X38.055 Y26.180
M4 S300
G1 X38.561 Y26.180
M5
M5
G0 X39.782 Y26.180
M4 S300
G1 X40.466 Y26.180
M5
M5
G0 X41.198 Y26.180
M4 S300
G1 X41.686 Y26.180
M5
M5
G0 X42.417 Y26.180
M4 S300
G1 X42.905 Y26.180
M5
M5
G0 X44.269 Y26.180
M4 S300
G1 X44.760 Y26.180
M5
M5
G0 X45.210 Y26.180
M4 S300
G1 X45.674 Y26.180
M5
M5
G0 X47.139 Y26.180
M4 S300
G1 X47.614 Y26.180
M5
M5
G0 X49.654 Y26.180
M4 S300
G1 X50.142 Y26.180
M5
M5
G0 X51.507 Y26.180
M4 S300
G1 X51.998 Y26.180
M5
M5
G0 X52.663 Y26.180
M4 S300
G1 X53.190 Y26.180
M5
M5
G0 X54.578 Y26.180
M4 S300
G1 X54.961 Y26.180
M5
M5
G0 X55.827 Y26.180
M4 S300
G1 X56.331 Y26.180
M5
M5
G0 X57.040 Y26.180
M4 S300
G1 X57.556 Y26.180
M5
M5
G0 X58.439 Y26.180
M4 S300
G1 X58.929 Y26.180
M5
M5
G0 X61.192 Y26.180
M4 S300
G1 X61.656 Y26.180
M5
M5
G0 X63.121 Y26.180
M4 S300
G1 X63.596 Y26.180
M5
M5
G0 X64.120 Y26.180
M4 S300
G1 X64.648 Y26.180
M5
M5
G0 X66.035 Y26.180
M4 S300
G1 X66.418 Y26.180
M5
M5
G0 X67.007 Y26.180
M4 S300
G1 X67.513 Y26.180
M5
M5
G0 X68.734 Y26.180
M4 S300
G1 X69.418 Y26.180
M5
M5
G0 X69.939 Y26.180
M4 S300
G1 X70.403 Y26.180
M5
M5
G0 X71.869 Y26.180
M4 S300
G1 X72.343 Y26.180
M5
M5
G0 X72.861 Y26.180
M4 S300
G1 X73.388 Y26.180
M5
M5
G0 X74.690 Y26.180
M4 S300
G1 X75.214 Y26.180
M5
M5
G0 X75.893 Y26.180
M4 S300
G1 X76.382 Y26.180
M5
M5
G0 X77.746 Y26.180
M4 S300
G1 X78.237 Y26.180
M5
M5
G0 X79.794 Y26.180
M4 S300
G1 X80.258 Y26.180
M5
M5
G0 X81.723 Y26.180
M4 S300
G1 X82.198 Y26.180
M5
M5
G0 X27.864 Y26.360
M4 S300
G1 X28.380 Y26.360
M5
M5
G0 X29.681 Y26.360
M4 S300
G1 X30.180 Y26.360
M5
M5
G0 X30.576 Y26.360
M4 S300
G1 X31.091 Y26.360
M5
M5
G0 X32.536 Y26.360
M4 S300
G1 X33.050 Y26.360
M5
M5
G0 X33.669 Y26.360
M4 S300
G1 X34.158 Y26.360
M5
M5
G0 X35.522 Y26.360
M4 S300
G1 X36.013 Y26.360
M5
M5
G0 X36.725 Y26.360
M4 S300
G1 X37.213 Y26.360
M5
M5
G0 X38.046 Y26.360
M4 S300
G1 X38.548 Y26.360
M5
M5
G0 X39.889 Y26.360
M4 S300
G1 X40.464 Y26.360
M5
M5
G0 X41.198 Y26.360
M4 S300
G1 X41.686 Y26.360
M5
M5
G0 X42.417 Y26.360
M4 S300
G1 X42.905 Y26.360
M5
M5
G0 X44.269 Y26.360
M4 S300
G1 X44.760 Y26.360
M5
M5
G0 X47.145 Y26.360
M4 S300
G1 X47.625 Y26.360
M5
M5
G0 X49.654 Y26.360
M4 S300
G1 X50.142 Y26.360
M5
M5
G0 X51.507 Y26.360
M4 S300
G1 X51.998 Y26.360
M5
M5
G0 X52.601 Y26.360
M4 S300
G1 X53.110 Y26.360
M5
M5
G0 X55.951 Y26.360
M4 S300
G1 X56.450 Y26.360
M5
M5
G0 X56.922 Y26.360
M4 S300
G1 X57.430 Y26.360
M5
M5
G0 X58.439 Y26.360
M4 S300
G1 X58.928 Y26.360
M5
M5
G0 X63.127 Y26.360
M4 S300
G1 X63.607 Y26.360
M5
M5
G0 X64.058 Y26.360
M4 S300
G1 X64.567 Y26.360
M5
M5
G0 X66.998 Y26.360
M4 S300
G1 X67.500 Y26.360
M5
M5
G0 X68.841 Y26.360
M4 S300
G1 X69.416 Y26.360
M5
M5
G0 X71.874 Y26.360
M4 S300
G1 X72.354 Y26.360
M5
M5
G0 X72.800 Y26.360
M4 S300
G1 X73.315 Y26.360
M5
M5
G0 X74.760 Y26.360
M4 S300
G1 X75.274 Y26.360
M5
M5
G0 X75.893 Y26.360
M4 S300
G1 X76.382 Y26.360
M5
M5
G0 X77.746 Y26.360
M4 S300
G1 X78.237 Y26.360
M5
M5
G0 X81.729 Y26.360
M4 S300
G1 X82.209 Y26.360
M5
M5
G0 X27.826 Y26.540
M4 S300
G1 X28.336 Y26.540
M5
M5
G0 X30.537 Y26.540
M4 S300
G1 X31.048 Y26.540
M5
M5
G0 X32.577 Y26.540
M4 S300
G1 X33.089 Y26.540
M5
M5
G0 X33.669 Y26.540
M4 S300
G1 X34.158 Y26.540
M5
M5
G0 X35.522 Y26.540
M4 S300
G1 X36.013 Y26.540
M5
M5
G0 X36.725 Y26.540
M4 S300
G1 X37.213 Y26.540
M5
M5
G0 X38.064 Y26.540
M4 S300
G1 X38.575 Y26.540
M5
M5
G0 X39.950 Y26.540
M4 S300
G1 X40.464 Y26.540
M5
M5
G0 X41.198 Y26.540
M4 S300
G1 X41.686 Y26.540
M5
M5
G0 X42.417 Y26.540
M4 S300
G1 X42.905 Y26.540
M5
M5
G0 X44.269 Y26.540
M4 S300
G1 X44.760 Y26.540
M5
M5
G0 X47.061 Y26.540
M4 S300
G1 X47.600 Y26.540
M5
M5
G0 X49.654 Y26.540
M4 S300
G1 X50.142 Y26.540
M5
M5
G0 X51.507 Y26.540
M4 S300
G1 X51.998 Y26.540
M5
M5
G0 X52.561 Y26.540
M4 S300
G1 X53.064 Y26.540
M5
M5
G0 X56.076 Y26.540
M4 S300
G1 X56.569 Y26.540
M5
M5
G0 X56.804 Y26.540
M4 S300
G1 X57.305 Y26.540
M5
M5
G0 X58.439 Y26.540
M4 S300
G1 X58.928 Y26.540
M5
M5
G0 X63.043 Y26.540
M4 S300
G1 X63.582 Y26.540
M5
M5
G0 X64.018 Y26.540
M4 S300
G1 X64.522 Y26.540
M5
M5
G0 X67.016 Y26.540
M4 S300
G1 X67.527 Y26.540
M5
M5
G0 X68.902 Y26.540
M4 S300
G1 X69.416 Y26.540
M5
M5
G0 X71.790 Y26.540
M4 S300
G1 X72.329 Y26.540
M5
M5
G0 X72.760 Y26.540
M4 S300
G1 X73.271 Y26.540
M5
M5
G0 X74.801 Y26.540
M4 S300
G1 X75.312 Y26.540
M5
M5
G0 X75.893 Y26.540
M4 S300
G1 X76.382 Y26.540
M5
M5
G0 X77.746 Y26.540
M4 S300
G1 X78.237 Y26.540
M5
M5
G0 X81.645 Y26.540
M4 S300
G1 X82.184 Y26.540
M5
M5
G0 X27.803 Y26.720
M4 S300
G1 X28.313 Y26.720
M5
M5
G0 X30.513 Y26.720
M4 S300
G1 X31.025 Y26.720
M5
M5
G0 X32.599 Y26.720
M4 S300
G1 X33.111 Y26.720
M5
M5
G0 X33.669 Y26.720
M4 S300
G1 X34.158 Y26.720
M5
M5
G0 X35.522 Y26.720
M4 S300
G1 X36.013 Y26.720
M5
M5
G0 X36.725 Y26.720
M4 S300
G1 X37.213 Y26.720
M5
M5
G0 X38.115 Y26.720
M4 S300
G1 X38.672 Y26.720
M5
M5
G0 X39.971 Y26.720
M4 S300
G1 X40.464 Y26.720
M5
M5
G0 X41.198 Y26.720
M4 S300
G1 X41.686 Y26.720
M5
M5
G0 X42.417 Y26.720
M4 S300
G1 X42.905 Y26.720
M5
M5
G0 X44.269 Y26.720
M4 S300
G1 X44.760 Y26.720
M5
M5
G0 X46.742 Y26.720
M4 S300
G1 X47.524 Y26.720
M5
M5
G0 X49.654 Y26.720
M4 S300
G1 X50.142 Y26.720
M5
M5
G0 X51.507 Y26.720
M4 S300
G1 X51.998 Y26.720
M5
M5
G0 X52.537 Y26.720
M4 S300
G1 X53.041 Y26.720
M5
M5
G0 X56.201 Y26.720
M4 S300
G1 X57.179 Y26.720
M5
M5
G0 X58.439 Y26.720
M4 S300
G1 X58.928 Y26.720
M5
M5
G0 X62.725 Y26.720
M4 S300
G1 X63.506 Y26.720
M5
M5
G0 X63.994 Y26.720
M4 S300
G1 X64.498 Y26.720
M5
M5
G0 X67.067 Y26.720
M4 S300
G1 X67.624 Y26.720
M5
M5
G0 X68.923 Y26.720
M4 S300
G1 X69.416 Y26.720
M5
M5
G0 X71.472 Y26.720
M4 S300
G1 X72.253 Y26.720
M5
M5
G0 X72.737 Y26.720
M4 S300
G1 X73.249 Y26.720
M5
M5
G0 X74.823 Y26.720
M4 S300
G1 X75.335 Y26.720
M5
M5
G0 X75.893 Y26.720
M4 S300
G1 X76.382 Y26.720
M5
M5
G0 X77.746 Y26.720
M4 S300
G1 X78.237 Y26.720
M5
M5
G0 X81.326 Y26.720
M4 S300
G1 X82.108 Y26.720
M5
M5
G0 X27.793 Y26.900
M4 S300
G1 X28.302 Y26.900
M5
M5
G0 X30.503 Y26.900
M4 S300
G1 X31.015 Y26.900
M5
M5
G0 X32.609 Y26.900
M4 S300
G1 X33.120 Y26.900
M5
M5
G0 X33.669 Y26.900
M4 S300
G1 X34.158 Y26.900
M5
M5
G0 X35.522 Y26.900
M4 S300
G1 X36.013 Y26.900
M5
M5
G0 X36.725 Y26.900
M4 S300
G1 X37.213 Y26.900
M5
M5
G0 X38.217 Y26.900
M4 S300
G1 X38.973 Y26.900
M5
M5
G0 X39.971 Y26.900
M4 S300
G1 X40.464 Y26.900
M5
M5
G0 X41.198 Y26.900
M4 S300
G1 X41.686 Y26.900
M5
M5
G0 X42.417 Y26.900
M4 S300
G1 X42.905 Y26.900
M5
M5
G0 X44.269 Y26.900
M4 S300
G1 X44.760 Y26.900
M5
M5
G0 X46.085 Y26.900
M4 S300
G1 X47.371 Y26.900
M5
M5
G0 X49.654 Y26.900
M4 S300
G1 X50.142 Y26.900
M5
M5
G0 X51.507 Y26.900
M4 S300
G1 X51.998 Y26.900
M5
M5
G0 X52.526 Y26.900
M4 S300
G1 X55.129 Y26.900
M5
M5
G0 X56.325 Y26.900
M4 S300
G1 X57.053 Y26.900
M5
M5
G0 X58.439 Y26.900
M4 S300
G1 X58.928 Y26.900
M5
M5
G0 X62.067 Y26.900
M4 S300
G1 X63.353 Y26.900
M5
M5
G0 X63.983 Y26.900
M4 S300
G1 X66.586 Y26.900
M5
M5
G0 X67.169 Y26.900
M4 S300
G1 X67.925 Y26.900
M5
M5
G0 X68.923 Y26.900
M4 S300
G1 X69.416 Y26.900
M5
M5
G0 X70.814 Y26.900
M4 S300
G1 X72.101 Y26.900
M5
M5
G0 X72.727 Y26.900
M4 S300
G1 X73.239 Y26.900
M5
M5
G0 X74.833 Y26.900
M4 S300
G1 X75.344 Y26.900
M5
M5
G0 X75.893 Y26.900
M4 S300
G1 X76.382 Y26.900
M5
M5
G0 X77.746 Y26.900
M4 S300
G1 X78.237 Y26.900
M5
M5
G0 X80.669 Y26.900
M4 S300
G1 X81.955 Y26.900
M5
M5
G0 X27.793 Y27.080
M4 S300
G1 X28.302 Y27.080
M5
M5
G0 X30.507 Y27.080
M4 S300
G1 X31.015 Y27.080
M5
M5
G0 X32.608 Y27.080
M4 S300
G1 X33.120 Y27.080
M5
M5
G0 X33.669 Y27.080
M4 S300
G1 X34.158 Y27.080
M5
M5
G0 X35.522 Y27.080
M4 S300
G1 X36.013 Y27.080
M5
M5
G0 X36.725 Y27.080
M4 S300
G1 X37.213 Y27.080
M5
M5
G0 X38.411 Y27.080
M4 S300
G1 X40.464 Y27.080
M5
M5
G0 X41.198 Y27.080
M4 S300
G1 X41.686 Y27.080
M5
M5
G0 X42.417 Y27.080
M4 S300
G1 X42.905 Y27.080
M5
M5
G0 X44.269 Y27.080
M4 S300
G1 X44.760 Y27.080
M5
M5
G0 X45.657 Y27.080
M4 S300
G1 X47.055 Y27.080
M5
M5
G0 X49.654 Y27.080
M4 S300
G1 X50.142 Y27.080
M5
M5
G0 X51.507 Y27.080
M4 S300
G1 X51.998 Y27.080
M5
M5
G0 X52.525 Y27.080
M4 S300
G1 X55.120 Y27.080
M5
M5
G0 X56.370 Y27.080
M4 S300
G1 X57.000 Y27.080
M5
M5
G0 X58.439 Y27.080
M4 S300
G1 X58.928 Y27.080
M5
M5
G0 X61.639 Y27.080
M4 S300
G1 X63.037 Y27.080
M5
M5
G0 X63.982 Y27.080
M4 S300
G1 X66.578 Y27.080
M5
M5
G0 X67.363 Y27.080
M4 S300
G1 X69.416 Y27.080
M5
M5
G0 X70.386 Y27.080
M4 S300
G1 X71.784 Y27.080
M5
M5
G0 X72.731 Y27.080
M4 S300
G1 X73.239 Y27.080
M5
M5
G0 X74.832 Y27.080
M4 S300
G1 X75.344 Y27.080
M5
M5
G0 X75.893 Y27.080
M4 S300
G1 X76.382 Y27.080
M5
M5
G0 X77.746 Y27.080
M4 S300
G1 X78.237 Y27.080
M5
M5
G0 X80.241 Y27.080
M4 S300
G1 X81.639 Y27.080
M5
M5
G0 X27.804 Y27.260
M4 S300
G1 X28.310 Y27.260
M5
M5
G0 X30.519 Y27.260
M4 S300
G1 X31.025 Y27.260
M5
M5
G0 X32.599 Y27.260
M4 S300
G1 X33.111 Y27.260
M5
M5
G0 X33.669 Y27.260
M4 S300
G1 X34.159 Y27.260
M5
M5
G0 X35.522 Y27.260
M4 S300
G1 X36.013 Y27.260
M5
M5
G0 X36.725 Y27.260
M4 S300
G1 X37.213 Y27.260
M5
M5
G0 X38.928 Y27.260
M4 S300
G1 X40.464 Y27.260
M5
M5
G0 X41.198 Y27.260
M4 S300
G1 X41.686 Y27.260
M5
M5
G0 X42.417 Y27.260
M4 S300
G1 X42.907 Y27.260
M5
M5
G0 X44.269 Y27.260
M4 S300
G1 X44.760 Y27.260
M5
M5
G0 X45.455 Y27.260
M4 S300
G1 X46.434 Y27.260
M5
M5
G0 X49.654 Y27.260
M4 S300
G1 X50.144 Y27.260
M5
M5
G0 X51.507 Y27.260
M4 S300
G1 X51.998 Y27.260
M5
M5
G0 X52.536 Y27.260
M4 S300
G1 X53.041 Y27.260
M5
M5
G0 X54.624 Y27.260
M4 S300
G1 X55.109 Y27.260
M5
M5
G0 X56.245 Y27.260
M4 S300
G1 X57.126 Y27.260
M5
M5
G0 X58.439 Y27.260
M4 S300
G1 X58.928 Y27.260
M5
M5
G0 X61.438 Y27.260
M4 S300
G1 X62.416 Y27.260
M5
M5
G0 X63.993 Y27.260
M4 S300
G1 X64.498 Y27.260
M5
M5
G0 X66.081 Y27.260
M4 S300
G1 X66.566 Y27.260
M5
M5
G0 X67.880 Y27.260
M4 S300
G1 X69.416 Y27.260
M5
M5
G0 X70.185 Y27.260
M4 S300
G1 X71.163 Y27.260
M5
M5
G0 X72.743 Y27.260
M4 S300
G1 X73.249 Y27.260
M5
M5
G0 X74.823 Y27.260
M4 S300
G1 X75.335 Y27.260
M5
M5
G0 X75.893 Y27.260
M4 S300
G1 X76.383 Y27.260
M5
M5
G0 X77.746 Y27.260
M4 S300
G1 X78.237 Y27.260
M5
M5
G0 X80.039 Y27.260
M4 S300
G1 X81.018 Y27.260
M5
M5
G0 X27.828 Y27.440
M4 S300
G1 X28.330 Y27.440
M5
M5
G0 X30.539 Y27.440
M4 S300
G1 X31.048 Y27.440
M5
M5
G0 X32.578 Y27.440
M4 S300
G1 X33.089 Y27.440
M5
M5
G0 X33.669 Y27.440
M4 S300
G1 X34.174 Y27.440
M5
M5
G0 X35.521 Y27.440
M4 S300
G1 X36.013 Y27.440
M5
M5
G0 X36.725 Y27.440
M4 S300
G1 X37.213 Y27.440
M5
M5
G0 X39.971 Y27.440
M4 S300
G1 X40.464 Y27.440
M5
M5
G0 X41.198 Y27.440
M4 S300
G1 X41.686 Y27.440
M5
M5
G0 X42.417 Y27.440
M4 S300
G1 X42.921 Y27.440
M5
M5
G0 X44.268 Y27.440
M4 S300
G1 X44.760 Y27.440
M5
M5
G0 X45.356 Y27.440
M4 S300
G1 X45.942 Y27.440
M5
M5
G0 X49.654 Y27.440
M4 S300
G1 X50.158 Y27.440
M5
M5
G0 X51.506 Y27.440
M4 S300
G1 X51.998 Y27.440
M5
M5
G0 X52.560 Y27.440
M4 S300
G1 X53.060 Y27.440
M5
M5
G0 X54.599 Y27.440
M4 S300
G1 X55.084 Y27.440
M5
M5
G0 X56.119 Y27.440
M4 S300
G1 X56.602 Y27.440
M5
M5
G0 X56.771 Y27.440
M4 S300
G1 X57.252 Y27.440
M5
M5
G0 X58.439 Y27.440
M4 S300
G1 X58.928 Y27.440
M5
M5
G0 X61.338 Y27.440
M4 S300
G1 X61.924 Y27.440
M5
M5
G0 X64.018 Y27.440
M4 S300
G1 X64.517 Y27.440
M5
M5
G0 X66.056 Y27.440
M4 S300
G1 X66.541 Y27.440
M5
M5
G0 X68.923 Y27.440
M4 S300
G1 X69.416 Y27.440
M5
M5
G0 X70.085 Y27.440
M4 S300
G1 X70.672 Y27.440
M5
M5
G0 X72.763 Y27.440
M4 S300
G1 X73.272 Y27.440
M5
M5
G0 X74.802 Y27.440
M4 S300
G1 X75.313 Y27.440
M5
M5
G0 X75.893 Y27.440
M4 S300
G1 X76.398 Y27.440
M5
M5
G0 X77.745 Y27.440
M4 S300
G1 X78.237 Y27.440
M5
M5
G0 X79.940 Y27.440
M4 S300
G1 X80.526 Y27.440
M5
M5
G0 X27.869 Y27.620
M4 S300
G1 X28.369 Y27.620
M5
M5
G0 X29.661 Y27.620
M4 S300
G1 X30.070 Y27.620
M5
M5
G0 X30.582 Y27.620
M4 S300
G1 X31.093 Y27.620
M5
M5
G0 X32.537 Y27.620
M4 S300
G1 X33.053 Y27.620
M5
M5
G0 X33.669 Y27.620
M4 S300
G1 X34.217 Y27.620
M5
M5
G0 X35.509 Y27.620
M4 S300
G1 X36.009 Y27.620
M5
M5
G0 X36.725 Y27.620
M4 S300
G1 X37.213 Y27.620
M5
M5
G0 X39.962 Y27.620
M4 S300
G1 X40.460 Y27.620
M5
M5
G0 X41.198 Y27.620
M4 S300
G1 X41.686 Y27.620
M5
M5
G0 X42.417 Y27.620
M4 S300
G1 X42.964 Y27.620
M5
M5
G0 X44.256 Y27.620
M4 S300
G1 X44.756 Y27.620
M5
M5
G0 X45.322 Y27.620
M4 S300
G1 X45.808 Y27.620
M5
M5
G0 X49.654 Y27.620
M4 S300
G1 X50.202 Y27.620
M5
M5
G0 X51.494 Y27.620
M4 S300
G1 X51.993 Y27.620
M5
M5
G0 X52.603 Y27.620
M4 S300
G1 X53.104 Y27.620
M5
M5
G0 X54.556 Y27.620
M4 S300
G1 X55.043 Y27.620
M5
M5
G0 X55.993 Y27.620
M4 S300
G1 X56.486 Y27.620
M5
M5
G0 X56.886 Y27.620
M4 S300
G1 X57.378 Y27.620
M5
M5
G0 X58.439 Y27.620
M4 S300
G1 X58.928 Y27.620
M5
M5
G0 X61.304 Y27.620
M4 S300
G1 X61.790 Y27.620
M5
M5
G0 X64.060 Y27.620
M4 S300
G1 X64.562 Y27.620
M5
M5
G0 X66.013 Y27.620
M4 S300
G1 X66.501 Y27.620
M5
M5
G0 X68.914 Y27.620
M4 S300
G1 X69.412 Y27.620
M5
M5
G0 X70.051 Y27.620
M4 S300
G1 X70.537 Y27.620
M5
M5
G0 X72.806 Y27.620
M4 S300
G1 X73.317 Y27.620
M5
M5
G0 X74.761 Y27.620
M4 S300
G1 X75.277 Y27.620
M5
M5
G0 X75.893 Y27.620
M4 S300
G1 X76.441 Y27.620
M5
M5
G0 X77.733 Y27.620
M4 S300
G1 X78.232 Y27.620
M5
M5
G0 X79.906 Y27.620
M4 S300
G1 X80.392 Y27.620
M5
M5
G0 X27.931 Y27.800
M4 S300
G1 X28.438 Y27.800
M5
M5
G0 X29.604 Y27.800
M4 S300
G1 X30.123 Y27.800
M5
M5
G0 X30.642 Y27.800
M4 S300
G1 X31.168 Y27.800
M5
M5
G0 X32.468 Y27.800
M4 S300
G1 X32.996 Y27.800
M5
M5
G0 X33.669 Y27.800
M4 S300
G1 X34.300 Y27.800
M5
M5
G0 X35.473 Y27.800
M4 S300
G1 X35.988 Y27.800
M5
M5
G0 X36.725 Y27.800
M4 S300
G1 X37.213 Y27.800
M5
M5
G0 X38.198 Y27.800
M4 S300
G1 X38.714 Y27.800
M5
M5
G0 X39.923 Y27.800
M4 S300
G1 X40.435 Y27.800
M5
M5
G0 X41.198 Y27.800
M4 S300
G1 X41.686 Y27.800
M5
M5
G0 X42.417 Y27.800
M4 S300
G1 X43.047 Y27.800
M5
M5
G0 X44.220 Y27.800
M4 S300
G1 X44.735 Y27.800
M5
M5
G0 X45.329 Y27.800
M4 S300
G1 X45.802 Y27.800
M5
M5
G0 X47.111 Y27.800
M4 S300
G1 X47.568 Y27.800
M5
M5
G0 X49.654 Y27.800
M4 S300
G1 X50.285 Y27.800
M5
M5
G0 X51.458 Y27.800
M4 S300
G1 X51.972 Y27.800
M5
M5
G0 X52.667 Y27.800
M4 S300
G1 X53.188 Y27.800
M5
M5
G0 X54.480 Y27.800
M4 S300
G1 X54.981 Y27.800
M5
M5
G0 X55.868 Y27.800
M4 S300
G1 X56.371 Y27.800
M5
M5
G0 X57.000 Y27.800
M4 S300
G1 X57.504 Y27.800
M5
M5
G0 X58.439 Y27.800
M4 S300
G1 X58.928 Y27.800
M5
M5
G0 X61.311 Y27.800
M4 S300
G1 X61.784 Y27.800
M5
M5
G0 X63.093 Y27.800
M4 S300
G1 X63.550 Y27.800
M5
M5
G0 X64.125 Y27.800
M4 S300
G1 X64.645 Y27.800
M5
M5
G0 X65.937 Y27.800
M4 S300
G1 X66.438 Y27.800
M5
M5
G0 X67.150 Y27.800
M4 S300
G1 X67.666 Y27.800
M5
M5
G0 X68.875 Y27.800
M4 S300
G1 X69.387 Y27.800
M5
M5
G0 X70.058 Y27.800
M4 S300
G1 X70.531 Y27.800
M5
M5
G0 X71.840 Y27.800
M4 S300
G1 X72.298 Y27.800
M5
M5
G0 X72.866 Y27.800
M4 S300
G1 X73.392 Y27.800
M5
M5
G0 X74.692 Y27.800
M4 S300
G1 X75.220 Y27.800
M5
M5
G0 X75.893 Y27.800
M4 S300
G1 X76.524 Y27.800
M5
M5
G0 X77.697 Y27.800
M4 S300
G1 X78.212 Y27.800
M5
M5
G0 X79.913 Y27.800
M4 S300
G1 X80.386 Y27.800
M5
M5
G0 X81.695 Y27.800
M4 S300
G1 X82.152 Y27.800
M5
M5
G0 X28.021 Y27.980
M4 S300
G1 X28.580 Y27.980
M5
M5
G0 X29.472 Y27.980
M4 S300
G1 X30.044 Y27.980
M5
M5
G0 X30.729 Y27.980
M4 S300
G1 X31.311 Y27.980
M5
M5
G0 X32.331 Y27.980
M4 S300
G1 X32.911 Y27.980
M5
M5
G0 X33.669 Y27.980
M4 S300
G1 X34.135 Y27.980
M5
M5
G0 X34.163 Y27.980
M4 S300
G1 X34.461 Y27.980
M5
M5
G0 X35.377 Y27.980
M4 S300
G1 X35.946 Y27.980
M5
M5
G0 X36.725 Y27.980
M4 S300
G1 X37.213 Y27.980
M5
M5
G0 X38.260 Y27.980
M4 S300
G1 X38.818 Y27.980
M5
M5
G0 X39.816 Y27.980
M4 S300
G1 X40.377 Y27.980
M5
M5
G0 X41.198 Y27.980
M4 S300
G1 X41.686 Y27.980
M5
M5
G0 X42.416 Y27.980
M4 S300
G1 X42.882 Y27.980
M5
M5
G0 X42.911 Y27.980
M4 S300
G1 X43.208 Y27.980
M5
M5
G0 X44.124 Y27.980
M4 S300
G1 X44.693 Y27.980
M5
M5
G0 X45.372 Y27.980
M4 S300
G1 X45.895 Y27.980
M5
M5
G0 X46.977 Y27.980
M4 S300
G1 X47.511 Y27.980
M5
M5
G0 X49.654 Y27.980
M4 S300
G1 X50.120 Y27.980
M5
M5
G0 X50.148 Y27.980
M4 S300
G1 X50.445 Y27.980
M5
M5
G0 X51.362 Y27.980
M4 S300
G1 X51.930 Y27.980
M5
M5
G0 X52.762 Y27.980
M4 S300
G1 X53.341 Y27.980
M5
M5
G0 X54.336 Y27.980
M4 S300
G1 X54.898 Y27.980
M5
M5
G0 X55.742 Y27.980
M4 S300
G1 X56.256 Y27.980
M5
M5
G0 X57.115 Y27.980
M4 S300
G1 X57.630 Y27.980
M5
M5
G0 X58.439 Y27.980
M4 S300
G1 X58.928 Y27.980
M5
M5
G0 X61.354 Y27.980
M4 S300
G1 X61.877 Y27.980
M5
M5
G0 X62.959 Y27.980
M4 S300
G1 X63.493 Y27.980
M5
M5
G0 X64.219 Y27.980
M4 S300
G1 X64.799 Y27.980
M5
M5
G0 X65.793 Y27.980
M4 S300
G1 X66.355 Y27.980
M5
M5
G0 X67.212 Y27.980
M4 S300
G1 X67.770 Y27.980
M5
M5
G0 X68.768 Y27.980
M4 S300
G1 X69.329 Y27.980
M5
M5
G0 X70.101 Y27.980
M4 S300
G1 X70.624 Y27.980
M5
M5
G0 X71.706 Y27.980
M4 S300
G1 X72.241 Y27.980
M5
M5
G0 X72.953 Y27.980
M4 S300
G1 X73.535 Y27.980
M5
M5
G0 X74.555 Y27.980
M4 S300
G1 X75.135 Y27.980
M5
M5
G0 X75.893 Y27.980
M4 S300
G1 X76.359 Y27.980
M5
M5
G0 X76.387 Y27.980
M4 S300
G1 X76.684 Y27.980
M5
M5
G0 X77.601 Y27.980
M4 S300
G1 X78.170 Y27.980
M5
M5
G0 X79.956 Y27.980
M4 S300
G1 X80.479 Y27.980
M5
M5
G0 X81.561 Y27.980
M4 S300
G1 X82.095 Y27.980
M5
M5
G0 X28.159 Y28.160
M4 S300
G1 X29.913 Y28.160
M5
M5
G0 X30.874 Y28.160
M4 S300
G1 X32.779 Y28.160
M5
M5
G0 X33.667 Y28.160
M4 S300
G1 X34.130 Y28.160
M5
M5
G0 X34.286 Y28.160
M4 S300
G1 X35.865 Y28.160
M5
M5
G0 X36.386 Y28.160
M4 S300
G1 X37.755 Y28.160
M5
M5
G0 X38.376 Y28.160
M4 S300
G1 X40.268 Y28.160
M5
M5
G0 X41.198 Y28.160
M4 S300
G1 X41.686 Y28.160
M5
M5
G0 X42.414 Y28.160
M4 S300
G1 X42.877 Y28.160
M5
M5
G0 X43.033 Y28.160
M4 S300
G1 X44.612 Y28.160
M5
M5
G0 X45.475 Y28.160
M4 S300
G1 X47.402 Y28.160
M5
M5
G0 X49.652 Y28.160
M4 S300
G1 X50.114 Y28.160
M5
M5
G0 X50.271 Y28.160
M4 S300
G1 X51.850 Y28.160
M5
M5
G0 X52.907 Y28.160
M4 S300
G1 X54.754 Y28.160
M5
M5
G0 X55.617 Y28.160
M4 S300
G1 X56.140 Y28.160
M5
M5
G0 X57.230 Y28.160
M4 S300
G1 X57.756 Y28.160
M5
M5
G0 X58.100 Y28.160
M4 S300
G1 X59.470 Y28.160
M5
M5
G0 X61.458 Y28.160
M4 S300
G1 X63.384 Y28.160
M5
M5
G0 X64.364 Y28.160
M4 S300
G1 X66.211 Y28.160
M5
M5
G0 X67.328 Y28.160
M4 S300
G1 X69.220 Y28.160
M5
M5
G0 X70.205 Y28.160
M4 S300
G1 X72.131 Y28.160
M5
M5
G0 X73.098 Y28.160
M4 S300
G1 X75.003 Y28.160
M5
M5
G0 X75.891 Y28.160
M4 S300
G1 X76.354 Y28.160
M5
M5
G0 X76.510 Y28.160
M4 S300
G1 X78.089 Y28.160
M5
M5
G0 X78.911 Y28.160
M4 S300
G1 X79.241 Y28.160
M5
M5
G0 X80.059 Y28.160
M4 S300
G1 X81.986 Y28.160
M5
M5
G0 X28.384 Y28.340
M4 S300
G1 X29.694 Y28.340
M5
M5
G0 X31.110 Y28.340
M4 S300
G1 X32.548 Y28.340
M5
M5
G0 X33.662 Y28.340
M4 S300
G1 X34.121 Y28.340
M5
M5
G0 X34.475 Y28.340
M4 S300
G1 X35.701 Y28.340
M5
M5
G0 X36.386 Y28.340
M4 S300
G1 X37.755 Y28.340
M5
M5
G0 X38.594 Y28.340
M4 S300
G1 X40.061 Y28.340
M5
M5
G0 X41.198 Y28.340
M4 S300
G1 X41.686 Y28.340
M5
M5
G0 X42.409 Y28.340
M4 S300
G1 X42.869 Y28.340
M5
M5
G0 X43.222 Y28.340
M4 S300
G1 X44.448 Y28.340
M5
M5
G0 X45.692 Y28.340
M4 S300
G1 X47.183 Y28.340
M5
M5
G0 X49.646 Y28.340
M4 S300
G1 X50.106 Y28.340
M5
M5
G0 X50.459 Y28.340
M4 S300
G1 X51.686 Y28.340
M5
M5
G0 X53.142 Y28.340
M4 S300
G1 X54.523 Y28.340
M5
M5
G0 X55.491 Y28.340
M4 S300
G1 X56.025 Y28.340
M5
M5
G0 X57.344 Y28.340
M4 S300
G1 X57.882 Y28.340
M5
M5
G0 X58.100 Y28.340
M4 S300
G1 X59.470 Y28.340
M5
M5
G0 X61.674 Y28.340
M4 S300
G1 X63.165 Y28.340
M5
M5
G0 X64.599 Y28.340
M4 S300
G1 X65.980 Y28.340
M5
M5
G0 X67.546 Y28.340
M4 S300
G1 X69.013 Y28.340
M5
M5
G0 X70.421 Y28.340
M4 S300
G1 X71.912 Y28.340
M5
M5
G0 X73.334 Y28.340
M4 S300
G1 X74.772 Y28.340
M5
M5
G0 X75.886 Y28.340
M4 S300
G1 X76.345 Y28.340
M5
M5
G0 X76.699 Y28.340
M4 S300
G1 X77.925 Y28.340
M5
M5
G0 X79.011 Y28.340
M4 S300
G1 X79.324 Y28.340
M5
M5
G0 X80.276 Y28.340
M4 S300
G1 X81.767 Y28.340
M5
M5
G0 X36.759 Y28.520
M4 S300
G1 X37.213 Y28.520
M5
M5
G0 X58.474 Y28.520
M4 S300
G1 X58.928 Y28.520
M5
M5
G0 X79.081 Y28.520
M4 S300
G1 X79.377 Y28.520
M5
M5
G0 X36.799 Y28.700
M4 S300
G1 X37.213 Y28.700
M5
M5
G0 X58.513 Y28.700
M4 S300
G1 X58.928 Y28.700
M5
M5
G0 X79.119 Y28.700
M4 S300
G1 X79.404 Y28.700
M5
M5
G0 X36.838 Y28.880
M4 S300
G1 X37.213 Y28.880
M5
M5
G0 X58.553 Y28.880
M4 S300
G1 X58.928 Y28.880
M5
M5
G0 X78.886 Y28.880
M4 S300
G1 X79.414 Y28.880
M5
M5
G0 X36.877 Y29.060
M4 S300
G1 X37.213 Y29.060
M5
M5
G0 X58.592 Y29.060
M4 S300
G1 X58.928 Y29.060
M5
M5
G0 X78.886 Y29.060
M4 S300
G1 X79.415 Y29.060
M5
M5
G0 X41.198 Y29.240
M4 S300
G1 X41.686 Y29.240
M5
M5
G0 X78.886 Y29.240
M4 S300
G1 X79.415 Y29.240
M5
M5
G0 X41.198 Y29.420
M4 S300
G1 X41.686 Y29.420
M5
M5
G0 X66.988 Y31.040
M4 S300
G1 X67.783 Y31.040
M5
M5
G0 X87.388 Y31.040
M4 S300
G1 X87.876 Y31.040
M5
M5
G0 X66.988 Y31.220
M4 S300
G1 X67.992 Y31.220
M5
M5
G0 X87.388 Y31.220
M4 S300
G1 X87.876 Y31.220
M5
M5
G0 X67.550 Y31.400
M4 S300
G1 X68.128 Y31.400
M5
M5
G0 X87.388 Y31.400
M4 S300
G1 X87.876 Y31.400
M5
M5
G0 X67.730 Y31.580
M4 S300
G1 X68.232 Y31.580
M5
M5
G0 X87.388 Y31.580
M4 S300
G1 X87.876 Y31.580
M5
M5
G0 X67.845 Y31.760
M4 S300
G1 X68.318 Y31.760
M5
M5
G0 X87.388 Y31.760
M4 S300
G1 X87.876 Y31.760
M5
M5
G0 X67.928 Y31.940
M4 S300
G1 X68.396 Y31.940
M5
M5
G0 X87.388 Y31.940
M4 S300
G1 X87.876 Y31.940
M5
M5
G0 X17.142 Y32.120
M4 S300
G1 X17.631 Y32.120
M5
M5
G0 X19.530 Y32.120
M4 S300
G1 X20.761 Y32.120
M5
M5
G0 X21.966 Y32.120
M4 S300
G1 X22.452 Y32.120
M5
M5
G0 X23.664 Y32.120
M4 S300
G1 X24.147 Y32.120
M5
M5
G0 X25.360 Y32.120
M4 S300
G1 X25.843 Y32.120
M5
M5
G0 X27.067 Y32.120
M4 S300
G1 X28.297 Y32.120
M5
M5
G0 X29.503 Y32.120
M4 S300
G1 X29.989 Y32.120
M5
M5
G0 X31.201 Y32.120
M4 S300
G1 X31.684 Y32.120
M5
M5
G0 X32.896 Y32.120
M4 S300
G1 X33.379 Y32.120
M5
M5
G0 X34.000 Y32.120
M4 S300
G1 X34.473 Y32.120
M5
M5
G0 X34.880 Y32.120
M4 S300
G1 X35.904 Y32.120
M5
M5
G0 X37.621 Y32.120
M4 S300
G1 X38.851 Y32.120
M5
M5
G0 X40.057 Y32.120
M4 S300
G1 X40.545 Y32.120
M5
M5
G0 X42.164 Y32.120
M4 S300
G1 X43.531 Y32.120
M5
M5
G0 X46.497 Y32.120
M4 S300
G1 X47.091 Y32.120
M5
M5
G0 X48.302 Y32.120
M4 S300
G1 X48.899 Y32.120
M5
M5
G0 X50.002 Y32.120
M4 S300
G1 X50.490 Y32.120
M5
M5
G0 X51.854 Y32.120
M4 S300
G1 X52.345 Y32.120
M5
M5
G0 X53.005 Y32.120
M4 S300
G1 X53.494 Y32.120
M5
M5
G0 X54.771 Y32.120
M4 S300
G1 X55.882 Y32.120
M5
M5
G0 X56.937 Y32.120
M4 S300
G1 X57.425 Y32.120
M5
M5
G0 X58.790 Y32.120
M4 S300
G1 X59.281 Y32.120
M5
M5
G0 X61.727 Y32.120
M4 S300
G1 X62.579 Y32.120
M5
M5
G0 X62.956 Y32.120
M4 S300
G1 X63.444 Y32.120
M5
M5
G0 X64.174 Y32.120
M4 S300
G1 X64.663 Y32.120
M5
M5
G0 X66.027 Y32.120
M4 S300
G1 X66.518 Y32.120
M5
M5
G0 X67.967 Y32.120
M4 S300
G1 X68.467 Y32.120
M5
M5
G0 X71.993 Y32.120
M4 S300
G1 X73.224 Y32.120
M5
M5
G0 X74.429 Y32.120
M4 S300
G1 X74.917 Y32.120
M5
M5
G0 X76.282 Y32.120
M4 S300
G1 X76.773 Y32.120
M5
M5
G0 X78.126 Y32.120
M4 S300
G1 X78.745 Y32.120
M5
M5
G0 X80.740 Y32.120
M4 S300
G1 X81.971 Y32.120
M5
M5
G0 X83.166 Y32.120
M4 S300
G1 X83.654 Y32.120
M5
M5
G0 X84.940 Y32.120
M4 S300
G1 X86.134 Y32.120
M5
M5
G0 X87.388 Y32.120
M4 S300
G1 X87.876 Y32.120
M5
M5
G0 X88.261 Y32.120
M4 S300
G1 X89.281 Y32.120
M5
M5
G0 X90.998 Y32.120
M4 S300
G1 X92.228 Y32.120
M5
M5
G0 X17.142 Y32.300
M4 S300
G1 X17.631 Y32.300
M5
M5
G0 X19.238 Y32.300
M4 S300
G1 X21.051 Y32.300
M5
M5
G0 X21.966 Y32.300
M4 S300
G1 X22.452 Y32.300
M5
M5
G0 X23.664 Y32.300
M4 S300
G1 X24.147 Y32.300
M5
M5
G0 X25.360 Y32.300
M4 S300
G1 X25.843 Y32.300
M5
M5
G0 X26.775 Y32.300
M4 S300
G1 X28.588 Y32.300
M5
M5
G0 X29.503 Y32.300
M4 S300
G1 X29.989 Y32.300
M5
M5
G0 X31.201 Y32.300
M4 S300
G1 X31.684 Y32.300
M5
M5
G0 X32.896 Y32.300
M4 S300
G1 X33.379 Y32.300
M5
M5
G0 X34.008 Y32.300
M4 S300
G1 X34.486 Y32.300
M5
M5
G0 X34.649 Y32.300
M4 S300
G1 X36.147 Y32.300
M5
M5
G0 X37.329 Y32.300
M4 S300
G1 X39.142 Y32.300
M5
M5
G0 X40.057 Y32.300
M4 S300
G1 X40.545 Y32.300
M5
M5
G0 X41.878 Y32.300
M4 S300
G1 X43.822 Y32.300
M5
M5
G0 X46.446 Y32.300
M4 S300
G1 X47.137 Y32.300
M5
M5
G0 X48.258 Y32.300
M4 S300
G1 X48.951 Y32.300
M5
M5
G0 X50.002 Y32.300
M4 S300
G1 X50.490 Y32.300
M5
M5
G0 X51.854 Y32.300
M4 S300
G1 X52.345 Y32.300
M5
M5
G0 X53.005 Y32.300
M4 S300
G1 X53.494 Y32.300
M5
M5
G0 X54.494 Y32.300
M4 S300
G1 X56.151 Y32.300
M5
M5
G0 X56.937 Y32.300
M4 S300
G1 X57.425 Y32.300
M5
M5
G0 X58.790 Y32.300
M4 S300
G1 X59.281 Y32.300
M5
M5
G0 X61.577 Y32.300
M4 S300
G1 X62.579 Y32.300
M5
M5
G0 X62.956 Y32.300
M4 S300
G1 X63.444 Y32.300
M5
M5
G0 X64.174 Y32.300
M4 S300
G1 X64.663 Y32.300
M5
M5
G0 X66.027 Y32.300
M4 S300
G1 X66.518 Y32.300
M5
M5
G0 X67.895 Y32.300
M4 S300
G1 X68.536 Y32.300
M5
M5
G0 X71.701 Y32.300
M4 S300
G1 X73.514 Y32.300
M5
M5
G0 X74.429 Y32.300
M4 S300
G1 X74.917 Y32.300
M5
M5
G0 X76.282 Y32.300
M4 S300
G1 X76.773 Y32.300
M5
M5
G0 X78.060 Y32.300
M4 S300
G1 X78.812 Y32.300
M5
M5
G0 X80.448 Y32.300
M4 S300
G1 X82.261 Y32.300
M5
M5
G0 X83.166 Y32.300
M4 S300
G1 X83.654 Y32.300
M5
M5
G0 X84.656 Y32.300
M4 S300
G1 X86.425 Y32.300
M5
M5
G0 X87.388 Y32.300
M4 S300
G1 X87.875 Y32.300
M5
M5
G0 X88.024 Y32.300
M4 S300
G1 X89.524 Y32.300
M5
M5
G0 X90.706 Y32.300
M4 S300
G1 X92.518 Y32.300
M5
M5
G0 X17.142 Y32.480
M4 S300
G1 X17.631 Y32.480
M5
M5
G0 X19.077 Y32.480
M4 S300
G1 X19.712 Y32.480
M5
M5
G0 X20.601 Y32.480
M4 S300
G1 X21.210 Y32.480
M5
M5
G0 X21.966 Y32.480
M4 S300
G1 X22.452 Y32.480
M5
M5
G0 X23.664 Y32.480
M4 S300
G1 X24.147 Y32.480
M5
M5
G0 X25.360 Y32.480
M4 S300
G1 X25.843 Y32.480
M5
M5
G0 X26.614 Y32.480
M4 S300
G1 X27.249 Y32.480
M5
M5
G0 X28.138 Y32.480
M4 S300
G1 X28.746 Y32.480
M5
M5
G0 X29.503 Y32.480
M4 S300
G1 X29.989 Y32.480
M5
M5
G0 X31.201 Y32.480
M4 S300
G1 X31.684 Y32.480
M5
M5
G0 X32.896 Y32.480
M4 S300
G1 X33.379 Y32.480
M5
M5
G0 X34.011 Y32.480
M4 S300
G1 X34.494 Y32.480
M5
M5
G0 X34.522 Y32.480
M4 S300
G1 X34.855 Y32.480
M5
M5
G0 X35.667 Y32.480
M4 S300
G1 X36.274 Y32.480
M5
M5
G0 X37.168 Y32.480
M4 S300
G1 X37.803 Y32.480
M5
M5
G0 X38.692 Y32.480
M4 S300
G1 X39.300 Y32.480
M5
M5
G0 X40.057 Y32.480
M4 S300
G1 X40.545 Y32.480
M5
M5
G0 X41.738 Y32.480
M4 S300
G1 X42.344 Y32.480
M5
M5
G0 X43.382 Y32.480
M4 S300
G1 X43.962 Y32.480
M5
M5
G0 X46.396 Y32.480
M4 S300
G1 X46.784 Y32.480
M5
M5
G0 X46.789 Y32.480
M4 S300
G1 X47.183 Y32.480
M5
M5
G0 X48.213 Y32.480
M4 S300
G1 X48.603 Y32.480
M5
M5
G0 X48.609 Y32.480
M4 S300
G1 X49.002 Y32.480
M5
M5
G0 X50.002 Y32.480
M4 S300
G1 X50.490 Y32.480
M5
M5
G0 X51.854 Y32.480
M4 S300
G1 X52.345 Y32.480
M5
M5
G0 X53.005 Y32.480
M4 S300
G1 X53.494 Y32.480
M5
M5
G0 X54.340 Y32.480
M4 S300
G1 X54.975 Y32.480
M5
M5
G0 X55.677 Y32.480
M4 S300
G1 X56.304 Y32.480
M5
M5
G0 X56.937 Y32.480
M4 S300
G1 X57.425 Y32.480
M5
M5
G0 X58.790 Y32.480
M4 S300
G1 X59.281 Y32.480
M5
M5
G0 X61.519 Y32.480
M4 S300
G1 X62.070 Y32.480
M5
M5
G0 X62.956 Y32.480
M4 S300
G1 X63.444 Y32.480
M5
M5
G0 X64.174 Y32.480
M4 S300
G1 X64.663 Y32.480
M5
M5
G0 X66.027 Y32.480
M4 S300
G1 X66.518 Y32.480
M5
M5
G0 X67.823 Y32.480
M4 S300
G1 X68.605 Y32.480
M5
M5
G0 X71.540 Y32.480
M4 S300
G1 X72.175 Y32.480
M5
M5
G0 X73.064 Y32.480
M4 S300
G1 X73.672 Y32.480
M5
M5
G0 X74.429 Y32.480
M4 S300
G1 X74.917 Y32.480
M5
M5
G0 X76.282 Y32.480
M4 S300
G1 X76.773 Y32.480
M5
M5
G0 X77.995 Y32.480
M4 S300
G1 X78.424 Y32.480
M5
M5
G0 X78.444 Y32.480
M4 S300
G1 X78.879 Y32.480
M5
M5
G0 X80.287 Y32.480
M4 S300
G1 X80.922 Y32.480
M5
M5
G0 X81.811 Y32.480
M4 S300
G1 X82.420 Y32.480
M5
M5
G0 X83.166 Y32.480
M4 S300
G1 X83.654 Y32.480
M5
M5
G0 X84.501 Y32.480
M4 S300
G1 X85.112 Y32.480
M5
M5
G0 X85.971 Y32.480
M4 S300
G1 X86.586 Y32.480
M5
M5
G0 X87.388 Y32.480
M4 S300
G1 X87.870 Y32.480
M5
M5
G0 X87.901 Y32.480
M4 S300
G1 X88.231 Y32.480
M5
M5
G0 X89.043 Y32.480
M4 S300
G1 X89.650 Y32.480
M5
M5
G0 X90.545 Y32.480
M4 S300
G1 X91.180 Y32.480
M5
M5
G0 X92.068 Y32.480
M4 S300
G1 X92.677 Y32.480
M5
M5
G0 X17.142 Y32.660
M4 S300
G1 X17.631 Y32.660
M5
M5
G0 X18.969 Y32.660
M4 S300
G1 X19.514 Y32.660
M5
M5
G0 X20.810 Y32.660
M4 S300
G1 X21.307 Y32.660
M5
M5
G0 X21.966 Y32.660
M4 S300
G1 X22.452 Y32.660
M5
M5
G0 X23.664 Y32.660
M4 S300
G1 X24.147 Y32.660
M5
M5
G0 X25.360 Y32.660
M4 S300
G1 X25.843 Y32.660
M5
M5
G0 X26.506 Y32.660
M4 S300
G1 X27.051 Y32.660
M5
M5
G0 X28.346 Y32.660
M4 S300
G1 X28.843 Y32.660
M5
M5
G0 X29.503 Y32.660
M4 S300
G1 X29.989 Y32.660
M5
M5
G0 X31.201 Y32.660
M4 S300
G1 X31.684 Y32.660
M5
M5
G0 X32.896 Y32.660
M4 S300
G1 X33.379 Y32.660
M5
M5
G0 X34.012 Y32.660
M4 S300
G1 X34.676 Y32.660
M5
M5
G0 X35.826 Y32.660
M4 S300
G1 X36.354 Y32.660
M5
M5
G0 X37.060 Y32.660
M4 S300
G1 X37.605 Y32.660
M5
M5
G0 X38.900 Y32.660
M4 S300
G1 X39.397 Y32.660
M5
M5
G0 X40.057 Y32.660
M4 S300
G1 X40.545 Y32.660
M5
M5
G0 X41.659 Y32.660
M4 S300
G1 X42.141 Y32.660
M5
M5
G0 X43.548 Y32.660
M4 S300
G1 X44.031 Y32.660
M5
M5
G0 X46.345 Y32.660
M4 S300
G1 X46.746 Y32.660
M5
M5
G0 X46.830 Y32.660
M4 S300
G1 X47.230 Y32.660
M5
M5
G0 X48.169 Y32.660
M4 S300
G1 X48.560 Y32.660
M5
M5
G0 X48.649 Y32.660
M4 S300
G1 X49.054 Y32.660
M5
M5
G0 X50.002 Y32.660
M4 S300
G1 X50.490 Y32.660
M5
M5
G0 X51.854 Y32.660
M4 S300
G1 X52.345 Y32.660
M5
M5
G0 X53.005 Y32.660
M4 S300
G1 X53.494 Y32.660
M5
M5
G0 X54.237 Y32.660
M4 S300
G1 X54.782 Y32.660
M5
M5
G0 X55.870 Y32.660
M4 S300
G1 X56.398 Y32.660
M5
M5
G0 X56.937 Y32.660
M4 S300
G1 X57.425 Y32.660
M5
M5
G0 X58.790 Y32.660
M4 S300
G1 X59.281 Y32.660
M5
M5
G0 X61.501 Y32.660
M4 S300
G1 X61.997 Y32.660
M5
M5
G0 X62.956 Y32.660
M4 S300
G1 X63.444 Y32.660
M5
M5
G0 X64.174 Y32.660
M4 S300
G1 X64.663 Y32.660
M5
M5
G0 X66.027 Y32.660
M4 S300
G1 X66.518 Y32.660
M5
M5
G0 X67.752 Y32.660
M4 S300
G1 X68.205 Y32.660
M5
M5
G0 X68.248 Y32.660
M4 S300
G1 X68.674 Y32.660
M5
M5
G0 X71.432 Y32.660
M4 S300
G1 X71.977 Y32.660
M5
M5
G0 X73.272 Y32.660
M4 S300
G1 X73.769 Y32.660
M5
M5
G0 X74.429 Y32.660
M4 S300
G1 X74.917 Y32.660
M5
M5
G0 X76.282 Y32.660
M4 S300
G1 X76.773 Y32.660
M5
M5
G0 X77.930 Y32.660
M4 S300
G1 X78.373 Y32.660
M5
M5
G0 X78.498 Y32.660
M4 S300
G1 X78.947 Y32.660
M5
M5
G0 X80.179 Y32.660
M4 S300
G1 X80.724 Y32.660
M5
M5
G0 X82.020 Y32.660
M4 S300
G1 X82.517 Y32.660
M5
M5
G0 X83.166 Y32.660
M4 S300
G1 X83.654 Y32.660
M5
M5
G0 X84.395 Y32.660
M4 S300
G1 X84.932 Y32.660
M5
M5
G0 X86.156 Y32.660
M4 S300
G1 X86.691 Y32.660
M5
M5
G0 X87.388 Y32.660
M4 S300
G1 X88.052 Y32.660
M5
M5
G0 X89.203 Y32.660
M4 S300
G1 X89.730 Y32.660
M5
M5
G0 X90.437 Y32.660
M4 S300
G1 X90.982 Y32.660
M5
M5
G0 X92.277 Y32.660
M4 S300
G1 X92.774 Y32.660
M5
M5
G0 X17.142 Y32.840
M4 S300
G1 X17.631 Y32.840
M5
M5
G0 X18.899 Y32.840
M4 S300
G1 X19.413 Y32.840
M5
M5
G0 X21.966 Y32.840
M4 S300
G1 X22.452 Y32.840
M5
M5
G0 X23.664 Y32.840
M4 S300
G1 X24.147 Y32.840
M5
M5
G0 X25.360 Y32.840
M4 S300
G1 X25.843 Y32.840
M5
M5
G0 X26.436 Y32.840
M4 S300
G1 X26.950 Y32.840
M5
M5
G0 X29.503 Y32.840
M4 S300
G1 X29.989 Y32.840
M5
M5
G0 X31.201 Y32.840
M4 S300
G1 X31.684 Y32.840
M5
M5
G0 X32.896 Y32.840
M4 S300
G1 X33.379 Y32.840
M5
M5
G0 X34.012 Y32.840
M4 S300
G1 X34.590 Y32.840
M5
M5
G0 X35.901 Y32.840
M4 S300
G1 X36.414 Y32.840
M5
M5
G0 X36.990 Y32.840
M4 S300
G1 X37.504 Y32.840
M5
M5
G0 X40.057 Y32.840
M4 S300
G1 X40.545 Y32.840
M5
M5
G0 X43.581 Y32.840
M4 S300
G1 X44.053 Y32.840
M5
M5
G0 X46.295 Y32.840
M4 S300
G1 X46.708 Y32.840
M5
M5
G0 X46.877 Y32.840
M4 S300
G1 X47.276 Y32.840
M5
M5
G0 X48.124 Y32.840
M4 S300
G1 X48.516 Y32.840
M5
M5
G0 X48.689 Y32.840
M4 S300
G1 X49.105 Y32.840
M5
M5
G0 X50.002 Y32.840
M4 S300
G1 X50.490 Y32.840
M5
M5
G0 X51.854 Y32.840
M4 S300
G1 X52.345 Y32.840
M5
M5
G0 X53.005 Y32.840
M4 S300
G1 X53.494 Y32.840
M5
M5
G0 X54.169 Y32.840
M4 S300
G1 X54.689 Y32.840
M5
M5
G0 X55.949 Y32.840
M4 S300
G1 X56.453 Y32.840
M5
M5
G0 X56.937 Y32.840
M4 S300
G1 X57.425 Y32.840
M5
M5
G0 X58.790 Y32.840
M4 S300
G1 X59.281 Y32.840
M5
M5
G0 X61.500 Y32.840
M4 S300
G1 X61.988 Y32.840
M5
M5
G0 X62.956 Y32.840
M4 S300
G1 X63.444 Y32.840
M5
M5
G0 X64.174 Y32.840
M4 S300
G1 X64.663 Y32.840
M5
M5
G0 X66.027 Y32.840
M4 S300
G1 X66.518 Y32.840
M5
M5
G0 X67.680 Y32.840
M4 S300
G1 X68.145 Y32.840
M5
M5
G0 X68.312 Y32.840
M4 S300
G1 X68.743 Y32.840
M5
M5
G0 X71.362 Y32.840
M4 S300
G1 X71.876 Y32.840
M5
M5
G0 X74.429 Y32.840
M4 S300
G1 X74.917 Y32.840
M5
M5
G0 X76.282 Y32.840
M4 S300
G1 X76.773 Y32.840
M5
M5
G0 X77.864 Y32.840
M4 S300
G1 X78.321 Y32.840
M5
M5
G0 X78.554 Y32.840
M4 S300
G1 X79.014 Y32.840
M5
M5
G0 X80.109 Y32.840
M4 S300
G1 X80.623 Y32.840
M5
M5
G0 X83.166 Y32.840
M4 S300
G1 X83.654 Y32.840
M5
M5
G0 X84.326 Y32.840
M4 S300
G1 X84.844 Y32.840
M5
M5
G0 X86.244 Y32.840
M4 S300
G1 X86.759 Y32.840
M5
M5
G0 X87.388 Y32.840
M4 S300
G1 X87.966 Y32.840
M5
M5
G0 X89.278 Y32.840
M4 S300
G1 X89.791 Y32.840
M5
M5
G0 X90.366 Y32.840
M4 S300
G1 X90.881 Y32.840
M5
M5
G0 X17.142 Y33.020
M4 S300
G1 X17.631 Y33.020
M5
M5
G0 X18.852 Y33.020
M4 S300
G1 X19.356 Y33.020
M5
M5
G0 X21.966 Y33.020
M4 S300
G1 X22.452 Y33.020
M5
M5
G0 X23.664 Y33.020
M4 S300
G1 X24.147 Y33.020
M5
M5
G0 X25.360 Y33.020
M4 S300
G1 X25.843 Y33.020
M5
M5
G0 X26.388 Y33.020
M4 S300
G1 X26.892 Y33.020
M5
M5
G0 X29.503 Y33.020
M4 S300
G1 X29.989 Y33.020
M5
M5
G0 X31.201 Y33.020
M4 S300
G1 X31.684 Y33.020
M5
M5
G0 X32.896 Y33.020
M4 S300
G1 X33.379 Y33.020
M5
M5
G0 X34.012 Y33.020
M4 S300
G1 X34.542 Y33.020
M5
M5
G0 X35.942 Y33.020
M4 S300
G1 X36.449 Y33.020
M5
M5
G0 X36.942 Y33.020
M4 S300
G1 X37.446 Y33.020
M5
M5
G0 X40.057 Y33.020
M4 S300
G1 X40.545 Y33.020
M5
M5
G0 X43.538 Y33.020
M4 S300
G1 X44.044 Y33.020
M5
M5
G0 X46.245 Y33.020
M4 S300
G1 X46.666 Y33.020
M5
M5
G0 X46.925 Y33.020
M4 S300
G1 X47.322 Y33.020
M5
M5
G0 X48.080 Y33.020
M4 S300
G1 X48.472 Y33.020
M5
M5
G0 X48.736 Y33.020
M4 S300
G1 X49.157 Y33.020
M5
M5
G0 X50.002 Y33.020
M4 S300
G1 X50.490 Y33.020
M5
M5
G0 X51.854 Y33.020
M4 S300
G1 X52.345 Y33.020
M5
M5
G0 X53.005 Y33.020
M4 S300
G1 X53.494 Y33.020
M5
M5
G0 X54.124 Y33.020
M4 S300
G1 X54.636 Y33.020
M5
M5
G0 X56.937 Y33.020
M4 S300
G1 X57.425 Y33.020
M5
M5
G0 X58.790 Y33.020
M4 S300
G1 X59.281 Y33.020
M5
M5
G0 X61.500 Y33.020
M4 S300
G1 X61.988 Y33.020
M5
M5
G0 X62.956 Y33.020
M4 S300
G1 X63.444 Y33.020
M5
M5
G0 X64.174 Y33.020
M4 S300
G1 X64.663 Y33.020
M5
M5
G0 X66.027 Y33.020
M4 S300
G1 X66.518 Y33.020
M5
M5
G0 X67.608 Y33.020
M4 S300
G1 X68.084 Y33.020
M5
M5
G0 X68.376 Y33.020
M4 S300
G1 X68.813 Y33.020
M5
M5
G0 X71.314 Y33.020
M4 S300
G1 X71.818 Y33.020
M5
M5
G0 X74.429 Y33.020
M4 S300
G1 X74.917 Y33.020
M5
M5
G0 X76.282 Y33.020
M4 S300
G1 X76.773 Y33.020
M5
M5
G0 X77.799 Y33.020
M4 S300
G1 X78.268 Y33.020
M5
M5
G0 X78.613 Y33.020
M4 S300
G1 X79.081 Y33.020
M5
M5
G0 X80.062 Y33.020
M4 S300
G1 X80.566 Y33.020
M5
M5
G0 X83.166 Y33.020
M4 S300
G1 X83.654 Y33.020
M5
M5
G0 X84.279 Y33.020
M4 S300
G1 X84.792 Y33.020
M5
M5
G0 X86.293 Y33.020
M4 S300
G1 X86.805 Y33.020
M5
M5
G0 X87.388 Y33.020
M4 S300
G1 X87.918 Y33.020
M5
M5
G0 X89.319 Y33.020
M4 S300
G1 X89.826 Y33.020
M5
M5
G0 X90.319 Y33.020
M4 S300
G1 X90.823 Y33.020
M5
M5
G0 X17.142 Y33.200
M4 S300
G1 X17.631 Y33.200
M5
M5
G0 X18.822 Y33.200
M4 S300
G1 X19.325 Y33.200
M5
M5
G0 X21.966 Y33.200
M4 S300
G1 X22.452 Y33.200
M5
M5
G0 X23.664 Y33.200
M4 S300
G1 X24.147 Y33.200
M5
M5
G0 X25.360 Y33.200
M4 S300
G1 X25.843 Y33.200
M5
M5
G0 X26.358 Y33.200
M4 S300
G1 X26.862 Y33.200
M5
M5
G0 X29.503 Y33.200
M4 S300
G1 X29.989 Y33.200
M5
M5
G0 X31.201 Y33.200
M4 S300
G1 X31.684 Y33.200
M5
M5
G0 X32.896 Y33.200
M4 S300
G1 X33.379 Y33.200
M5
M5
G0 X34.012 Y33.200
M4 S300
G1 X34.514 Y33.200
M5
M5
G0 X35.967 Y33.200
M4 S300
G1 X36.475 Y33.200
M5
M5
G0 X36.912 Y33.200
M4 S300
G1 X37.416 Y33.200
M5
M5
G0 X40.057 Y33.200
M4 S300
G1 X40.545 Y33.200
M5
M5
G0 X43.341 Y33.200
M4 S300
G1 X43.990 Y33.200
M5
M5
G0 X46.194 Y33.200
M4 S300
G1 X46.621 Y33.200
M5
M5
G0 X46.972 Y33.200
M4 S300
G1 X47.368 Y33.200
M5
M5
G0 X48.035 Y33.200
M4 S300
G1 X48.426 Y33.200
M5
M5
G0 X48.782 Y33.200
M4 S300
G1 X49.209 Y33.200
M5
M5
G0 X50.002 Y33.200
M4 S300
G1 X50.490 Y33.200
M5
M5
G0 X51.854 Y33.200
M4 S300
G1 X52.345 Y33.200
M5
M5
G0 X53.005 Y33.200
M4 S300
G1 X53.494 Y33.200
M5
M5
G0 X54.095 Y33.200
M4 S300
G1 X54.605 Y33.200
M5
M5
G0 X56.937 Y33.200
M4 S300
G1 X57.425 Y33.200
M5
M5
G0 X58.790 Y33.200
M4 S300
G1 X59.281 Y33.200
M5
M5
G0 X61.500 Y33.200
M4 S300
G1 X61.988 Y33.200
M5
M5
G0 X62.956 Y33.200
M4 S300
G1 X63.444 Y33.200
M5
M5
G0 X64.174 Y33.200
M4 S300
G1 X64.663 Y33.200
M5
M5
G0 X66.027 Y33.200
M4 S300
G1 X66.518 Y33.200
M5
M5
G0 X67.537 Y33.200
M4 S300
G1 X68.022 Y33.200
M5
M5
G0 X68.439 Y33.200
M4 S300
G1 X68.882 Y33.200
M5
M5
G0 X71.284 Y33.200
M4 S300
G1 X71.788 Y33.200
M5
M5
G0 X74.429 Y33.200
M4 S300
G1 X74.917 Y33.200
M5
M5
G0 X76.282 Y33.200
M4 S300
G1 X76.773 Y33.200
M5
M5
G0 X77.733 Y33.200
M4 S300
G1 X78.209 Y33.200
M5
M5
G0 X78.675 Y33.200
M4 S300
G1 X79.148 Y33.200
M5
M5
G0 X80.032 Y33.200
M4 S300
G1 X80.536 Y33.200
M5
M5
G0 X83.166 Y33.200
M4 S300
G1 X83.654 Y33.200
M5
M5
G0 X84.250 Y33.200
M4 S300
G1 X84.762 Y33.200
M5
M5
G0 X86.322 Y33.200
M4 S300
G1 X86.833 Y33.200
M5
M5
G0 X87.388 Y33.200
M4 S300
G1 X87.891 Y33.200
M5
M5
G0 X89.343 Y33.200
M4 S300
G1 X89.852 Y33.200
M5
M5
G0 X90.289 Y33.200
M4 S300
G1 X90.793 Y33.200
M5
M5
G0 X17.142 Y33.380
M4 S300
G1 X17.631 Y33.380
M5
M5
G0 X18.805 Y33.380
M4 S300
G1 X19.314 Y33.380
M5
M5
G0 X21.966 Y33.380
M4 S300
G1 X22.452 Y33.380
M5
M5
G0 X23.664 Y33.380
M4 S300
G1 X24.147 Y33.380
M5
M5
G0 X25.360 Y33.380
M4 S300
G1 X25.843 Y33.380
M5
M5
G0 X26.342 Y33.380
M4 S300
G1 X26.851 Y33.380
M5
M5
G0 X29.503 Y33.380
M4 S300
G1 X29.989 Y33.380
M5
M5
G0 X31.201 Y33.380
M4 S300
G1 X31.684 Y33.380
M5
M5
G0 X32.896 Y33.380
M4 S300
G1 X33.379 Y33.380
M5
M5
G0 X34.012 Y33.380
M4 S300
G1 X34.503 Y33.380
M5
M5
G0 X35.978 Y33.380
M4 S300
G1 X36.485 Y33.380
M5
M5
G0 X36.896 Y33.380
M4 S300
G1 X37.405 Y33.380
M5
M5
G0 X40.057 Y33.380
M4 S300
G1 X40.545 Y33.380
M5
M5
G0 X42.765 Y33.380
M4 S300
G1 X43.873 Y33.380
M5
M5
G0 X46.144 Y33.380
M4 S300
G1 X46.576 Y33.380
M5
M5
G0 X47.020 Y33.380
M4 S300
G1 X47.413 Y33.380
M5
M5
G0 X47.991 Y33.380
M4 S300
G1 X48.381 Y33.380
M5
M5
G0 X48.829 Y33.380
M4 S300
G1 X49.260 Y33.380
M5
M5
G0 X50.002 Y33.380
M4 S300
G1 X50.490 Y33.380
M5
M5
G0 X51.854 Y33.380
M4 S300
G1 X52.345 Y33.380
M5
M5
G0 X53.005 Y33.380
M4 S300
G1 X53.494 Y33.380
M5
M5
G0 X54.080 Y33.380
M4 S300
G1 X54.589 Y33.380
M5
M5
G0 X56.937 Y33.380
M4 S300
G1 X57.425 Y33.380
M5
M5
G0 X58.790 Y33.380
M4 S300
G1 X59.281 Y33.380
M5
M5
G0 X61.500 Y33.380
M4 S300
G1 X61.988 Y33.380
M5
M5
G0 X62.956 Y33.380
M4 S300
G1 X63.444 Y33.380
M5
M5
G0 X64.174 Y33.380
M4 S300
G1 X64.663 Y33.380
M5
M5
G0 X66.027 Y33.380
M4 S300
G1 X66.518 Y33.380
M5
M5
G0 X67.465 Y33.380
M4 S300
G1 X67.958 Y33.380
M5
M5
G0 X68.501 Y33.380
M4 S300
G1 X68.951 Y33.380
M5
M5
G0 X71.268 Y33.380
M4 S300
G1 X71.777 Y33.380
M5
M5
G0 X74.429 Y33.380
M4 S300
G1 X74.917 Y33.380
M5
M5
G0 X76.282 Y33.380
M4 S300
G1 X76.773 Y33.380
M5
M5
G0 X77.668 Y33.380
M4 S300
G1 X78.148 Y33.380
M5
M5
G0 X78.738 Y33.380
M4 S300
G1 X79.215 Y33.380
M5
M5
G0 X80.016 Y33.380
M4 S300
G1 X80.524 Y33.380
M5
M5
G0 X83.166 Y33.380
M4 S300
G1 X83.654 Y33.380
M5
M5
G0 X84.235 Y33.380
M4 S300
G1 X84.746 Y33.380
M5
M5
G0 X86.337 Y33.380
M4 S300
G1 X86.848 Y33.380
M5
M5
G0 X87.388 Y33.380
M4 S300
G1 X87.879 Y33.380
M5
M5
G0 X89.354 Y33.380
M4 S300
G1 X89.861 Y33.380
M5
M5
G0 X90.273 Y33.380
M4 S300
G1 X90.781 Y33.380
M5
M5
G0 X17.142 Y33.560
M4 S300
G1 X17.631 Y33.560
M5
M5
G0 X18.800 Y33.560
M4 S300
G1 X21.402 Y33.560
M5
M5
G0 X21.966 Y33.560
M4 S300
G1 X22.452 Y33.560
M5
M5
G0 X23.664 Y33.560
M4 S300
G1 X24.147 Y33.560
M5
M5
G0 X25.360 Y33.560
M4 S300
G1 X25.843 Y33.560
M5
M5
G0 X26.337 Y33.560
M4 S300
G1 X28.939 Y33.560
M5
M5
G0 X29.503 Y33.560
M4 S300
G1 X29.989 Y33.560
M5
M5
G0 X31.201 Y33.560
M4 S300
G1 X31.684 Y33.560
M5
M5
G0 X32.896 Y33.560
M4 S300
G1 X33.379 Y33.560
M5
M5
G0 X34.012 Y33.560
M4 S300
G1 X34.501 Y33.560
M5
M5
G0 X35.980 Y33.560
M4 S300
G1 X36.493 Y33.560
M5
M5
G0 X36.891 Y33.560
M4 S300
G1 X39.493 Y33.560
M5
M5
G0 X40.057 Y33.560
M4 S300
G1 X40.545 Y33.560
M5
M5
G0 X42.213 Y33.560
M4 S300
G1 X43.635 Y33.560
M5
M5
G0 X46.093 Y33.560
M4 S300
G1 X46.531 Y33.560
M5
M5
G0 X47.067 Y33.560
M4 S300
G1 X47.459 Y33.560
M5
M5
G0 X47.946 Y33.560
M4 S300
G1 X48.335 Y33.560
M5
M5
G0 X48.875 Y33.560
M4 S300
G1 X49.312 Y33.560
M5
M5
G0 X50.002 Y33.560
M4 S300
G1 X50.490 Y33.560
M5
M5
G0 X51.854 Y33.560
M4 S300
G1 X52.345 Y33.560
M5
M5
G0 X53.005 Y33.560
M4 S300
G1 X53.494 Y33.560
M5
M5
G0 X54.076 Y33.560
M4 S300
G1 X54.585 Y33.560
M5
M5
G0 X56.937 Y33.560
M4 S300
G1 X57.425 Y33.560
M5
M5
G0 X58.790 Y33.560
M4 S300
G1 X59.281 Y33.560
M5
M5
G0 X61.500 Y33.560
M4 S300
G1 X61.988 Y33.560
M5
M5
G0 X62.956 Y33.560
M4 S300
G1 X63.444 Y33.560
M5
M5
G0 X64.174 Y33.560
M4 S300
G1 X64.663 Y33.560
M5
M5
G0 X66.027 Y33.560
M4 S300
G1 X66.518 Y33.560
M5
M5
G0 X67.393 Y33.560
M4 S300
G1 X67.889 Y33.560
M5
M5
G0 X68.563 Y33.560
M4 S300
G1 X69.020 Y33.560
M5
M5
G0 X71.263 Y33.560
M4 S300
G1 X73.865 Y33.560
M5
M5
G0 X74.429 Y33.560
M4 S300
G1 X74.917 Y33.560
M5
M5
G0 X76.282 Y33.560
M4 S300
G1 X76.773 Y33.560
M5
M5
G0 X77.603 Y33.560
M4 S300
G1 X78.087 Y33.560
M5
M5
G0 X78.800 Y33.560
M4 S300
G1 X79.283 Y33.560
M5
M5
G0 X80.010 Y33.560
M4 S300
G1 X82.612 Y33.560
M5
M5
G0 X83.166 Y33.560
M4 S300
G1 X83.654 Y33.560
M5
M5
G0 X84.232 Y33.560
M4 S300
G1 X84.743 Y33.560
M5
M5
G0 X86.340 Y33.560
M4 S300
G1 X86.852 Y33.560
M5
M5
G0 X87.388 Y33.560
M4 S300
G1 X87.877 Y33.560
M5
M5
G0 X89.357 Y33.560
M4 S300
G1 X89.870 Y33.560
M5
M5
G0 X90.268 Y33.560
M4 S300
G1 X92.870 Y33.560
M5
M5
G0 X17.142 Y33.740
M4 S300
G1 X17.635 Y33.740
M5
M5
G0 X18.806 Y33.740
M4 S300
G1 X21.391 Y33.740
M5
M5
G0 X21.966 Y33.740
M4 S300
G1 X22.452 Y33.740
M5
M5
G0 X23.664 Y33.740
M4 S300
G1 X24.147 Y33.740
M5
M5
G0 X25.360 Y33.740
M4 S300
G1 X25.843 Y33.740
M5
M5
G0 X26.343 Y33.740
M4 S300
G1 X28.928 Y33.740
M5
M5
G0 X29.503 Y33.740
M4 S300
G1 X29.989 Y33.740
M5
M5
G0 X31.201 Y33.740
M4 S300
G1 X31.684 Y33.740
M5
M5
G0 X32.896 Y33.740
M4 S300
G1 X33.379 Y33.740
M5
M5
G0 X34.012 Y33.740
M4 S300
G1 X34.509 Y33.740
M5
M5
G0 X35.975 Y33.740
M4 S300
G1 X36.489 Y33.740
M5
M5
G0 X36.897 Y33.740
M4 S300
G1 X39.481 Y33.740
M5
M5
G0 X40.057 Y33.740
M4 S300
G1 X40.549 Y33.740
M5
M5
G0 X41.947 Y33.740
M4 S300
G1 X43.134 Y33.740
M5
M5
G0 X46.043 Y33.740
M4 S300
G1 X46.487 Y33.740
M5
M5
G0 X47.114 Y33.740
M4 S300
G1 X47.505 Y33.740
M5
M5
G0 X47.902 Y33.740
M4 S300
G1 X48.289 Y33.740
M5
M5
G0 X48.922 Y33.740
M4 S300
G1 X49.363 Y33.740
M5
M5
G0 X50.002 Y33.740
M4 S300
G1 X50.490 Y33.740
M5
M5
G0 X51.854 Y33.740
M4 S300
G1 X52.345 Y33.740
M5
M5
G0 X53.005 Y33.740
M4 S300
G1 X53.494 Y33.740
M5
M5
G0 X54.082 Y33.740
M4 S300
G1 X54.591 Y33.740
M5
M5
G0 X56.937 Y33.740
M4 S300
G1 X57.425 Y33.740
M5
M5
G0 X58.790 Y33.740
M4 S300
G1 X59.281 Y33.740
M5
M5
G0 X61.500 Y33.740
M4 S300
G1 X61.988 Y33.740
M5
M5
G0 X62.956 Y33.740
M4 S300
G1 X63.444 Y33.740
M5
M5
G0 X64.174 Y33.740
M4 S300
G1 X64.663 Y33.740
M5
M5
G0 X66.027 Y33.740
M4 S300
G1 X66.518 Y33.740
M5
M5
G0 X67.321 Y33.740
M4 S300
G1 X67.821 Y33.740
M5
M5
G0 X68.625 Y33.740
M4 S300
G1 X69.089 Y33.740
M5
M5
G0 X71.269 Y33.740
M4 S300
G1 X73.854 Y33.740
M5
M5
G0 X74.429 Y33.740
M4 S300
G1 X74.917 Y33.740
M5
M5
G0 X76.282 Y33.740
M4 S300
G1 X76.773 Y33.740
M5
M5
G0 X77.537 Y33.740
M4 S300
G1 X78.026 Y33.740
M5
M5
G0 X78.863 Y33.740
M4 S300
G1 X79.350 Y33.740
M5
M5
G0 X80.017 Y33.740
M4 S300
G1 X82.601 Y33.740
M5
M5
G0 X83.166 Y33.740
M4 S300
G1 X83.654 Y33.740
M5
M5
G0 X84.244 Y33.740
M4 S300
G1 X84.750 Y33.740
M5
M5
G0 X86.334 Y33.740
M4 S300
G1 X86.847 Y33.740
M5
M5
G0 X87.388 Y33.740
M4 S300
G1 X87.885 Y33.740
M5
M5
G0 X89.352 Y33.740
M4 S300
G1 X89.865 Y33.740
M5
M5
G0 X90.274 Y33.740
M4 S300
G1 X92.858 Y33.740
M5
M5
G0 X17.142 Y33.920
M4 S300
G1 X17.653 Y33.920
M5
M5
G0 X18.826 Y33.920
M4 S300
G1 X19.327 Y33.920
M5
M5
G0 X20.888 Y33.920
M4 S300
G1 X21.377 Y33.920
M5
M5
G0 X21.966 Y33.920
M4 S300
G1 X22.459 Y33.920
M5
M5
G0 X23.664 Y33.920
M4 S300
G1 X24.154 Y33.920
M5
M5
G0 X25.360 Y33.920
M4 S300
G1 X25.843 Y33.920
M5
M5
G0 X26.362 Y33.920
M4 S300
G1 X26.864 Y33.920
M5
M5
G0 X28.425 Y33.920
M4 S300
G1 X28.914 Y33.920
M5
M5
G0 X29.503 Y33.920
M4 S300
G1 X29.996 Y33.920
M5
M5
G0 X31.201 Y33.920
M4 S300
G1 X31.691 Y33.920
M5
M5
G0 X32.896 Y33.920
M4 S300
G1 X33.379 Y33.920
M5
M5
G0 X34.012 Y33.920
M4 S300
G1 X34.529 Y33.920
M5
M5
G0 X35.959 Y33.920
M4 S300
G1 X36.474 Y33.920
M5
M5
G0 X36.916 Y33.920
M4 S300
G1 X37.418 Y33.920
M5
M5
G0 X38.979 Y33.920
M4 S300
G1 X39.468 Y33.920
M5
M5
G0 X40.057 Y33.920
M4 S300
G1 X40.568 Y33.920
M5
M5
G0 X41.814 Y33.920
M4 S300
G1 X42.500 Y33.920
M5
M5
G0 X45.992 Y33.920
M4 S300
G1 X46.442 Y33.920
M5
M5
G0 X47.162 Y33.920
M4 S300
G1 X47.550 Y33.920
M5
M5
G0 X47.858 Y33.920
M4 S300
G1 X48.243 Y33.920
M5
M5
G0 X48.968 Y33.920
M4 S300
G1 X49.415 Y33.920
M5
M5
G0 X50.002 Y33.920
M4 S300
G1 X50.496 Y33.920
M5
M5
G0 X51.854 Y33.920
M4 S300
G1 X52.345 Y33.920
M5
M5
G0 X53.005 Y33.920
M4 S300
G1 X53.494 Y33.920
M5
M5
G0 X54.101 Y33.920
M4 S300
G1 X54.606 Y33.920
M5
M5
G0 X56.937 Y33.920
M4 S300
G1 X57.431 Y33.920
M5
M5
G0 X58.790 Y33.920
M4 S300
G1 X59.281 Y33.920
M5
M5
G0 X61.500 Y33.920
M4 S300
G1 X61.988 Y33.920
M5
M5
G0 X62.956 Y33.920
M4 S300
G1 X63.444 Y33.920
M5
M5
G0 X64.174 Y33.920
M4 S300
G1 X64.671 Y33.920
M5
M5
G0 X66.027 Y33.920
M4 S300
G1 X66.518 Y33.920
M5
M5
G0 X67.250 Y33.920
M4 S300
G1 X67.752 Y33.920
M5
M5
G0 X68.687 Y33.920
M4 S300
G1 X69.159 Y33.920
M5
M5
G0 X71.288 Y33.920
M4 S300
G1 X71.790 Y33.920
M5
M5
G0 X73.351 Y33.920
M4 S300
G1 X73.840 Y33.920
M5
M5
G0 X74.429 Y33.920
M4 S300
G1 X74.926 Y33.920
M5
M5
G0 X76.282 Y33.920
M4 S300
G1 X76.773 Y33.920
M5
M5
G0 X77.472 Y33.920
M4 S300
G1 X77.966 Y33.920
M5
M5
G0 X78.926 Y33.920
M4 S300
G1 X79.417 Y33.920
M5
M5
G0 X80.036 Y33.920
M4 S300
G1 X80.537 Y33.920
M5
M5
G0 X82.098 Y33.920
M4 S300
G1 X82.587 Y33.920
M5
M5
G0 X83.166 Y33.920
M4 S300
G1 X83.654 Y33.920
M5
M5
G0 X84.256 Y33.920
M4 S300
G1 X84.768 Y33.920
M5
M5
G0 X86.317 Y33.920
M4 S300
G1 X86.829 Y33.920
M5
M5
G0 X87.388 Y33.920
M4 S300
G1 X87.904 Y33.920
M5
M5
G0 X89.336 Y33.920
M4 S300
G1 X89.851 Y33.920
M5
M5
G0 X90.293 Y33.920
M4 S300
G1 X90.794 Y33.920
M5
M5
G0 X92.356 Y33.920
M4 S300
G1 X92.845 Y33.920
M5
M5
G0 X17.142 Y34.100
M4 S300
G1 X17.690 Y34.100
M5
M5
G0 X18.860 Y34.100
M4 S300
G1 X19.361 Y34.100
M5
M5
G0 X20.853 Y34.100
M4 S300
G1 X21.337 Y34.100
M5
M5
G0 X21.966 Y34.100
M4 S300
G1 X22.485 Y34.100
M5
M5
G0 X23.658 Y34.100
M4 S300
G1 X24.179 Y34.100
M5
M5
G0 X25.353 Y34.100
M4 S300
G1 X25.840 Y34.100
M5
M5
G0 X26.397 Y34.100
M4 S300
G1 X26.898 Y34.100
M5
M5
G0 X28.389 Y34.100
M4 S300
G1 X28.873 Y34.100
M5
M5
G0 X29.503 Y34.100
M4 S300
G1 X30.022 Y34.100
M5
M5
G0 X31.195 Y34.100
M4 S300
G1 X31.716 Y34.100
M5
M5
G0 X32.890 Y34.100
M4 S300
G1 X33.377 Y34.100
M5
M5
G0 X34.012 Y34.100
M4 S300
G1 X34.564 Y34.100
M5
M5
G0 X35.931 Y34.100
M4 S300
G1 X36.449 Y34.100
M5
M5
G0 X36.951 Y34.100
M4 S300
G1 X37.452 Y34.100
M5
M5
G0 X38.943 Y34.100
M4 S300
G1 X39.427 Y34.100
M5
M5
G0 X40.057 Y34.100
M4 S300
G1 X40.604 Y34.100
M5
M5
G0 X41.759 Y34.100
M4 S300
G1 X42.266 Y34.100
M5
M5
G0 X45.942 Y34.100
M4 S300
G1 X46.397 Y34.100
M5
M5
G0 X47.209 Y34.100
M4 S300
G1 X47.595 Y34.100
M5
M5
G0 X47.813 Y34.100
M4 S300
G1 X48.198 Y34.100
M5
M5
G0 X49.014 Y34.100
M4 S300
G1 X49.466 Y34.100
M5
M5
G0 X50.002 Y34.100
M4 S300
G1 X50.526 Y34.100
M5
M5
G0 X51.849 Y34.100
M4 S300
G1 X52.343 Y34.100
M5
M5
G0 X53.005 Y34.100
M4 S300
G1 X53.494 Y34.100
M5
M5
G0 X54.134 Y34.100
M4 S300
G1 X54.636 Y34.100
M5
M5
G0 X56.937 Y34.100
M4 S300
G1 X57.461 Y34.100
M5
M5
G0 X58.784 Y34.100
M4 S300
G1 X59.278 Y34.100
M5
M5
G0 X61.500 Y34.100
M4 S300
G1 X61.988 Y34.100
M5
M5
G0 X62.956 Y34.100
M4 S300
G1 X63.444 Y34.100
M5
M5
G0 X64.174 Y34.100
M4 S300
G1 X64.701 Y34.100
M5
M5
G0 X66.021 Y34.100
M4 S300
G1 X66.516 Y34.100
M5
M5
G0 X67.178 Y34.100
M4 S300
G1 X67.684 Y34.100
M5
M5
G0 X68.749 Y34.100
M4 S300
G1 X69.228 Y34.100
M5
M5
G0 X71.323 Y34.100
M4 S300
G1 X71.824 Y34.100
M5
M5
G0 X73.315 Y34.100
M4 S300
G1 X73.799 Y34.100
M5
M5
G0 X74.429 Y34.100
M4 S300
G1 X74.956 Y34.100
M5
M5
G0 X76.275 Y34.100
M4 S300
G1 X76.770 Y34.100
M5
M5
G0 X77.407 Y34.100
M4 S300
G1 X77.905 Y34.100
M5
M5
G0 X78.989 Y34.100
M4 S300
G1 X79.484 Y34.100
M5
M5
G0 X80.070 Y34.100
M4 S300
G1 X80.571 Y34.100
M5
M5
G0 X82.063 Y34.100
M4 S300
G1 X82.547 Y34.100
M5
M5
G0 X83.166 Y34.100
M4 S300
G1 X83.654 Y34.100
M5
M5
G0 X84.295 Y34.100
M4 S300
G1 X84.802 Y34.100
M5
M5
G0 X86.285 Y34.100
M4 S300
G1 X86.799 Y34.100
M5
M5
G0 X87.388 Y34.100
M4 S300
G1 X87.941 Y34.100
M5
M5
G0 X89.307 Y34.100
M4 S300
G1 X89.826 Y34.100
M5
M5
G0 X90.328 Y34.100
M4 S300
G1 X90.828 Y34.100
M5
M5
G0 X92.320 Y34.100
M4 S300
G1 X92.804 Y34.100
M5
M5
G0 X17.142 Y34.280
M4 S300
G1 X17.757 Y34.280
M5
M5
G0 X18.915 Y34.280
M4 S300
G1 X19.427 Y34.280
M5
M5
G0 X20.791 Y34.280
M4 S300
G1 X21.290 Y34.280
M5
M5
G0 X21.966 Y34.280
M4 S300
G1 X22.543 Y34.280
M5
M5
G0 X23.635 Y34.280
M4 S300
G1 X24.235 Y34.280
M5
M5
G0 X25.331 Y34.280
M4 S300
G1 X25.829 Y34.280
M5
M5
G0 X26.452 Y34.280
M4 S300
G1 X26.964 Y34.280
M5
M5
G0 X28.328 Y34.280
M4 S300
G1 X28.827 Y34.280
M5
M5
G0 X29.503 Y34.280
M4 S300
G1 X30.079 Y34.280
M5
M5
G0 X31.172 Y34.280
M4 S300
G1 X31.772 Y34.280
M5
M5
G0 X32.867 Y34.280
M4 S300
G1 X33.365 Y34.280
M5
M5
G0 X34.012 Y34.280
M4 S300
G1 X34.627 Y34.280
M5
M5
G0 X35.879 Y34.280
M4 S300
G1 X36.410 Y34.280
M5
M5
G0 X37.006 Y34.280
M4 S300
G1 X37.518 Y34.280
M5
M5
G0 X38.882 Y34.280
M4 S300
G1 X39.381 Y34.280
M5
M5
G0 X40.057 Y34.280
M4 S300
G1 X40.671 Y34.280
M5
M5
G0 X41.753 Y34.280
M4 S300
G1 X42.225 Y34.280
M5
M5
G0 X43.562 Y34.280
M4 S300
G1 X43.632 Y34.280
M5
M5
G0 X45.892 Y34.280
M4 S300
G1 X46.352 Y34.280
M5
M5
G0 X47.256 Y34.280
M4 S300
G1 X47.637 Y34.280
M5
M5
G0 X47.773 Y34.280
M4 S300
G1 X48.152 Y34.280
M5
M5
G0 X49.061 Y34.280
M4 S300
G1 X49.518 Y34.280
M5
M5
G0 X50.002 Y34.280
M4 S300
G1 X50.593 Y34.280
M5
M5
G0 X51.826 Y34.280
M4 S300
G1 X52.330 Y34.280
M5
M5
G0 X53.005 Y34.280
M4 S300
G1 X53.494 Y34.280
M5
M5
G0 X54.187 Y34.280
M4 S300
G1 X54.691 Y34.280
M5
M5
G0 X55.917 Y34.280
M4 S300
G1 X56.430 Y34.280
M5
M5
G0 X56.937 Y34.280
M4 S300
G1 X57.528 Y34.280
M5
M5
G0 X58.762 Y34.280
M4 S300
G1 X59.265 Y34.280
M5
M5
G0 X61.500 Y34.280
M4 S300
G1 X61.988 Y34.280
M5
M5
G0 X62.956 Y34.280
M4 S300
G1 X63.444 Y34.280
M5
M5
G0 X64.174 Y34.280
M4 S300
G1 X64.766 Y34.280
M5
M5
G0 X65.996 Y34.280
M4 S300
G1 X66.503 Y34.280
M5
M5
G0 X67.106 Y34.280
M4 S300
G1 X67.615 Y34.280
M5
M5
G0 X68.811 Y34.280
M4 S300
G1 X69.297 Y34.280
M5
M5
G0 X71.378 Y34.280
M4 S300
G1 X71.890 Y34.280
M5
M5
G0 X73.254 Y34.280
M4 S300
G1 X73.753 Y34.280
M5
M5
G0 X74.429 Y34.280
M4 S300
G1 X75.021 Y34.280
M5
M5
G0 X76.251 Y34.280
M4 S300
G1 X76.757 Y34.280
M5
M5
G0 X77.341 Y34.280
M4 S300
G1 X77.844 Y34.280
M5
M5
G0 X79.051 Y34.280
M4 S300
G1 X79.551 Y34.280
M5
M5
G0 X80.125 Y34.280
M4 S300
G1 X80.637 Y34.280
M5
M5
G0 X82.001 Y34.280
M4 S300
G1 X82.500 Y34.280
M5
M5
G0 X83.166 Y34.280
M4 S300
G1 X83.654 Y34.280
M5
M5
G0 X84.338 Y34.280
M4 S300
G1 X84.864 Y34.280
M5
M5
G0 X86.229 Y34.280
M4 S300
G1 X86.752 Y34.280
M5
M5
G0 X87.388 Y34.280
M4 S300
G1 X88.005 Y34.280
M5
M5
G0 X89.254 Y34.280
M4 S300
G1 X89.787 Y34.280
M5
M5
G0 X90.383 Y34.280
M4 S300
G1 X90.895 Y34.280
M5
M5
G0 X92.259 Y34.280
M4 S300
G1 X92.758 Y34.280
M5
M5
G0 X17.141 Y34.460
M4 S300
G1 X17.608 Y34.460
M5
M5
G0 X17.640 Y34.460
M4 S300
G1 X17.883 Y34.460
M5
M5
G0 X18.999 Y34.460
M4 S300
G1 X19.547 Y34.460
M5
M5
G0 X20.681 Y34.460
M4 S300
G1 X21.207 Y34.460
M5
M5
G0 X21.966 Y34.460
M4 S300
G1 X22.653 Y34.460
M5
M5
G0 X23.579 Y34.460
M4 S300
G1 X24.343 Y34.460
M5
M5
G0 X25.275 Y34.460
M4 S300
G1 X25.799 Y34.460
M5
M5
G0 X26.536 Y34.460
M4 S300
G1 X27.084 Y34.460
M5
M5
G0 X28.218 Y34.460
M4 S300
G1 X28.744 Y34.460
M5
M5
G0 X29.503 Y34.460
M4 S300
G1 X30.190 Y34.460
M5
M5
G0 X31.116 Y34.460
M4 S300
G1 X31.880 Y34.460
M5
M5
G0 X32.811 Y34.460
M4 S300
G1 X33.336 Y34.460
M5
M5
G0 X34.012 Y34.460
M4 S300
G1 X34.740 Y34.460
M5
M5
G0 X35.782 Y34.460
M4 S300
G1 X36.348 Y34.460
M5
M5
G0 X37.090 Y34.460
M4 S300
G1 X37.638 Y34.460
M5
M5
G0 X38.772 Y34.460
M4 S300
G1 X39.298 Y34.460
M5
M5
G0 X40.056 Y34.460
M4 S300
G1 X40.523 Y34.460
M5
M5
G0 X40.555 Y34.460
M4 S300
G1 X40.798 Y34.460
M5
M5
G0 X41.780 Y34.460
M4 S300
G1 X42.270 Y34.460
M5
M5
G0 X43.477 Y34.460
M4 S300
G1 X43.967 Y34.460
M5
M5
G0 X45.841 Y34.460
M4 S300
G1 X46.307 Y34.460
M5
M5
G0 X47.304 Y34.460
M4 S300
G1 X47.677 Y34.460
M5
M5
G0 X47.735 Y34.460
M4 S300
G1 X48.106 Y34.460
M5
M5
G0 X49.107 Y34.460
M4 S300
G1 X49.570 Y34.460
M5
M5
G0 X50.002 Y34.460
M4 S300
G1 X50.720 Y34.460
M5
M5
G0 X51.761 Y34.460
M4 S300
G1 X52.298 Y34.460
M5
M5
G0 X53.005 Y34.460
M4 S300
G1 X53.494 Y34.460
M5
M5
G0 X54.267 Y34.460
M4 S300
G1 X54.796 Y34.460
M5
M5
G0 X55.820 Y34.460
M4 S300
G1 X56.364 Y34.460
M5
M5
G0 X56.937 Y34.460
M4 S300
G1 X57.655 Y34.460
M5
M5
G0 X58.696 Y34.460
M4 S300
G1 X59.233 Y34.460
M5
M5
G0 X61.500 Y34.460
M4 S300
G1 X61.988 Y34.460
M5
M5
G0 X62.956 Y34.460
M4 S300
G1 X63.444 Y34.460
M5
M5
G0 X64.174 Y34.460
M4 S300
G1 X64.891 Y34.460
M5
M5
G0 X65.931 Y34.460
M4 S300
G1 X66.470 Y34.460
M5
M5
G0 X67.035 Y34.460
M4 S300
G1 X67.546 Y34.460
M5
M5
G0 X68.873 Y34.460
M4 S300
G1 X69.366 Y34.460
M5
M5
G0 X71.462 Y34.460
M4 S300
G1 X72.010 Y34.460
M5
M5
G0 X73.144 Y34.460
M4 S300
G1 X73.670 Y34.460
M5
M5
G0 X74.429 Y34.460
M4 S300
G1 X75.145 Y34.460
M5
M5
G0 X76.186 Y34.460
M4 S300
G1 X76.725 Y34.460
M5
M5
G0 X77.276 Y34.460
M4 S300
G1 X77.783 Y34.460
M5
M5
G0 X79.114 Y34.460
M4 S300
G1 X79.619 Y34.460
M5
M5
G0 X80.209 Y34.460
M4 S300
G1 X80.757 Y34.460
M5
M5
G0 X81.891 Y34.460
M4 S300
G1 X82.418 Y34.460
M5
M5
G0 X83.166 Y34.460
M4 S300
G1 X83.654 Y34.460
M5
M5
G0 X84.425 Y34.460
M4 S300
G1 X84.973 Y34.460
M5
M5
G0 X86.126 Y34.460
M4 S300
G1 X86.679 Y34.460
M5
M5
G0 X87.388 Y34.460
M4 S300
G1 X88.116 Y34.460
M5
M5
G0 X89.155 Y34.460
M4 S300
G1 X89.726 Y34.460
M5
M5
G0 X90.467 Y34.460
M4 S300
G1 X91.014 Y34.460
M5
M5
G0 X92.149 Y34.460
M4 S300
G1 X92.675 Y34.460
M5
M5
G0 X17.138 Y34.640
M4 S300
G1 X17.602 Y34.640
M5
M5
G0 X17.709 Y34.640
M4 S300
G1 X18.515 Y34.640
M5
M5
G0 X19.121 Y34.640
M4 S300
G1 X19.807 Y34.640
M5
M5
G0 X20.421 Y34.640
M4 S300
G1 X21.089 Y34.640
M5
M5
G0 X21.965 Y34.640
M4 S300
G1 X22.429 Y34.640
M5
M5
G0 X22.523 Y34.640
M4 S300
G1 X22.909 Y34.640
M5
M5
G0 X23.369 Y34.640
M4 S300
G1 X24.047 Y34.640
M5
M5
G0 X24.188 Y34.640
M4 S300
G1 X24.599 Y34.640
M5
M5
G0 X25.064 Y34.640
M4 S300
G1 X25.742 Y34.640
M5
M5
G0 X26.658 Y34.640
M4 S300
G1 X27.344 Y34.640
M5
M5
G0 X27.958 Y34.640
M4 S300
G1 X28.626 Y34.640
M5
M5
G0 X29.502 Y34.640
M4 S300
G1 X29.966 Y34.640
M5
M5
G0 X30.059 Y34.640
M4 S300
G1 X30.445 Y34.640
M5
M5
G0 X30.905 Y34.640
M4 S300
G1 X31.583 Y34.640
M5
M5
G0 X31.725 Y34.640
M4 S300
G1 X32.136 Y34.640
M5
M5
G0 X32.601 Y34.640
M4 S300
G1 X33.279 Y34.640
M5
M5
G0 X34.012 Y34.640
M4 S300
G1 X34.494 Y34.640
M5
M5
G0 X34.563 Y34.640
M4 S300
G1 X35.030 Y34.640
M5
M5
G0 X35.526 Y34.640
M4 S300
G1 X36.255 Y34.640
M5
M5
G0 X37.212 Y34.640
M4 S300
G1 X37.898 Y34.640
M5
M5
G0 X38.512 Y34.640
M4 S300
G1 X39.180 Y34.640
M5
M5
G0 X40.053 Y34.640
M4 S300
G1 X40.517 Y34.640
M5
M5
G0 X40.624 Y34.640
M4 S300
G1 X41.430 Y34.640
M5
M5
G0 X41.857 Y34.640
M4 S300
G1 X42.538 Y34.640
M5
M5
G0 X43.177 Y34.640
M4 S300
G1 X43.881 Y34.640
M5
M5
G0 X45.791 Y34.640
M4 S300
G1 X46.263 Y34.640
M5
M5
G0 X47.351 Y34.640
M4 S300
G1 X48.060 Y34.640
M5
M5
G0 X49.154 Y34.640
M4 S300
G1 X49.621 Y34.640
M5
M5
G0 X50.002 Y34.640
M4 S300
G1 X50.477 Y34.640
M5
M5
G0 X50.566 Y34.640
M4 S300
G1 X51.007 Y34.640
M5
M5
G0 X51.527 Y34.640
M4 S300
G1 X52.235 Y34.640
M5
M5
G0 X53.005 Y34.640
M4 S300
G1 X53.494 Y34.640
M5
M5
G0 X54.383 Y34.640
M4 S300
G1 X55.084 Y34.640
M5
M5
G0 X55.553 Y34.640
M4 S300
G1 X56.256 Y34.640
M5
M5
G0 X56.937 Y34.640
M4 S300
G1 X57.413 Y34.640
M5
M5
G0 X57.501 Y34.640
M4 S300
G1 X57.942 Y34.640
M5
M5
G0 X58.462 Y34.640
M4 S300
G1 X59.171 Y34.640
M5
M5
G0 X61.500 Y34.640
M4 S300
G1 X61.988 Y34.640
M5
M5
G0 X62.956 Y34.640
M4 S300
G1 X63.444 Y34.640
M5
M5
G0 X64.173 Y34.640
M4 S300
G1 X64.637 Y34.640
M5
M5
G0 X64.739 Y34.640
M4 S300
G1 X65.177 Y34.640
M5
M5
G0 X65.707 Y34.640
M4 S300
G1 X66.408 Y34.640
M5
M5
G0 X66.963 Y34.640
M4 S300
G1 X67.478 Y34.640
M5
M5
G0 X68.935 Y34.640
M4 S300
G1 X69.435 Y34.640
M5
M5
G0 X71.584 Y34.640
M4 S300
G1 X72.270 Y34.640
M5
M5
G0 X72.884 Y34.640
M4 S300
G1 X73.552 Y34.640
M5
M5
G0 X74.428 Y34.640
M4 S300
G1 X74.892 Y34.640
M5
M5
G0 X74.993 Y34.640
M4 S300
G1 X75.432 Y34.640
M5
M5
G0 X75.962 Y34.640
M4 S300
G1 X76.663 Y34.640
M5
M5
G0 X77.210 Y34.640
M4 S300
G1 X77.722 Y34.640
M5
M5
G0 X79.177 Y34.640
M4 S300
G1 X79.686 Y34.640
M5
M5
G0 X80.331 Y34.640
M4 S300
G1 X81.017 Y34.640
M5
M5
G0 X81.631 Y34.640
M4 S300
G1 X82.299 Y34.640
M5
M5
G0 X83.166 Y34.640
M4 S300
G1 X83.654 Y34.640
M5
M5
G0 X84.543 Y34.640
M4 S300
G1 X85.229 Y34.640
M5
M5
G0 X85.877 Y34.640
M4 S300
G1 X86.567 Y34.640
M5
M5
G0 X87.387 Y34.640
M4 S300
G1 X87.868 Y34.640
M5
M5
G0 X87.945 Y34.640
M4 S300
G1 X88.400 Y34.640
M5
M5
G0 X88.892 Y34.640
M4 S300
G1 X89.631 Y34.640
M5
M5
G0 X90.588 Y34.640
M4 S300
G1 X91.274 Y34.640
M5
M5
G0 X91.889 Y34.640
M4 S300
G1 X92.556 Y34.640
M5
M5
G0 X17.133 Y34.820
M4 S300
G1 X17.595 Y34.820
M5
M5
G0 X17.807 Y34.820
M4 S300
G1 X18.515 Y34.820
M5
M5
G0 X19.312 Y34.820
M4 S300
G1 X20.904 Y34.820
M5
M5
G0 X21.961 Y34.820
M4 S300
G1 X22.422 Y34.820
M5
M5
G0 X22.664 Y34.820
M4 S300
G1 X23.936 Y34.820
M5
M5
G0 X24.338 Y34.820
M4 S300
G1 X25.632 Y34.820
M5
M5
G0 X26.849 Y34.820
M4 S300
G1 X28.441 Y34.820
M5
M5
G0 X29.498 Y34.820
M4 S300
G1 X29.958 Y34.820
M5
M5
G0 X30.201 Y34.820
M4 S300
G1 X31.473 Y34.820
M5
M5
G0 X31.875 Y34.820
M4 S300
G1 X33.169 Y34.820
M5
M5
G0 X34.012 Y34.820
M4 S300
G1 X34.499 Y34.820
M5
M5
G0 X34.708 Y34.820
M4 S300
G1 X36.104 Y34.820
M5
M5
G0 X37.403 Y34.820
M4 S300
G1 X38.995 Y34.820
M5
M5
G0 X40.048 Y34.820
M4 S300
G1 X40.509 Y34.820
M5
M5
G0 X40.722 Y34.820
M4 S300
G1 X41.430 Y34.820
M5
M5
G0 X42.019 Y34.820
M4 S300
G1 X43.720 Y34.820
M5
M5
G0 X45.740 Y34.820
M4 S300
G1 X46.218 Y34.820
M5
M5
G0 X47.398 Y34.820
M4 S300
G1 X48.014 Y34.820
M5
M5
G0 X49.200 Y34.820
M4 S300
G1 X49.673 Y34.820
M5
M5
G0 X50.002 Y34.820
M4 S300
G1 X50.486 Y34.820
M5
M5
G0 X50.724 Y34.820
M4 S300
G1 X52.114 Y34.820
M5
M5
G0 X53.005 Y34.820
M4 S300
G1 X53.494 Y34.820
M5
M5
G0 X54.566 Y34.820
M4 S300
G1 X56.081 Y34.820
M5
M5
G0 X56.937 Y34.820
M4 S300
G1 X57.421 Y34.820
M5
M5
G0 X57.659 Y34.820
M4 S300
G1 X59.049 Y34.820
M5
M5
G0 X61.161 Y34.820
M4 S300
G1 X62.530 Y34.820
M5
M5
G0 X62.956 Y34.820
M4 S300
G1 X63.444 Y34.820
M5
M5
G0 X64.169 Y34.820
M4 S300
G1 X64.630 Y34.820
M5
M5
G0 X64.895 Y34.820
M4 S300
G1 X66.286 Y34.820
M5
M5
G0 X66.891 Y34.820
M4 S300
G1 X67.409 Y34.820
M5
M5
G0 X68.996 Y34.820
M4 S300
G1 X69.505 Y34.820
M5
M5
G0 X71.775 Y34.820
M4 S300
G1 X73.367 Y34.820
M5
M5
G0 X74.424 Y34.820
M4 S300
G1 X74.884 Y34.820
M5
M5
G0 X75.149 Y34.820
M4 S300
G1 X76.541 Y34.820
M5
M5
G0 X77.145 Y34.820
M4 S300
G1 X77.661 Y34.820
M5
M5
G0 X79.239 Y34.820
M4 S300
G1 X79.753 Y34.820
M5
M5
G0 X80.522 Y34.820
M4 S300
G1 X82.114 Y34.820
M5
M5
G0 X83.166 Y34.820
M4 S300
G1 X83.654 Y34.820
M5
M5
G0 X84.731 Y34.820
M4 S300
G1 X86.385 Y34.820
M5
M5
G0 X87.383 Y34.820
M4 S300
G1 X87.859 Y34.820
M5
M5
G0 X88.090 Y34.820
M4 S300
G1 X89.477 Y34.820
M5
M5
G0 X90.780 Y34.820
M4 S300
G1 X92.371 Y34.820
M5
M5
G0 X18.024 Y35.000
M4 S300
G1 X18.515 Y35.000
M5
M5
G0 X19.695 Y35.000
M4 S300
G1 X20.520 Y35.000
M5
M5
G0 X22.954 Y35.000
M4 S300
G1 X23.661 Y35.000
M5
M5
G0 X24.642 Y35.000
M4 S300
G1 X25.353 Y35.000
M5
M5
G0 X27.231 Y35.000
M4 S300
G1 X28.057 Y35.000
M5
M5
G0 X30.490 Y35.000
M4 S300
G1 X31.198 Y35.000
M5
M5
G0 X32.179 Y35.000
M4 S300
G1 X32.890 Y35.000
M5
M5
G0 X34.012 Y35.000
M4 S300
G1 X34.500 Y35.000
M5
M5
G0 X35.027 Y35.000
M4 S300
G1 X35.783 Y35.000
M5
M5
G0 X37.785 Y35.000
M4 S300
G1 X38.611 Y35.000
M5
M5
G0 X40.939 Y35.000
M4 S300
G1 X41.430 Y35.000
M5
M5
G0 X42.424 Y35.000
M4 S300
G1 X43.310 Y35.000
M5
M5
G0 X50.002 Y35.000
M4 S300
G1 X50.490 Y35.000
M5
M5
G0 X51.038 Y35.000
M4 S300
G1 X51.806 Y35.000
M5
M5
G0 X54.933 Y35.000
M4 S300
G1 X55.724 Y35.000
M5
M5
G0 X56.937 Y35.000
M4 S300
G1 X57.425 Y35.000
M5
M5
G0 X57.974 Y35.000
M4 S300
G1 X58.741 Y35.000
M5
M5
G0 X61.519 Y35.000
M4 S300
G1 X61.988 Y35.000
M5
M5
G0 X65.210 Y35.000
M4 S300
G1 X65.980 Y35.000
M5
M5
G0 X72.157 Y35.000
M4 S300
G1 X72.983 Y35.000
M5
M5
G0 X75.465 Y35.000
M4 S300
G1 X76.234 Y35.000
M5
M5
G0 X80.905 Y35.000
M4 S300
G1 X81.730 Y35.000
M5
M5
G0 X83.166 Y35.000
M4 S300
G1 X83.654 Y35.000
M5
M5
G0 X85.127 Y35.000
M4 S300
G1 X85.994 Y35.000
M5
M5
G0 X88.406 Y35.000
M4 S300
G1 X89.149 Y35.000
M5
M5
G0 X91.162 Y35.000
M4 S300
G1 X91.987 Y35.000
M5
M5
G0 X34.012 Y35.180
M4 S300
G1 X34.500 Y35.180
M5
M5
G0 X50.002 Y35.180
M4 S300
G1 X50.490 Y35.180
M5
M5
G0 X56.937 Y35.180
M4 S300
G1 X57.425 Y35.180
M5
M5
G0 X61.558 Y35.180
M4 S300
G1 X61.988 Y35.180
M5
M5
G0 X83.166 Y35.180
M4 S300
G1 X83.654 Y35.180
M5
M5
G0 X34.012 Y35.360
M4 S300
G1 X34.500 Y35.360
M5
M5
G0 X50.002 Y35.360
M4 S300
G1 X50.490 Y35.360
M5
M5
G0 X56.937 Y35.360
M4 S300
G1 X57.425 Y35.360
M5
M5
G0 X61.598 Y35.360
M4 S300
G1 X61.988 Y35.360
M5
M5
G0 X83.166 Y35.360
M4 S300
G1 X83.654 Y35.360
M5
M5
G0 X34.012 Y35.540
M4 S300
G1 X34.500 Y35.540
M5
M5
G0 X50.002 Y35.540
M4 S300
G1 X50.490 Y35.540
M5
M5
G0 X56.937 Y35.540
M4 S300
G1 X57.425 Y35.540
M5
M5
G0 X61.637 Y35.540
M4 S300
G1 X61.988 Y35.540
M5
M5
G0 X83.166 Y35.540
M4 S300
G1 X83.654 Y35.540
M5
M5
G0 X34.012 Y35.720
M4 S300
G1 X34.500 Y35.720
M5
M5
G0 X50.002 Y35.720
M4 S300
G1 X50.490 Y35.720
M5
M5
G0 X53.005 Y35.720
M4 S300
G1 X53.494 Y35.720
M5
M5
G0 X56.937 Y35.720
M4 S300
G1 X57.425 Y35.720
M5
M5
G0 X62.956 Y35.720
M4 S300
G1 X63.444 Y35.720
M5
M5
G0 X83.166 Y35.720
M4 S300
G1 X83.654 Y35.720
M5
M5
G0 X34.012 Y35.900
M4 S300
G1 X34.500 Y35.900
M5
M5
G0 X50.002 Y35.900
M4 S300
G1 X50.490 Y35.900
M5
M5
G0 X53.005 Y35.900
M4 S300
G1 X53.494 Y35.900
M5
M5
G0 X56.937 Y35.900
M4 S300
G1 X57.425 Y35.900
M5
M5
G0 X62.956 Y35.900
M4 S300
G1 X63.444 Y35.900
M5
M5
G0 X83.166 Y35.900
M4 S300
G1 X83.654 Y35.900
M5
M5
G0 X34.012 Y36.080
M4 S300
G1 X34.500 Y36.080
M5
M5
G0 X50.002 Y36.080
M4 S300
G1 X50.490 Y36.080
M5
M5
G0 X53.005 Y36.080
M4 S300
G1 X53.494 Y36.080
M5
M5
G0 X56.937 Y36.080
M4 S300
G1 X57.425 Y36.080
M5
M5
G0 X62.956 Y36.080
M4 S300
G1 X63.444 Y36.080
M5
M5
G0 X83.166 Y36.080
M4 S300
G1 X83.654 Y36.080
M5
M5
G0 X43.366 Y37.160
M4 S300
G1 X43.698 Y37.160
M5
M5
G0 X60.556 Y37.160
M4 S300
G1 X60.888 Y37.160
M5
M5
G0 X79.854 Y37.160
M4 S300
G1 X80.186 Y37.160
M5
M5
G0 X43.472 Y37.340
M4 S300
G1 X43.787 Y37.340
M5
M5
G0 X60.662 Y37.340
M4 S300
G1 X60.977 Y37.340
M5
M5
G0 X79.961 Y37.340
M4 S300
G1 X80.276 Y37.340
M5
M5
G0 X43.547 Y37.520
M4 S300
G1 X43.846 Y37.520
M5
M5
G0 X60.737 Y37.520
M4 S300
G1 X61.036 Y37.520
M5
M5
G0 X80.035 Y37.520
M4 S300
G1 X80.334 Y37.520
M5
M5
G0 X43.590 Y37.700
M4 S300
G1 X43.878 Y37.700
M5
M5
G0 X60.780 Y37.700
M4 S300
G1 X61.068 Y37.700
M5
M5
G0 X80.079 Y37.700
M4 S300
G1 X80.366 Y37.700
M5
M5
G0 X18.882 Y37.880
M4 S300
G1 X19.400 Y37.880
M5
M5
G0 X22.430 Y37.880
M4 S300
G1 X22.919 Y37.880
M5
M5
G0 X24.867 Y37.880
M4 S300
G1 X25.996 Y37.880
M5
M5
G0 X27.602 Y37.880
M4 S300
G1 X28.868 Y37.880
M5
M5
G0 X30.597 Y37.880
M4 S300
G1 X31.726 Y37.880
M5
M5
G0 X32.984 Y37.880
M4 S300
G1 X33.472 Y37.880
M5
M5
G0 X35.477 Y37.880
M4 S300
G1 X36.082 Y37.880
M5
M5
G0 X38.133 Y37.880
M4 S300
G1 X39.262 Y37.880
M5
M5
G0 X40.869 Y37.880
M4 S300
G1 X42.135 Y37.880
M5
M5
G0 X43.364 Y37.880
M4 S300
G1 X43.891 Y37.880
M5
M5
G0 X46.237 Y37.880
M4 S300
G1 X46.726 Y37.880
M5
M5
G0 X47.727 Y37.880
M4 S300
G1 X48.695 Y37.880
M5
M5
G0 X49.485 Y37.880
M4 S300
G1 X50.158 Y37.880
M5
M5
G0 X50.447 Y37.880
M4 S300
G1 X50.920 Y37.880
M5
M5
G0 X51.367 Y37.880
M4 S300
G1 X52.304 Y37.880
M5
M5
G0 X54.118 Y37.880
M4 S300
G1 X55.247 Y37.880
M5
M5
G0 X56.495 Y37.880
M4 S300
G1 X56.983 Y37.880
M5
M5
G0 X58.059 Y37.880
M4 S300
G1 X59.325 Y37.880
M5
M5
G0 X60.554 Y37.880
M4 S300
G1 X61.081 Y37.880
M5
M5
G0 X63.786 Y37.880
M4 S300
G1 X65.052 Y37.880
M5
M5
G0 X66.151 Y37.880
M4 S300
G1 X66.639 Y37.880
M5
M5
G0 X68.004 Y37.880
M4 S300
G1 X68.495 Y37.880
M5
M5
G0 X69.442 Y37.880
M4 S300
G1 X70.409 Y37.880
M5
M5
G0 X71.199 Y37.880
M4 S300
G1 X71.873 Y37.880
M5
M5
G0 X72.186 Y37.880
M4 S300
G1 X72.674 Y37.880
M5
M5
G0 X74.622 Y37.880
M4 S300
G1 X75.751 Y37.880
M5
M5
G0 X77.357 Y37.880
M4 S300
G1 X78.624 Y37.880
M5
M5
G0 X79.852 Y37.880
M4 S300
G1 X80.380 Y37.880
M5
M5
G0 X83.010 Y37.880
M4 S300
G1 X83.978 Y37.880
M5
M5
G0 X84.768 Y37.880
M4 S300
G1 X85.441 Y37.880
M5
M5
G0 X85.754 Y37.880
M4 S300
G1 X86.243 Y37.880
M5
M5
G0 X87.607 Y37.880
M4 S300
G1 X88.098 Y37.880
M5
M5
G0 X89.227 Y37.880
M4 S300
G1 X90.192 Y37.880
M5
M5
G0 X90.646 Y37.880
M4 S300
G1 X91.115 Y37.880
M5
M5
G0 X18.882 Y38.060
M4 S300
G1 X19.400 Y38.060
M5
M5
G0 X22.430 Y38.060
M4 S300
G1 X22.919 Y38.060
M5
M5
G0 X24.550 Y38.060
M4 S300
G1 X26.318 Y38.060
M5
M5
G0 X27.289 Y38.060
M4 S300
G1 X29.189 Y38.060
M5
M5
G0 X30.280 Y38.060
M4 S300
G1 X32.048 Y38.060
M5
M5
G0 X32.984 Y38.060
M4 S300
G1 X33.472 Y38.060
M5
M5
G0 X35.412 Y38.060
M4 S300
G1 X36.150 Y38.060
M5
M5
G0 X37.816 Y38.060
M4 S300
G1 X39.584 Y38.060
M5
M5
G0 X40.556 Y38.060
M4 S300
G1 X42.456 Y38.060
M5
M5
G0 X43.364 Y38.060
M4 S300
G1 X43.893 Y38.060
M5
M5
G0 X46.237 Y38.060
M4 S300
G1 X46.726 Y38.060
M5
M5
G0 X47.495 Y38.060
M4 S300
G1 X48.971 Y38.060
M5
M5
G0 X49.321 Y38.060
M4 S300
G1 X50.158 Y38.060
M5
M5
G0 X50.456 Y38.060
M4 S300
G1 X50.933 Y38.060
M5
M5
G0 X51.115 Y38.060
M4 S300
G1 X52.576 Y38.060
M5
M5
G0 X53.801 Y38.060
M4 S300
G1 X55.569 Y38.060
M5
M5
G0 X56.495 Y38.060
M4 S300
G1 X56.983 Y38.060
M5
M5
G0 X57.746 Y38.060
M4 S300
G1 X59.646 Y38.060
M5
M5
G0 X60.554 Y38.060
M4 S300
G1 X61.083 Y38.060
M5
M5
G0 X63.473 Y38.060
M4 S300
G1 X65.373 Y38.060
M5
M5
G0 X66.151 Y38.060
M4 S300
G1 X66.639 Y38.060
M5
M5
G0 X68.004 Y38.060
M4 S300
G1 X68.495 Y38.060
M5
M5
G0 X69.209 Y38.060
M4 S300
G1 X70.685 Y38.060
M5
M5
G0 X71.036 Y38.060
M4 S300
G1 X71.873 Y38.060
M5
M5
G0 X72.186 Y38.060
M4 S300
G1 X72.674 Y38.060
M5
M5
G0 X74.305 Y38.060
M4 S300
G1 X76.073 Y38.060
M5
M5
G0 X77.045 Y38.060
M4 S300
G1 X78.945 Y38.060
M5
M5
G0 X79.852 Y38.060
M4 S300
G1 X80.381 Y38.060
M5
M5
G0 X82.778 Y38.060
M4 S300
G1 X84.254 Y38.060
M5
M5
G0 X84.605 Y38.060
M4 S300
G1 X85.441 Y38.060
M5
M5
G0 X85.754 Y38.060
M4 S300
G1 X86.243 Y38.060
M5
M5
G0 X87.607 Y38.060
M4 S300
G1 X88.098 Y38.060
M5
M5
G0 X88.966 Y38.060
M4 S300
G1 X90.443 Y38.060
M5
M5
G0 X90.633 Y38.060
M4 S300
G1 X91.106 Y38.060
M5
M5
G0 X18.882 Y38.240
M4 S300
G1 X19.400 Y38.240
M5
M5
G0 X22.430 Y38.240
M4 S300
G1 X22.919 Y38.240
M5
M5
G0 X24.380 Y38.240
M4 S300
G1 X25.033 Y38.240
M5
M5
G0 X25.853 Y38.240
M4 S300
G1 X26.483 Y38.240
M5
M5
G0 X27.139 Y38.240
M4 S300
G1 X27.773 Y38.240
M5
M5
G0 X28.737 Y38.240
M4 S300
G1 X29.343 Y38.240
M5
M5
G0 X30.110 Y38.240
M4 S300
G1 X30.763 Y38.240
M5
M5
G0 X31.583 Y38.240
M4 S300
G1 X32.213 Y38.240
M5
M5
G0 X32.984 Y38.240
M4 S300
G1 X33.472 Y38.240
M5
M5
G0 X35.346 Y38.240
M4 S300
G1 X35.774 Y38.240
M5
M5
G0 X35.783 Y38.240
M4 S300
G1 X36.217 Y38.240
M5
M5
G0 X37.646 Y38.240
M4 S300
G1 X38.299 Y38.240
M5
M5
G0 X39.120 Y38.240
M4 S300
G1 X39.750 Y38.240
M5
M5
G0 X40.406 Y38.240
M4 S300
G1 X41.040 Y38.240
M5
M5
G0 X42.003 Y38.240
M4 S300
G1 X42.609 Y38.240
M5
M5
G0 X43.364 Y38.240
M4 S300
G1 X43.893 Y38.240
M5
M5
G0 X46.237 Y38.240
M4 S300
G1 X46.726 Y38.240
M5
M5
G0 X47.384 Y38.240
M4 S300
G1 X47.989 Y38.240
M5
M5
G0 X48.709 Y38.240
M4 S300
G1 X49.127 Y38.240
M5
M5
G0 X49.265 Y38.240
M4 S300
G1 X49.789 Y38.240
M5
M5
G0 X50.459 Y38.240
M4 S300
G1 X50.942 Y38.240
M5
M5
G0 X50.981 Y38.240
M4 S300
G1 X51.332 Y38.240
M5
M5
G0 X52.089 Y38.240
M4 S300
G1 X52.709 Y38.240
M5
M5
G0 X53.631 Y38.240
M4 S300
G1 X54.284 Y38.240
M5
M5
G0 X55.104 Y38.240
M4 S300
G1 X55.735 Y38.240
M5
M5
G0 X56.495 Y38.240
M4 S300
G1 X56.983 Y38.240
M5
M5
G0 X57.596 Y38.240
M4 S300
G1 X58.230 Y38.240
M5
M5
G0 X59.193 Y38.240
M4 S300
G1 X59.799 Y38.240
M5
M5
G0 X60.554 Y38.240
M4 S300
G1 X61.083 Y38.240
M5
M5
G0 X63.323 Y38.240
M4 S300
G1 X63.957 Y38.240
M5
M5
G0 X64.921 Y38.240
M4 S300
G1 X65.527 Y38.240
M5
M5
G0 X66.151 Y38.240
M4 S300
G1 X66.639 Y38.240
M5
M5
G0 X68.004 Y38.240
M4 S300
G1 X68.495 Y38.240
M5
M5
G0 X69.098 Y38.240
M4 S300
G1 X69.704 Y38.240
M5
M5
G0 X70.424 Y38.240
M4 S300
G1 X70.841 Y38.240
M5
M5
G0 X70.980 Y38.240
M4 S300
G1 X71.504 Y38.240
M5
M5
G0 X72.186 Y38.240
M4 S300
G1 X72.674 Y38.240
M5
M5
G0 X74.135 Y38.240
M4 S300
G1 X74.788 Y38.240
M5
M5
G0 X75.608 Y38.240
M4 S300
G1 X76.239 Y38.240
M5
M5
G0 X76.894 Y38.240
M4 S300
G1 X77.529 Y38.240
M5
M5
G0 X78.492 Y38.240
M4 S300
G1 X79.098 Y38.240
M5
M5
G0 X79.852 Y38.240
M4 S300
G1 X80.381 Y38.240
M5
M5
G0 X82.667 Y38.240
M4 S300
G1 X83.273 Y38.240
M5
M5
G0 X83.993 Y38.240
M4 S300
G1 X84.410 Y38.240
M5
M5
G0 X84.549 Y38.240
M4 S300
G1 X85.073 Y38.240
M5
M5
G0 X85.754 Y38.240
M4 S300
G1 X86.243 Y38.240
M5
M5
G0 X87.607 Y38.240
M4 S300
G1 X88.098 Y38.240
M5
M5
G0 X88.835 Y38.240
M4 S300
G1 X89.496 Y38.240
M5
M5
G0 X90.183 Y38.240
M4 S300
G1 X90.574 Y38.240
M5
M5
G0 X90.625 Y38.240
M4 S300
G1 X91.103 Y38.240
M5
M5
G0 X18.882 Y38.420
M4 S300
G1 X19.400 Y38.420
M5
M5
G0 X22.430 Y38.420
M4 S300
G1 X22.919 Y38.420
M5
M5
G0 X24.266 Y38.420
M4 S300
G1 X24.817 Y38.420
M5
M5
G0 X26.082 Y38.420
M4 S300
G1 X26.585 Y38.420
M5
M5
G0 X27.056 Y38.420
M4 S300
G1 X27.545 Y38.420
M5
M5
G0 X28.929 Y38.420
M4 S300
G1 X29.416 Y38.420
M5
M5
G0 X29.996 Y38.420
M4 S300
G1 X30.547 Y38.420
M5
M5
G0 X31.812 Y38.420
M4 S300
G1 X32.315 Y38.420
M5
M5
G0 X32.984 Y38.420
M4 S300
G1 X33.472 Y38.420
M5
M5
G0 X35.281 Y38.420
M4 S300
G1 X35.723 Y38.420
M5
M5
G0 X35.837 Y38.420
M4 S300
G1 X36.284 Y38.420
M5
M5
G0 X37.533 Y38.420
M4 S300
G1 X38.083 Y38.420
M5
M5
G0 X39.349 Y38.420
M4 S300
G1 X39.852 Y38.420
M5
M5
G0 X40.323 Y38.420
M4 S300
G1 X40.812 Y38.420
M5
M5
G0 X42.196 Y38.420
M4 S300
G1 X42.683 Y38.420
M5
M5
G0 X43.364 Y38.420
M4 S300
G1 X43.893 Y38.420
M5
M5
G0 X46.237 Y38.420
M4 S300
G1 X46.726 Y38.420
M5
M5
G0 X47.328 Y38.420
M4 S300
G1 X47.847 Y38.420
M5
M5
G0 X48.965 Y38.420
M4 S300
G1 X49.734 Y38.420
M5
M5
G0 X50.460 Y38.420
M4 S300
G1 X51.136 Y38.420
M5
M5
G0 X52.264 Y38.420
M4 S300
G1 X52.795 Y38.420
M5
M5
G0 X53.518 Y38.420
M4 S300
G1 X54.068 Y38.420
M5
M5
G0 X55.334 Y38.420
M4 S300
G1 X55.837 Y38.420
M5
M5
G0 X56.495 Y38.420
M4 S300
G1 X56.983 Y38.420
M5
M5
G0 X57.513 Y38.420
M4 S300
G1 X58.002 Y38.420
M5
M5
G0 X59.386 Y38.420
M4 S300
G1 X59.873 Y38.420
M5
M5
G0 X60.554 Y38.420
M4 S300
G1 X61.083 Y38.420
M5
M5
G0 X63.240 Y38.420
M4 S300
G1 X63.729 Y38.420
M5
M5
G0 X65.113 Y38.420
M4 S300
G1 X65.601 Y38.420
M5
M5
G0 X66.151 Y38.420
M4 S300
G1 X66.639 Y38.420
M5
M5
G0 X68.004 Y38.420
M4 S300
G1 X68.495 Y38.420
M5
M5
G0 X69.043 Y38.420
M4 S300
G1 X69.562 Y38.420
M5
M5
G0 X70.679 Y38.420
M4 S300
G1 X71.448 Y38.420
M5
M5
G0 X72.186 Y38.420
M4 S300
G1 X72.674 Y38.420
M5
M5
G0 X74.022 Y38.420
M4 S300
G1 X74.572 Y38.420
M5
M5
G0 X75.838 Y38.420
M4 S300
G1 X76.341 Y38.420
M5
M5
G0 X76.811 Y38.420
M4 S300
G1 X77.301 Y38.420
M5
M5
G0 X78.684 Y38.420
M4 S300
G1 X79.172 Y38.420
M5
M5
G0 X79.852 Y38.420
M4 S300
G1 X80.381 Y38.420
M5
M5
G0 X82.611 Y38.420
M4 S300
G1 X83.130 Y38.420
M5
M5
G0 X84.248 Y38.420
M4 S300
G1 X85.017 Y38.420
M5
M5
G0 X85.754 Y38.420
M4 S300
G1 X86.243 Y38.420
M5
M5
G0 X87.607 Y38.420
M4 S300
G1 X88.098 Y38.420
M5
M5
G0 X88.749 Y38.420
M4 S300
G1 X89.303 Y38.420
M5
M5
G0 X90.401 Y38.420
M4 S300
G1 X91.102 Y38.420
M5
M5
G0 X18.882 Y38.600
M4 S300
G1 X19.400 Y38.600
M5
M5
G0 X22.430 Y38.600
M4 S300
G1 X22.919 Y38.600
M5
M5
G0 X24.192 Y38.600
M4 S300
G1 X24.709 Y38.600
M5
M5
G0 X26.185 Y38.600
M4 S300
G1 X26.204 Y38.600
M5
M5
G0 X27.374 Y38.600
M4 S300
G1 X27.460 Y38.600
M5
M5
G0 X28.970 Y38.600
M4 S300
G1 X29.443 Y38.600
M5
M5
G0 X29.922 Y38.600
M4 S300
G1 X30.439 Y38.600
M5
M5
G0 X31.915 Y38.600
M4 S300
G1 X31.934 Y38.600
M5
M5
G0 X32.984 Y38.600
M4 S300
G1 X33.472 Y38.600
M5
M5
G0 X35.216 Y38.600
M4 S300
G1 X35.671 Y38.600
M5
M5
G0 X35.892 Y38.600
M4 S300
G1 X36.351 Y38.600
M5
M5
G0 X37.459 Y38.600
M4 S300
G1 X37.976 Y38.600
M5
M5
G0 X39.452 Y38.600
M4 S300
G1 X39.471 Y38.600
M5
M5
G0 X40.641 Y38.600
M4 S300
G1 X40.727 Y38.600
M5
M5
G0 X42.237 Y38.600
M4 S300
G1 X42.710 Y38.600
M5
M5
G0 X46.237 Y38.600
M4 S300
G1 X46.726 Y38.600
M5
M5
G0 X47.307 Y38.600
M4 S300
G1 X47.808 Y38.600
M5
M5
G0 X49.102 Y38.600
M4 S300
G1 X49.724 Y38.600
M5
M5
G0 X50.460 Y38.600
M4 S300
G1 X51.045 Y38.600
M5
M5
G0 X52.344 Y38.600
M4 S300
G1 X52.859 Y38.600
M5
M5
G0 X53.444 Y38.600
M4 S300
G1 X53.960 Y38.600
M5
M5
G0 X55.437 Y38.600
M4 S300
G1 X55.456 Y38.600
M5
M5
G0 X56.495 Y38.600
M4 S300
G1 X56.983 Y38.600
M5
M5
G0 X57.831 Y38.600
M4 S300
G1 X57.917 Y38.600
M5
M5
G0 X59.427 Y38.600
M4 S300
G1 X59.900 Y38.600
M5
M5
G0 X63.558 Y38.600
M4 S300
G1 X63.644 Y38.600
M5
M5
G0 X65.154 Y38.600
M4 S300
G1 X65.627 Y38.600
M5
M5
G0 X66.151 Y38.600
M4 S300
G1 X66.639 Y38.600
M5
M5
G0 X68.004 Y38.600
M4 S300
G1 X68.495 Y38.600
M5
M5
G0 X69.022 Y38.600
M4 S300
G1 X69.523 Y38.600
M5
M5
G0 X70.817 Y38.600
M4 S300
G1 X71.439 Y38.600
M5
M5
G0 X72.186 Y38.600
M4 S300
G1 X72.674 Y38.600
M5
M5
G0 X73.948 Y38.600
M4 S300
G1 X74.464 Y38.600
M5
M5
G0 X75.941 Y38.600
M4 S300
G1 X75.960 Y38.600
M5
M5
G0 X77.130 Y38.600
M4 S300
G1 X77.215 Y38.600
M5
M5
G0 X78.726 Y38.600
M4 S300
G1 X79.198 Y38.600
M5
M5
G0 X82.590 Y38.600
M4 S300
G1 X83.092 Y38.600
M5
M5
G0 X84.386 Y38.600
M4 S300
G1 X85.007 Y38.600
M5
M5
G0 X85.754 Y38.600
M4 S300
G1 X86.243 Y38.600
M5
M5
G0 X87.607 Y38.600
M4 S300
G1 X88.098 Y38.600
M5
M5
G0 X88.695 Y38.600
M4 S300
G1 X89.220 Y38.600
M5
M5
G0 X90.500 Y38.600
M4 S300
G1 X91.102 Y38.600
M5
M5
G0 X18.882 Y38.780
M4 S300
G1 X19.400 Y38.780
M5
M5
G0 X22.430 Y38.780
M4 S300
G1 X22.919 Y38.780
M5
M5
G0 X24.143 Y38.780
M4 S300
G1 X24.649 Y38.780
M5
M5
G0 X28.938 Y38.780
M4 S300
G1 X29.437 Y38.780
M5
M5
G0 X29.873 Y38.780
M4 S300
G1 X30.379 Y38.780
M5
M5
G0 X32.984 Y38.780
M4 S300
G1 X33.472 Y38.780
M5
M5
G0 X35.150 Y38.780
M4 S300
G1 X35.618 Y38.780
M5
M5
G0 X35.952 Y38.780
M4 S300
G1 X36.418 Y38.780
M5
M5
G0 X37.410 Y38.780
M4 S300
G1 X37.915 Y38.780
M5
M5
G0 X42.204 Y38.780
M4 S300
G1 X42.704 Y38.780
M5
M5
G0 X46.237 Y38.780
M4 S300
G1 X46.726 Y38.780
M5
M5
G0 X47.310 Y38.780
M4 S300
G1 X47.815 Y38.780
M5
M5
G0 X49.185 Y38.780
M4 S300
G1 X49.724 Y38.780
M5
M5
G0 X50.460 Y38.780
M4 S300
G1 X50.995 Y38.780
M5
M5
G0 X52.387 Y38.780
M4 S300
G1 X52.894 Y38.780
M5
M5
G0 X53.394 Y38.780
M4 S300
G1 X53.900 Y38.780
M5
M5
G0 X56.495 Y38.780
M4 S300
G1 X56.983 Y38.780
M5
M5
G0 X59.394 Y38.780
M4 S300
G1 X59.894 Y38.780
M5
M5
G0 X65.122 Y38.780
M4 S300
G1 X65.621 Y38.780
M5
M5
G0 X66.151 Y38.780
M4 S300
G1 X66.639 Y38.780
M5
M5
G0 X68.004 Y38.780
M4 S300
G1 X68.495 Y38.780
M5
M5
G0 X69.025 Y38.780
M4 S300
G1 X69.530 Y38.780
M5
M5
G0 X70.900 Y38.780
M4 S300
G1 X71.439 Y38.780
M5
M5
G0 X72.186 Y38.780
M4 S300
G1 X72.674 Y38.780
M5
M5
G0 X73.898 Y38.780
M4 S300
G1 X74.404 Y38.780
M5
M5
G0 X78.693 Y38.780
M4 S300
G1 X79.193 Y38.780
M5
M5
G0 X82.594 Y38.780
M4 S300
G1 X83.099 Y38.780
M5
M5
G0 X84.468 Y38.780
M4 S300
G1 X85.007 Y38.780
M5
M5
G0 X85.754 Y38.780
M4 S300
G1 X86.243 Y38.780
M5
M5
G0 X87.607 Y38.780
M4 S300
G1 X88.098 Y38.780
M5
M5
G0 X88.658 Y38.780
M4 S300
G1 X89.175 Y38.780
M5
M5
G0 X90.557 Y38.780
M4 S300
G1 X91.102 Y38.780
M5
M5
G0 X18.882 Y38.960
M4 S300
G1 X19.400 Y38.960
M5
M5
G0 X22.430 Y38.960
M4 S300
G1 X22.919 Y38.960
M5
M5
G0 X24.112 Y38.960
M4 S300
G1 X24.615 Y38.960
M5
M5
G0 X28.766 Y38.960
M4 S300
G1 X29.389 Y38.960
M5
M5
G0 X29.842 Y38.960
M4 S300
G1 X30.345 Y38.960
M5
M5
G0 X32.984 Y38.960
M4 S300
G1 X33.472 Y38.960
M5
M5
G0 X35.085 Y38.960
M4 S300
G1 X35.560 Y38.960
M5
M5
G0 X36.013 Y38.960
M4 S300
G1 X36.486 Y38.960
M5
M5
G0 X37.378 Y38.960
M4 S300
G1 X37.882 Y38.960
M5
M5
G0 X42.032 Y38.960
M4 S300
G1 X42.655 Y38.960
M5
M5
G0 X46.237 Y38.960
M4 S300
G1 X46.726 Y38.960
M5
M5
G0 X47.344 Y38.960
M4 S300
G1 X47.872 Y38.960
M5
M5
G0 X49.225 Y38.960
M4 S300
G1 X49.724 Y38.960
M5
M5
G0 X50.460 Y38.960
M4 S300
G1 X50.965 Y38.960
M5
M5
G0 X52.413 Y38.960
M4 S300
G1 X52.922 Y38.960
M5
M5
G0 X53.363 Y38.960
M4 S300
G1 X53.867 Y38.960
M5
M5
G0 X56.495 Y38.960
M4 S300
G1 X56.983 Y38.960
M5
M5
G0 X59.222 Y38.960
M4 S300
G1 X59.845 Y38.960
M5
M5
G0 X64.950 Y38.960
M4 S300
G1 X65.573 Y38.960
M5
M5
G0 X66.151 Y38.960
M4 S300
G1 X66.639 Y38.960
M5
M5
G0 X68.004 Y38.960
M4 S300
G1 X68.495 Y38.960
M5
M5
G0 X69.059 Y38.960
M4 S300
G1 X69.586 Y38.960
M5
M5
G0 X70.940 Y38.960
M4 S300
G1 X71.439 Y38.960
M5
M5
G0 X72.186 Y38.960
M4 S300
G1 X72.674 Y38.960
M5
M5
G0 X73.867 Y38.960
M4 S300
G1 X74.371 Y38.960
M5
M5
G0 X78.521 Y38.960
M4 S300
G1 X79.144 Y38.960
M5
M5
G0 X82.628 Y38.960
M4 S300
G1 X83.155 Y38.960
M5
M5
G0 X84.508 Y38.960
M4 S300
G1 X85.007 Y38.960
M5
M5
G0 X85.754 Y38.960
M4 S300
G1 X86.243 Y38.960
M5
M5
G0 X87.607 Y38.960
M4 S300
G1 X88.098 Y38.960
M5
M5
G0 X88.636 Y38.960
M4 S300
G1 X89.149 Y38.960
M5
M5
G0 X90.589 Y38.960
M4 S300
G1 X91.102 Y38.960
M5
M5
G0 X18.882 Y39.140
M4 S300
G1 X19.400 Y39.140
M5
M5
G0 X22.430 Y39.140
M4 S300
G1 X22.919 Y39.140
M5
M5
G0 X24.094 Y39.140
M4 S300
G1 X24.602 Y39.140
M5
M5
G0 X28.227 Y39.140
M4 S300
G1 X29.279 Y39.140
M5
M5
G0 X29.824 Y39.140
M4 S300
G1 X30.332 Y39.140
M5
M5
G0 X32.984 Y39.140
M4 S300
G1 X33.472 Y39.140
M5
M5
G0 X35.020 Y39.140
M4 S300
G1 X35.499 Y39.140
M5
M5
G0 X36.076 Y39.140
M4 S300
G1 X36.553 Y39.140
M5
M5
G0 X37.361 Y39.140
M4 S300
G1 X37.869 Y39.140
M5
M5
G0 X41.494 Y39.140
M4 S300
G1 X42.546 Y39.140
M5
M5
G0 X46.237 Y39.140
M4 S300
G1 X46.726 Y39.140
M5
M5
G0 X47.418 Y39.140
M4 S300
G1 X48.035 Y39.140
M5
M5
G0 X49.230 Y39.140
M4 S300
G1 X49.724 Y39.140
M5
M5
G0 X50.460 Y39.140
M4 S300
G1 X50.952 Y39.140
M5
M5
G0 X52.426 Y39.140
M4 S300
G1 X52.932 Y39.140
M5
M5
G0 X53.345 Y39.140
M4 S300
G1 X53.854 Y39.140
M5
M5
G0 X56.495 Y39.140
M4 S300
G1 X56.983 Y39.140
M5
M5
G0 X58.684 Y39.140
M4 S300
G1 X59.736 Y39.140
M5
M5
G0 X64.411 Y39.140
M4 S300
G1 X65.463 Y39.140
M5
M5
G0 X66.151 Y39.140
M4 S300
G1 X66.639 Y39.140
M5
M5
G0 X68.004 Y39.140
M4 S300
G1 X68.495 Y39.140
M5
M5
G0 X69.133 Y39.140
M4 S300
G1 X69.750 Y39.140
M5
M5
G0 X70.945 Y39.140
M4 S300
G1 X71.439 Y39.140
M5
M5
G0 X72.186 Y39.140
M4 S300
G1 X72.674 Y39.140
M5
M5
G0 X73.849 Y39.140
M4 S300
G1 X74.358 Y39.140
M5
M5
G0 X77.982 Y39.140
M4 S300
G1 X79.035 Y39.140
M5
M5
G0 X82.702 Y39.140
M4 S300
G1 X83.319 Y39.140
M5
M5
G0 X84.514 Y39.140
M4 S300
G1 X85.007 Y39.140
M5
M5
G0 X85.754 Y39.140
M4 S300
G1 X86.243 Y39.140
M5
M5
G0 X87.607 Y39.140
M4 S300
G1 X88.098 Y39.140
M5
M5
G0 X88.624 Y39.140
M4 S300
G1 X89.136 Y39.140
M5
M5
G0 X90.607 Y39.140
M4 S300
G1 X91.102 Y39.140
M5
M5
G0 X18.882 Y39.320
M4 S300
G1 X19.400 Y39.320
M5
M5
G0 X22.430 Y39.320
M4 S300
G1 X22.919 Y39.320
M5
M5
G0 X24.088 Y39.320
M4 S300
G1 X26.691 Y39.320
M5
M5
G0 X27.645 Y39.320
M4 S300
G1 X29.060 Y39.320
M5
M5
G0 X29.818 Y39.320
M4 S300
G1 X32.421 Y39.320
M5
M5
G0 X32.984 Y39.320
M4 S300
G1 X33.472 Y39.320
M5
M5
G0 X34.954 Y39.320
M4 S300
G1 X35.438 Y39.320
M5
M5
G0 X36.138 Y39.320
M4 S300
G1 X36.620 Y39.320
M5
M5
G0 X37.355 Y39.320
M4 S300
G1 X39.958 Y39.320
M5
M5
G0 X40.912 Y39.320
M4 S300
G1 X42.326 Y39.320
M5
M5
G0 X46.237 Y39.320
M4 S300
G1 X46.726 Y39.320
M5
M5
G0 X47.559 Y39.320
M4 S300
G1 X49.724 Y39.320
M5
M5
G0 X50.460 Y39.320
M4 S300
G1 X50.949 Y39.320
M5
M5
G0 X52.429 Y39.320
M4 S300
G1 X52.942 Y39.320
M5
M5
G0 X53.339 Y39.320
M4 S300
G1 X55.943 Y39.320
M5
M5
G0 X56.495 Y39.320
M4 S300
G1 X56.983 Y39.320
M5
M5
G0 X58.102 Y39.320
M4 S300
G1 X59.516 Y39.320
M5
M5
